;FLAVOR:Marlin
;TIME:1286
;Filament used: 0.543507m
;Layer height: 0.1
;MINX:39.765
;MINY:39.765
;MINZ:0.3
;MAXX:70.235
;MAXY:70.235
;MAXZ:12
;Generated with Cura_SteamEngine 4.4.0
M104 S200
M105
M109 S200
M82 ;absolute extrusion mode
G21 ;metric values
 G90 ;absolute positioning
 M82 ;set extruder to absolute mode
 M107 ;start with the fan off
 G28 X0 Y0 ;move X/Y to min endstops
 G28 Z0 ;move Z to min endstops
 G1 Z15.0 F120 ;move the platform down 15mm
 G92 E0 ;zero the extruded length
 G1 F200 E6 ;extrude 6 mm of feed stock
 G92 E0 ;zero the extruded length again
 G1 F120 
 ;Put printing message on LCD screen
 M117 Printing...
G92 E0
G92 E0
G1 F1500 E-6.5
;LAYER_COUNT:118
;LAYER:0
M107
G0 F3600 X44.201 Y44.256 Z0.3
;TYPE:SKIRT
G1 F1500 E0
G1 F1800 X44.457 Y44.007 E0.01782
G1 X44.795 Y43.707 E0.04036
G1 X45.238 Y43.366 E0.06825
G1 X47.228 Y42.045 E0.18742
G1 X47.941 Y41.56 E0.23044
G1 X48.438 Y41.272 E0.2591
G1 X48.906 Y41.044 E0.28507
G1 X49.235 Y40.902 E0.30295
G1 X49.687 Y40.73 E0.32708
G1 X50.321 Y40.547 E0.36
G1 X53.679 Y39.871 E0.53089
G1 X54.242 Y39.798 E0.55921
G1 X54.613 Y39.777 E0.57775
G1 X54.71 Y39.773 E0.5826
G1 X54.957 Y39.765 E0.59493
G1 X55.333 Y39.771 E0.61369
G1 X55.77 Y39.798 E0.63553
G1 X56.34 Y39.874 E0.66422
G1 X56.782 Y39.966 E0.68674
G1 X58.191 Y40.241 E0.75836
G1 X58.211 Y40.245 E0.75938
G1 X59.583 Y40.52 E0.82919
G1 X60.103 Y40.661 E0.85607
G1 X60.462 Y40.785 E0.87502
G1 X60.581 Y40.828 E0.88133
G1 X60.804 Y40.913 E0.89324
G1 X61.135 Y41.057 E0.91125
G1 X61.532 Y41.251 E0.93329
G1 X62.029 Y41.54 E0.96198
G1 X62.353 Y41.761 E0.98154
G1 X63.586 Y42.572 E1.05517
G1 X63.628 Y42.6 E1.05769
G1 X64.776 Y43.376 E1.12682
G1 X65.179 Y43.687 E1.15222
G1 X65.446 Y43.922 E1.16996
G1 X65.541 Y44.009 E1.17639
G1 X65.738 Y44.194 E1.18987
G1 X65.995 Y44.459 E1.20829
G1 X66.296 Y44.799 E1.23094
G1 X66.647 Y45.258 E1.25977
G1 X67.002 Y45.8 E1.2921
G1 X67.928 Y47.189 E1.37538
G1 X68.436 Y47.935 E1.42041
G1 X68.726 Y48.434 E1.4492
G1 X68.956 Y48.906 E1.4754
G1 X69.098 Y49.235 E1.49328
G1 X69.27 Y49.687 E1.5174
G1 X69.453 Y50.321 E1.55033
G1 X70.129 Y53.68 E1.72127
G1 X70.202 Y54.241 E1.74949
G1 X70.223 Y54.609 E1.76788
G1 X70.227 Y54.708 E1.77282
G1 X70.235 Y54.956 E1.7852
G1 X70.229 Y55.331 E1.80392
G1 X70.202 Y55.769 E1.82581
G1 X70.126 Y56.34 E1.85455
G1 X70.033 Y56.786 E1.87728
G1 X69.759 Y58.191 E1.94869
G1 X69.755 Y58.21 E1.94966
G1 X69.481 Y59.579 E2.01932
G1 X69.339 Y60.103 E2.0464
G1 X69.214 Y60.464 E2.06546
G1 X69.175 Y60.571 E2.07114
G1 X69.091 Y60.793 E2.08298
G1 X68.944 Y61.133 E2.10146
G1 X68.749 Y61.532 E2.12362
G1 X68.46 Y62.029 E2.1523
G1 X68.253 Y62.332 E2.17061
G1 X67.428 Y63.586 E2.2455
G1 X67.4 Y63.628 E2.24802
G1 X66.624 Y64.776 E2.31715
G1 X66.313 Y65.179 E2.34254
G1 X66.071 Y65.454 E2.36082
G1 X65.98 Y65.553 E2.36753
G1 X65.802 Y65.742 E2.38048
G1 X65.546 Y65.991 E2.3983
G1 X65.206 Y66.293 E2.42099
G1 X64.744 Y66.646 E2.44999
G1 X64.228 Y66.985 E2.4808
G1 X62.779 Y67.951 E2.56768
G1 X62.059 Y68.44 E2.6111
G1 X61.564 Y68.727 E2.63965
G1 X61.094 Y68.956 E2.66573
G1 X60.765 Y69.098 E2.68361
G1 X60.313 Y69.27 E2.70774
G1 X59.679 Y69.453 E2.74066
G1 X56.321 Y70.129 E2.91155
G1 X55.758 Y70.202 E2.93987
G1 X55.387 Y70.223 E2.95841
G1 X55.29 Y70.227 E2.96326
G1 X55.043 Y70.235 E2.97559
G1 X54.667 Y70.229 E2.99435
G1 X54.23 Y70.202 E3.01619
G1 X53.66 Y70.126 E3.04488
G1 X53.214 Y70.033 E3.06761
G1 X51.809 Y69.759 E3.13903
G1 X51.789 Y69.755 E3.14004
G1 X50.417 Y69.48 E3.20985
G1 X49.897 Y69.339 E3.23673
G1 X49.538 Y69.215 E3.25568
G1 X49.419 Y69.172 E3.26199
G1 X49.196 Y69.087 E3.2739
G1 X48.865 Y68.943 E3.29191
G1 X48.468 Y68.749 E3.31395
G1 X47.971 Y68.46 E3.34264
G1 X47.647 Y68.239 E3.3622
G1 X46.414 Y67.428 E3.43583
G1 X46.372 Y67.4 E3.43835
G1 X45.224 Y66.624 E3.50748
G1 X44.821 Y66.313 E3.53288
G1 X44.546 Y66.071 E3.55115
G1 X44.446 Y65.979 E3.55793
G1 X44.255 Y65.799 E3.57103
G1 X44.003 Y65.539 E3.58909
G1 X43.702 Y65.199 E3.61175
G1 X43.349 Y64.737 E3.64075
G1 X43.027 Y64.245 E3.67009
G1 X42.033 Y62.755 E3.75945
G1 X42.034 Y62.755 E3.7595
G1 X41.559 Y62.056 E3.80166
G1 X41.271 Y61.56 E3.83028
G1 X41.044 Y61.094 E3.85614
G1 X40.902 Y60.765 E3.87401
G1 X40.73 Y60.313 E3.89814
G1 X40.547 Y59.679 E3.93106
G1 X39.871 Y56.318 E4.1021
G1 X39.798 Y55.757 E4.13033
G1 X39.777 Y55.389 E4.14872
G1 X39.773 Y55.291 E4.15361
G1 X39.765 Y55.045 E4.16589
G1 X39.77 Y54.673 E4.18445
G1 X39.797 Y54.228 E4.20669
G1 X39.877 Y53.641 E4.23625
G1 X39.961 Y53.244 E4.25649
G1 X40.241 Y51.809 E4.32944
G1 X40.245 Y51.79 E4.33041
G1 X40.519 Y50.421 E4.40006
G1 X40.66 Y49.901 E4.42694
G1 X40.787 Y49.533 E4.44636
G1 X40.831 Y49.413 E4.45274
G1 X40.913 Y49.198 E4.46422
G1 X41.053 Y48.874 E4.48183
G1 X41.246 Y48.477 E4.50385
G1 X41.54 Y47.969 E4.53313
G1 X41.786 Y47.609 E4.55489
G1 X42.572 Y46.414 E4.62624
G1 X42.601 Y46.371 E4.62883
G1 X43.385 Y45.212 E4.69864
G1 X43.71 Y44.794 E4.72506
G1 X43.944 Y44.531 E4.74262
G1 X44.021 Y44.447 E4.74831
G1 X44.201 Y44.256 E4.7614
G0 F3600 X44.492 Y44.53
G1 F1800 X44.722 Y44.307 E4.77738
G1 X45.06 Y44.007 E4.79993
G1 X45.459 Y43.7 E4.82505
G1 X47.422 Y42.397 E4.94259
G1 X48.166 Y41.891 E4.98748
G1 X48.613 Y41.632 E5.01325
G1 X49.081 Y41.404 E5.03923
G1 X49.378 Y41.275 E5.05538
G1 X49.83 Y41.103 E5.07951
G1 X50.4 Y40.939 E5.1091
G1 X53.758 Y40.263 E5.27999
G1 X54.265 Y40.198 E5.30549
G1 X54.636 Y40.177 E5.32403
G1 X54.722 Y40.173 E5.32833
G1 X54.969 Y40.165 E5.34066
G1 X55.308 Y40.17 E5.35757
G1 X55.745 Y40.197 E5.37942
G1 X56.258 Y40.266 E5.40524
G1 X56.702 Y40.359 E5.42787
G1 X58.114 Y40.634 E5.49964
G1 X58.133 Y40.637 E5.5006
G1 X59.505 Y40.912 E5.57041
G1 X59.972 Y41.039 E5.59456
G1 X60.331 Y41.163 E5.6135
G1 X60.438 Y41.202 E5.61919
G1 X60.661 Y41.287 E5.63109
G1 X60.96 Y41.417 E5.64736
G1 X61.357 Y41.611 E5.6694
G1 X61.803 Y41.87 E5.69513
G1 X62.113 Y42.081 E5.71384
G1 X63.367 Y42.906 E5.78873
G1 X63.404 Y42.931 E5.79096
G1 X64.552 Y43.707 E5.86009
G1 X64.914 Y43.988 E5.88295
G1 X65.181 Y44.223 E5.9007
G1 X65.267 Y44.301 E5.90649
G1 X65.464 Y44.486 E5.91997
G1 X65.695 Y44.724 E5.93652
G1 X65.996 Y45.064 E5.95918
G1 X66.313 Y45.478 E5.98519
G1 X66.651 Y45.994 E6.01596
G1 X67.598 Y47.414 E6.10112
G1 X68.106 Y48.16 E6.14614
G1 X68.366 Y48.609 E6.17203
G1 X68.596 Y49.081 E6.19823
G1 X68.725 Y49.378 E6.21438
G1 X68.897 Y49.83 E6.23851
G1 X69.061 Y50.4 E6.2681
G1 X69.737 Y53.759 E6.43904
G1 X69.802 Y54.264 E6.46444
G1 X69.823 Y54.632 E6.48283
G1 X69.827 Y54.721 E6.48728
G1 X69.835 Y54.969 E6.49966
G1 X69.83 Y55.306 E6.51647
G1 X69.803 Y55.744 E6.53836
G1 X69.734 Y56.258 E6.56424
G1 X69.641 Y56.704 E6.58697
G1 X69.366 Y58.114 E6.65864
G1 X69.363 Y58.132 E6.65955
G1 X69.089 Y59.501 E6.7292
G1 X68.961 Y59.972 E6.75355
G1 X68.836 Y60.333 E6.77261
G1 X68.801 Y60.429 E6.77771
G1 X68.717 Y60.651 E6.78955
G1 X68.584 Y60.958 E6.80624
G1 X68.389 Y61.357 E6.8284
G1 X68.13 Y61.803 E6.85413
G1 X67.919 Y62.113 E6.87284
G1 X67.094 Y63.367 E6.94773
G1 X67.069 Y63.404 E6.94996
G1 X66.293 Y64.552 E7.01909
G1 X66.013 Y64.914 E7.04192
G1 X65.771 Y65.189 E7.06019
G1 X65.689 Y65.279 E7.06627
G1 X65.511 Y65.468 E7.07922
G1 X65.281 Y65.692 E7.09524
G1 X64.941 Y65.994 E7.11793
G1 X64.525 Y66.312 E7.14405
G1 X63.984 Y66.667 E7.17633
G1 X62.583 Y67.601 E7.26034
G1 X61.835 Y68.109 E7.30545
G1 X61.389 Y68.367 E7.33115
G1 X60.919 Y68.596 E7.35724
G1 X60.622 Y68.725 E7.37339
G1 X60.17 Y68.897 E7.39752
G1 X59.6 Y69.061 E7.42711
G1 X56.242 Y69.737 E7.598
G1 X55.735 Y69.802 E7.62351
G1 X55.364 Y69.823 E7.64204
G1 X55.278 Y69.827 E7.64634
G1 X55.031 Y69.835 E7.65867
G1 X54.692 Y69.83 E7.67558
G1 X54.255 Y69.803 E7.69743
G1 X53.742 Y69.734 E7.72325
G1 X53.296 Y69.641 E7.74598
G1 X51.886 Y69.366 E7.81765
G1 X51.867 Y69.363 E7.81861
G1 X50.495 Y69.088 E7.88842
G1 X50.028 Y68.961 E7.91257
G1 X49.669 Y68.837 E7.93152
G1 X49.562 Y68.798 E7.9372
G1 X49.339 Y68.713 E7.9491
G1 X49.04 Y68.583 E7.96537
G1 X48.643 Y68.389 E7.98741
G1 X48.197 Y68.13 E8.01315
G1 X47.887 Y67.919 E8.03185
G1 X46.633 Y67.094 E8.10674
G1 X46.596 Y67.069 E8.10897
G1 X45.448 Y66.293 E8.1781
G1 X45.086 Y66.013 E8.20093
G1 X44.811 Y65.771 E8.21921
G1 X44.72 Y65.688 E8.22535
G1 X44.529 Y65.508 E8.23845
G1 X44.303 Y65.274 E8.25468
G1 X44.002 Y64.934 E8.27733
G1 X43.684 Y64.518 E8.30346
G1 X43.36 Y64.023 E8.33297
G1 X42.366 Y62.533 E8.42233
G1 X41.889 Y61.831 E8.46467
G1 X41.631 Y61.385 E8.49038
G1 X41.404 Y60.919 E8.51624
G1 X41.275 Y60.622 E8.5324
G1 X41.103 Y60.17 E8.55652
G1 X40.939 Y59.6 E8.58611
G1 X40.263 Y56.239 E8.75715
G1 X40.198 Y55.734 E8.78256
G1 X40.177 Y55.366 E8.80094
G1 X40.173 Y55.278 E8.80534
G1 X40.165 Y55.032 E8.81762
G1 X40.17 Y54.697 E8.83433
G1 X40.197 Y54.252 E8.85658
G1 X40.268 Y53.724 E8.88316
G1 X40.361 Y53.285 E8.90554
G1 X40.634 Y51.886 E8.97666
G1 X40.637 Y51.868 E8.97757
G1 X40.911 Y50.499 E9.04722
G1 X41.038 Y50.032 E9.07137
G1 X41.165 Y49.664 E9.09079
G1 X41.204 Y49.555 E9.09656
G1 X41.286 Y49.34 E9.10804
G1 X41.412 Y49.049 E9.12386
G1 X41.605 Y48.652 E9.14589
G1 X41.871 Y48.195 E9.17227
G1 X42.081 Y47.887 E9.19087
G1 X42.906 Y46.633 E9.26575
G1 X42.932 Y46.595 E9.26805
G1 X43.716 Y45.436 E9.33786
G1 X44.008 Y45.06 E9.36161
G1 X44.242 Y44.797 E9.37917
G1 X44.312 Y44.721 E9.38433
G1 X44.492 Y44.53 E9.39742
G0 F3600 X44.783 Y44.804
G1 F1800 X44.988 Y44.606 E9.41164
G1 X45.326 Y44.306 E9.43419
G1 X45.68 Y44.033 E9.45649
G1 X47.67 Y42.712 E9.57566
G1 X48.391 Y42.222 E9.61915
G1 X48.788 Y41.991 E9.64206
G1 X49.256 Y41.763 E9.66804
G1 X49.52 Y41.649 E9.68238
G1 X49.972 Y41.477 E9.70651
G1 X50.478 Y41.331 E9.73278
G1 X53.836 Y40.655 E9.90368
G1 X54.287 Y40.597 E9.92636
G1 X54.658 Y40.576 E9.9449
G1 X54.735 Y40.573 E9.94875
G1 X54.982 Y40.565 E9.96107
G1 X55.283 Y40.569 E9.97609
G1 X55.72 Y40.596 E9.99794
G1 X56.176 Y40.657 E10.02089
G1 X56.607 Y40.747 E10.04286
G1 X58.038 Y41.026 E10.11559
G1 X58.054 Y41.029 E10.11641
G1 X59.426 Y41.304 E10.18622
G1 X59.842 Y41.417 E10.20772
G1 X60.201 Y41.541 E10.22667
G1 X60.296 Y41.576 E10.23172
G1 X60.519 Y41.661 E10.24363
G1 X60.784 Y41.776 E10.25804
G1 X61.181 Y41.97 E10.28009
G1 X61.578 Y42.201 E10.303
G1 X61.893 Y42.416 E10.32203
G1 X63.147 Y43.241 E10.39692
G1 X63.18 Y43.263 E10.39889
G1 X64.328 Y44.039 E10.46803
G1 X64.65 Y44.288 E10.48833
G1 X64.917 Y44.523 E10.50608
G1 X64.994 Y44.592 E10.51124
G1 X65.191 Y44.777 E10.52472
G1 X65.396 Y44.989 E10.53943
G1 X65.697 Y45.329 E10.56209
G1 X65.978 Y45.697 E10.58519
G1 X66.318 Y46.216 E10.61614
G1 X67.267 Y47.639 E10.70147
G1 X67.775 Y48.385 E10.7465
G1 X68.007 Y48.784 E10.76953
G1 X68.237 Y49.256 E10.79572
G1 X68.351 Y49.52 E10.81007
G1 X68.523 Y49.972 E10.8342
G1 X68.669 Y50.479 E10.86052
G1 X69.345 Y53.838 E11.03146
G1 X69.403 Y54.287 E11.05405
G1 X69.424 Y54.655 E11.07244
G1 X69.427 Y54.734 E11.07638
G1 X69.435 Y54.982 E11.08876
G1 X69.431 Y55.282 E11.10373
G1 X69.404 Y55.72 E11.12562
G1 X69.343 Y56.176 E11.14858
G1 X69.25 Y56.622 E11.17131
G1 X68.974 Y58.038 E11.24328
G1 X68.971 Y58.053 E11.24404
G1 X68.697 Y59.422 E11.3137
G1 X68.583 Y59.841 E11.33536
G1 X68.458 Y60.202 E11.35442
G1 X68.427 Y60.287 E11.35893
G1 X68.343 Y60.509 E11.37078
G1 X68.225 Y60.782 E11.38561
G1 X68.03 Y61.181 E11.40777
G1 X67.799 Y61.578 E11.43069
G1 X67.584 Y61.893 E11.44971
G1 X66.759 Y63.147 E11.5246
G1 X66.737 Y63.18 E11.52658
G1 X65.961 Y64.328 E11.59571
G1 X65.712 Y64.65 E11.61602
G1 X65.47 Y64.925 E11.63429
G1 X65.398 Y65.005 E11.63966
G1 X65.22 Y65.194 E11.65262
G1 X65.015 Y65.392 E11.66684
G1 X64.675 Y65.694 E11.68952
G1 X64.306 Y65.977 E11.71272
G1 X63.784 Y66.32 E11.74389
G1 X62.335 Y67.286 E11.83077
G1 X61.61 Y67.778 E11.87448
G1 X61.214 Y68.008 E11.89733
G1 X60.744 Y68.237 E11.92341
G1 X60.48 Y68.351 E11.93776
G1 X60.028 Y68.523 E11.96189
G1 X59.522 Y68.669 E11.98816
G1 X56.164 Y69.345 E12.15905
G1 X55.713 Y69.403 E12.18174
G1 X55.342 Y69.424 E12.20028
G1 X55.265 Y69.427 E12.20412
G1 X55.018 Y69.435 E12.21645
G1 X54.717 Y69.431 E12.23147
G1 X54.28 Y69.404 E12.25331
G1 X53.824 Y69.343 E12.27627
G1 X53.393 Y69.253 E12.29823
G1 X51.962 Y68.974 E12.37097
G1 X51.946 Y68.971 E12.37178
G1 X50.574 Y68.696 E12.44159
G1 X50.158 Y68.583 E12.4631
G1 X49.799 Y68.459 E12.48205
G1 X49.704 Y68.424 E12.4871
G1 X49.481 Y68.339 E12.499
G1 X49.216 Y68.224 E12.51342
G1 X48.819 Y68.03 E12.53546
G1 X48.422 Y67.799 E12.55838
G1 X48.107 Y67.584 E12.5774
G1 X46.853 Y66.759 E12.65229
G1 X46.82 Y66.737 E12.65427
G1 X45.672 Y65.961 E12.7234
G1 X45.35 Y65.712 E12.74371
G1 X45.075 Y65.47 E12.76198
G1 X44.994 Y65.397 E12.76742
G1 X44.803 Y65.217 E12.78052
G1 X44.602 Y65.009 E12.79495
G1 X44.301 Y64.669 E12.8176
G1 X44.019 Y64.299 E12.84081
G1 X43.693 Y63.801 E12.87051
G1 X42.699 Y62.311 E12.95987
G1 X42.22 Y61.606 E13.00239
G1 X41.99 Y61.209 E13.02528
G1 X41.763 Y60.743 E13.05114
G1 X41.649 Y60.48 E13.06544
G1 X41.477 Y60.028 E13.08957
G1 X41.331 Y59.521 E13.11589
G1 X40.655 Y56.16 E13.28693
G1 X40.597 Y55.711 E13.30952
G1 X40.576 Y55.343 E13.32791
G1 X40.573 Y55.265 E13.3318
G1 X40.565 Y55.019 E13.34408
G1 X40.569 Y54.721 E13.35895
G1 X40.596 Y54.276 E13.38119
G1 X40.659 Y53.807 E13.4048
G1 X40.752 Y53.368 E13.42719
G1 X41.026 Y51.962 E13.49865
G1 X41.029 Y51.947 E13.49942
G1 X41.303 Y50.578 E13.56907
G1 X41.416 Y50.162 E13.59058
G1 X41.543 Y49.794 E13.61
G1 X41.578 Y49.698 E13.6151
G1 X41.66 Y49.483 E13.62658
G1 X41.772 Y49.224 E13.64066
G1 X41.965 Y48.827 E13.66268
G1 X42.201 Y48.421 E13.68611
G1 X42.427 Y48.09 E13.7061
G1 X43.241 Y46.853 E13.77998
G1 X43.263 Y46.819 E13.782
G1 X44.047 Y45.66 E13.85181
G1 X44.307 Y45.326 E13.87293
G1 X44.541 Y45.063 E13.89049
G1 X44.603 Y44.995 E13.89508
G1 X44.783 Y44.804 E13.90818
G0 F3600 X53.226 Y53.467
;TYPE:SUPPORT
G1 F1800 X53.556 Y53.151 E13.93097
G1 X53.925 Y52.915 E13.95282
G1 X54.349 Y52.748 E13.97556
G1 X54.797 Y52.663 E13.99831
G1 X55.242 Y52.667 E14.02051
G1 X55.677 Y52.756 E14.04266
G1 X56.105 Y52.934 E14.06579
G1 X56.475 Y53.178 E14.0879
G1 X56.794 Y53.492 E14.11023
G1 X57.056 Y53.871 E14.13322
G1 X57.233 Y54.277 E14.15531
G1 X57.328 Y54.713 E14.17758
G1 X57.339 Y55.171 E14.20043
G1 X57.266 Y55.616 E14.22293
G1 X57.177 Y55.875 E14.23659
G1 X56.951 Y56.301 E14.26065
G1 X56.676 Y56.64 E14.28243
G1 X56.325 Y56.935 E14.30531
G1 X55.932 Y57.152 E14.3277
G1 X55.51 Y57.289 E14.34984
G1 X55.047 Y57.344 E14.3731
G1 X54.614 Y57.314 E14.39475
G1 X54.171 Y57.194 E14.41765
G1 X53.769 Y56.996 E14.44001
G1 X53.407 Y56.722 E14.46266
G1 X53.114 Y56.393 E14.48464
G1 X52.876 Y55.996 E14.50773
G1 X52.727 Y55.583 E14.52964
G1 X52.658 Y55.13 E14.5525
G1 X52.676 Y54.687 E14.57462
G1 X52.782 Y54.238 E14.59763
G1 X52.963 Y53.838 E14.61954
G1 X53.226 Y53.467 E14.64223
G0 F3600 X53.34 Y53.584
G1 F1800 X53.34 Y56.406 E14.78302
G0 F3600 X53.069 Y56.007
G1 F1800 X56.925 Y56.007 E14.97539
G0 F3600 X56.007 Y56.928
G1 F1800 X56.007 Y53.068 E15.16797
G0 F3600 X56.411 Y53.34
G1 F1800 X53.589 Y53.34 E15.30876
G1 F1500 E8.80876
;MESH:Spur Gear (16 teeth).stl(3)
G0 F3600 X57.458 Y54.206
G0 X58.666 Y53.813
G0 X58.826 Y54.536
;TYPE:WALL-INNER
G1 F1500 E15.30876
G1 F1800 X58.666 Y53.813 E15.3457
G1 X58.371 Y53.135 E15.38259
G1 X57.952 Y52.525 E15.41951
G1 X57.425 Y52.007 E15.45638
G1 X56.808 Y51.599 E15.49328
G1 X56.125 Y51.316 E15.53017
G1 X55.399 Y51.168 E15.56713
G1 X54.659 Y51.162 E15.60405
G1 X53.931 Y51.298 E15.641
G1 X53.243 Y51.571 E15.67793
G1 X52.621 Y51.97 E15.71479
G1 X52.086 Y52.48 E15.75167
G1 X51.658 Y53.084 E15.7886
G1 X51.355 Y53.759 E15.82552
G1 X51.184 Y54.478 E15.86239
G1 X51.153 Y55.217 E15.89929
G1 X51.266 Y55.95 E15.93629
G1 X51.516 Y56.646 E15.97319
