;FLAVOR:Marlin
;TIME:3896
;Filament used: 2.39819m
;Layer height: 0.1
;MINX:19.703
;MINY:19.701
;MINZ:0.3
;MAXX:90.298
;MAXY:90.299
;MAXZ:4
;Generated with Cura_SteamEngine 4.4.0
M104 S200
M105
M109 S200
M82 ;absolute extrusion mode
G21 ;metric values
 G90 ;absolute positioning
 M82 ;set extruder to absolute mode
 M107 ;start with the fan off
 G28 X0 Y0 ;move X/Y to min endstops
 G28 Z0 ;move Z to min endstops
 G1 Z15.0 F120 ;move the platform down 15mm
 G92 E0 ;zero the extruded length
 G1 F200 E6 ;extrude 6 mm of feed stock
 G92 E0 ;zero the extruded length again
 G1 F120 
 ;Put printing message on LCD screen
 M117 Printing...
G92 E0
G92 E0
G1 F1500 E-6.5
;LAYER_COUNT:38
;LAYER:0
M107
G0 F3600 X29.824 Y30.259 Z0.3
;TYPE:SKIRT
G1 F1500 E0
G1 F1800 X30.479 Y29.611 E0.04597
G1 X30.654 Y29.443 E0.05807
G1 X31.337 Y28.808 E0.1046
G1 X31.542 Y28.624 E0.11834
G1 X32.235 Y28.024 E0.16407
G1 X32.428 Y27.862 E0.17664
G1 X33.147 Y27.279 E0.22282
G1 X33.365 Y27.109 E0.23662
G1 X34.108 Y26.549 E0.28303
G1 X34.306 Y26.405 E0.29525
G1 X35.06 Y25.873 E0.34129
G1 X35.285 Y25.72 E0.35486
G1 X36.052 Y25.218 E0.4006
G1 X36.281 Y25.073 E0.41412
G1 X37.078 Y24.59 E0.46061
G1 X37.295 Y24.464 E0.47313
G1 X38.098 Y24.012 E0.5191
G1 X38.324 Y23.889 E0.53194
G1 X39.139 Y23.465 E0.57777
G1 X39.386 Y23.343 E0.59152
G1 X40.226 Y22.943 E0.63793
G1 X40.452 Y22.839 E0.65035
G1 X41.293 Y22.471 E0.69615
G1 X41.533 Y22.371 E0.70912
G1 X42.399 Y22.026 E0.75562
G1 X42.661 Y21.927 E0.7696
G1 X43.523 Y21.619 E0.81527
G1 X43.762 Y21.538 E0.82786
G1 X44.643 Y21.255 E0.87402
G1 X44.892 Y21.18 E0.88699
G1 X45.78 Y20.927 E0.93306
G1 X46.031 Y20.859 E0.94603
G1 X46.926 Y20.636 E0.99205
G1 X47.197 Y20.574 E1.00592
G1 X48.109 Y20.381 E1.05243
G1 X48.356 Y20.333 E1.06498
G1 X49.26 Y20.172 E1.11079
G1 X49.512 Y20.131 E1.12353
G1 X50.425 Y19.999 E1.16955
G1 X50.688 Y19.966 E1.18278
G1 X51.615 Y19.864 E1.2293
G1 X51.88 Y19.839 E1.24258
G1 X52.793 Y19.77 E1.28826
G1 X53.054 Y19.755 E1.30131
G1 X53.984 Y19.716 E1.34774
G1 X54.243 Y19.709 E1.36067
G1 X55.162 Y19.701 E1.40652
G1 X55.425 Y19.703 E1.41964
G1 X56.347 Y19.726 E1.46566
G1 X56.613 Y19.738 E1.47894
G1 X57.541 Y19.793 E1.52532
G1 X57.797 Y19.812 E1.53813
G1 X58.718 Y19.897 E1.58427
G1 X58.984 Y19.926 E1.59762
G1 X59.897 Y20.042 E1.64354
G1 X60.151 Y20.079 E1.65634
G1 X61.06 Y20.225 E1.70227
G1 X61.315 Y20.27 E1.71519
G1 X62.223 Y20.447 E1.76135
G1 X62.492 Y20.504 E1.77506
G1 X63.398 Y20.714 E1.82146
G1 X63.642 Y20.775 E1.83401
G1 X64.533 Y21.012 E1.88001
G1 X64.786 Y21.084 E1.89313
G1 X65.672 Y21.352 E1.93931
G1 X65.927 Y21.434 E1.95268
G1 X66.794 Y21.729 E1.99837
G1 X67.039 Y21.817 E2.01135
G1 X67.904 Y22.144 E2.05749
G1 X68.148 Y22.241 E2.07059
G1 X69.009 Y22.6 E2.11713
G1 X69.246 Y22.703 E2.13002
G1 X70.085 Y23.086 E2.17603
G1 X70.31 Y23.194 E2.18849
G1 X71.131 Y23.601 E2.2342
G1 X71.386 Y23.733 E2.24853
G1 X72.199 Y24.174 E2.29467
G1 X72.42 Y24.298 E2.30731
G1 X73.223 Y24.768 E2.35373
G1 X73.441 Y24.901 E2.36647
G1 X74.217 Y25.39 E2.41224
G1 X74.43 Y25.529 E2.42492
G1 X75.2 Y26.05 E2.47131
G1 X75.434 Y26.214 E2.48556
G1 X76.175 Y26.756 E2.53137
G1 X76.373 Y26.906 E2.54376
G1 X77.105 Y27.478 E2.59011
G1 X77.299 Y27.635 E2.60256
G1 X78.005 Y28.224 E2.64843
G1 X78.222 Y28.412 E2.66275
G1 X78.913 Y29.033 E2.7091
G1 X79.094 Y29.201 E2.72142
G1 X79.758 Y29.837 E2.76729
G1 X79.954 Y30.031 E2.78105
G1 X80.597 Y30.692 E2.82706
G1 X80.763 Y30.868 E2.83913
G1 X81.391 Y31.555 E2.88557
G1 X81.578 Y31.768 E2.89971
G1 X82.171 Y32.466 E2.9454
G1 X82.327 Y32.655 E2.95763
G1 X82.904 Y33.379 E3.00382
G1 X83.066 Y33.59 E3.01709
G1 X83.617 Y34.332 E3.0632
G1 X83.777 Y34.555 E3.07689
G1 X84.305 Y35.321 E3.1233
G1 X84.434 Y35.514 E3.13489
G1 X84.931 Y36.283 E3.18057
G1 X85.082 Y36.526 E3.19484
G1 X85.556 Y37.322 E3.24106
G1 X85.683 Y37.544 E3.25382
G1 X86.129 Y38.352 E3.29986
G1 X86.253 Y38.586 E3.31308
G1 X86.672 Y39.41 E3.3592
G1 X86.786 Y39.644 E3.37218
G1 X87.177 Y40.481 E3.41827
G1 X87.284 Y40.72 E3.43134
G1 X87.649 Y41.575 E3.47772
G1 X87.744 Y41.809 E3.49032
G1 X88.077 Y42.665 E3.53614
G1 X88.177 Y42.935 E3.5505
G1 X88.48 Y43.808 E3.59661
G1 X88.557 Y44.044 E3.60899
G1 X88.832 Y44.926 E3.65508
G1 X88.906 Y45.177 E3.66814
G1 X89.153 Y46.074 E3.71456
G1 X89.215 Y46.315 E3.72697
G1 X89.43 Y47.206 E3.7727
G1 X89.49 Y47.475 E3.78645
G1 X89.675 Y48.381 E3.83258
G1 X89.724 Y48.642 E3.84583
G1 X89.878 Y49.553 E3.89193
G1 X89.916 Y49.806 E3.90469
G1 X90.04 Y50.721 E3.95076
G1 X90.071 Y50.983 E3.96392
G1 X90.164 Y51.902 E4.01
G1 X90.186 Y52.156 E4.02272
G1 X90.249 Y53.079 E4.06888
G1 X90.263 Y53.348 E4.08232
G1 X90.294 Y54.27 E4.12834
G1 X90.298 Y54.532 E4.14141
G1 X90.298 Y55.46 E4.18771
G1 X90.294 Y55.723 E4.20084
G1 X90.263 Y56.643 E4.24676
G1 X90.249 Y56.908 E4.26
G1 X90.186 Y57.837 E4.30645
G1 X90.165 Y58.083 E4.31877
G1 X90.074 Y58.995 E4.3645
G1 X90.042 Y59.267 E4.37816
G1 X89.918 Y60.183 E4.42428
G1 X89.88 Y60.438 E4.43714
G1 X89.726 Y61.348 E4.48319
G1 X89.678 Y61.604 E4.49618
G1 X89.492 Y62.517 E4.54267
G1 X89.43 Y62.794 E4.55683
G1 X89.214 Y63.687 E4.60266
G1 X89.155 Y63.915 E4.61441
G1 X88.911 Y64.805 E4.66045
G1 X88.837 Y65.059 E4.67365
G1 X88.563 Y65.94 E4.71968
G1 X88.477 Y66.201 E4.73339
G1 X88.169 Y67.081 E4.77991
G1 X88.082 Y67.317 E4.79246
G1 X87.751 Y68.173 E4.83824
G1 X87.65 Y68.422 E4.85165
G1 X87.288 Y69.27 E4.89765
G1 X87.184 Y69.502 E4.91033
G1 X86.794 Y70.339 E4.9564
G1 X86.673 Y70.587 E4.97017
G1 X86.253 Y71.411 E5.01631
G1 X86.14 Y71.625 E5.02839
G1 X85.695 Y72.435 E5.07449
G1 X85.56 Y72.671 E5.08806
G1 X85.087 Y73.465 E5.13417
G1 X84.949 Y73.688 E5.14725
G1 X84.45 Y74.465 E5.19332
G1 X84.299 Y74.692 E5.20692
G1 X83.769 Y75.457 E5.25335
G1 X83.62 Y75.664 E5.26608
G1 X83.073 Y76.401 E5.31187
G1 X82.919 Y76.602 E5.3245
G1 X82.345 Y77.325 E5.37056
G1 X82.172 Y77.534 E5.38409
G1 X81.572 Y78.238 E5.43024
G1 X81.403 Y78.43 E5.443
G1 X80.782 Y79.112 E5.48902
G1 X80.601 Y79.305 E5.50222
G1 X79.951 Y79.972 E5.54868
G1 X79.764 Y80.157 E5.56181
G1 X79.102 Y80.792 E5.60757
G1 X78.904 Y80.976 E5.62106
G1 X78.21 Y81.597 E5.66752
G1 X78.013 Y81.767 E5.6805
G1 X77.31 Y82.355 E5.72623
G1 X77.115 Y82.513 E5.73875
G1 X76.382 Y83.087 E5.78519
G1 X76.176 Y83.243 E5.79809
G1 X75.436 Y83.784 E5.84382
G1 X75.206 Y83.946 E5.85785
G1 X74.435 Y84.468 E5.90431
G1 X74.227 Y84.604 E5.9167
G1 X73.451 Y85.094 E5.96249
G1 X73.216 Y85.236 E5.97619
G1 X72.412 Y85.705 E6.02263
G1 X72.21 Y85.819 E6.0342
G1 X71.405 Y86.257 E6.07992
G1 X71.138 Y86.396 E6.09494
G1 X70.308 Y86.807 E6.14115
G1 X70.096 Y86.908 E6.15286
G1 X69.258 Y87.292 E6.19885
G1 X69.01 Y87.401 E6.21237
G1 X68.151 Y87.759 E6.25879
G1 X67.908 Y87.855 E6.27183
G1 X67.043 Y88.182 E6.31797
G1 X66.792 Y88.272 E6.33127
G1 X65.923 Y88.567 E6.37705
G1 X65.679 Y88.646 E6.38985
G1 X64.795 Y88.914 E6.43593
G1 X64.541 Y88.986 E6.4491
G1 X63.648 Y89.224 E6.49521
G1 X63.392 Y89.287 E6.50836
G1 X62.486 Y89.496 E6.55475
G1 X62.248 Y89.547 E6.5669
G1 X61.344 Y89.726 E6.61287
G1 X61.054 Y89.778 E6.62757
G1 X60.142 Y89.923 E6.67364
G1 X59.899 Y89.958 E6.68589
G1 X58.985 Y90.074 E6.73186
G1 X58.713 Y90.104 E6.74551
G1 X57.794 Y90.188 E6.79155
G1 X57.553 Y90.206 E6.80361
G1 X56.623 Y90.262 E6.85009
G1 X56.349 Y90.274 E6.86377
G1 X55.428 Y90.297 E6.90973
G1 X55.165 Y90.299 E6.92286
G1 X54.247 Y90.291 E6.96866
G1 X53.989 Y90.284 E6.98153
G1 X53.058 Y90.245 E7.02802
G1 X52.805 Y90.231 E7.04066
G1 X51.891 Y90.163 E7.08639
G1 X51.616 Y90.137 E7.10017
G1 X50.69 Y90.035 E7.14665
G1 X50.436 Y90.003 E7.15942
G1 X49.53 Y89.873 E7.20508
G1 X49.264 Y89.83 E7.21853
G1 X48.353 Y89.667 E7.2647
G1 X48.101 Y89.618 E7.27751
G1 X47.191 Y89.424 E7.32393
G1 X46.943 Y89.367 E7.33662
G1 X46.046 Y89.145 E7.38272
G1 X45.781 Y89.074 E7.39641
G1 X44.894 Y88.821 E7.44243
G1 X44.65 Y88.747 E7.45515
G1 X43.768 Y88.464 E7.50136
G1 X43.519 Y88.379 E7.51449
G1 X42.657 Y88.07 E7.56017
G1 X42.407 Y87.976 E7.5735
G1 X41.542 Y87.632 E7.61994
G1 X41.311 Y87.536 E7.63242
G1 X40.468 Y87.169 E7.67829
G1 X40.217 Y87.054 E7.69207
G1 X39.378 Y86.653 E7.73846
G1 X39.152 Y86.541 E7.75104
G1 X38.338 Y86.119 E7.79679
G1 X38.096 Y85.988 E7.81051
G1 X37.291 Y85.534 E7.85662
G1 X37.075 Y85.408 E7.8691
G1 X36.281 Y84.926 E7.91544
G1 X36.059 Y84.786 E7.92853
G1 X35.29 Y84.283 E7.97438
G1 X35.075 Y84.137 E7.98734
G1 X34.318 Y83.605 E8.0335
G1 X34.1 Y83.446 E8.04697
G1 X33.359 Y82.886 E8.0933
G1 X33.16 Y82.73 E8.10592
G1 X32.441 Y82.149 E8.15204
G1 X32.228 Y81.971 E8.16589
G1 X31.536 Y81.37 E8.21161
G1 X31.353 Y81.206 E8.22387
G1 X30.669 Y80.573 E8.27037
G1 X30.473 Y80.385 E8.28392
G1 X29.818 Y79.735 E8.32996
G1 X29.646 Y79.558 E8.34227
G1 X29.015 Y78.891 E8.38808
G1 X28.821 Y78.679 E8.40241
G1 X28.207 Y77.98 E8.44883
G1 X28.046 Y77.79 E8.46125
G1 X27.463 Y77.082 E8.50701
G1 X27.299 Y76.876 E8.52015
G1 X26.732 Y76.138 E8.56658
G1 X26.576 Y75.928 E8.57963
G1 X26.038 Y75.177 E8.62572
G1 X25.893 Y74.968 E8.63841
G1 X25.38 Y74.2 E8.68449
G1 X25.232 Y73.969 E8.69818
G1 X24.746 Y73.183 E8.74428
G1 X24.614 Y72.962 E8.75712
G1 X24.154 Y72.16 E8.80325
G1 X24.025 Y71.926 E8.81658
G1 X23.596 Y71.115 E8.86235
G1 X23.478 Y70.882 E8.87538
G1 X23.071 Y70.046 E8.92177
G1 X22.959 Y69.806 E8.93498
G1 X22.583 Y68.962 E8.98108
G1 X22.488 Y68.739 E8.99317
G1 X22.141 Y67.89 E9.03893
G1 X22.039 Y67.628 E9.05296
G1 X21.718 Y66.754 E9.09941
G1 X21.634 Y66.514 E9.1121
G1 X21.344 Y65.637 E9.15818
G1 X21.268 Y65.392 E9.17098
G1 X21.007 Y64.506 E9.21706
G1 X20.934 Y64.243 E9.23068
G1 X20.704 Y63.348 E9.27678
G1 X20.649 Y63.116 E9.28867
G1 X20.448 Y62.221 E9.33444
G1 X20.387 Y61.927 E9.34942
G1 X20.218 Y61.011 E9.39589
G1 X20.178 Y60.769 E9.40813
G1 X20.039 Y59.855 E9.45425
G1 X20.004 Y59.595 E9.46734
G1 X19.896 Y58.679 E9.51335
G1 X19.87 Y58.421 E9.52629
G1 X19.793 Y57.507 E9.57205
G1 X19.775 Y57.254 E9.58471
G1 X19.727 Y56.324 E9.63117
G1 X19.718 Y56.05 E9.64484
G1 X19.703 Y55.133 E9.6906
G1 X19.703 Y54.878 E9.70332
G1 X19.718 Y53.954 E9.74943
G1 X19.727 Y53.687 E9.76275
G1 X19.774 Y52.758 E9.80916
G1 X19.792 Y52.497 E9.82221
G1 X19.869 Y51.583 E9.86797
G1 X19.896 Y51.317 E9.88131
G1 X20.005 Y50.4 E9.92738
G1 X20.039 Y50.148 E9.94007
G1 X20.178 Y49.234 E9.98619
G1 X20.222 Y48.974 E9.99935
G1 X20.393 Y48.059 E10.04579
G1 X20.442 Y47.817 E10.05811
G1 X20.639 Y46.921 E10.10388
G1 X20.705 Y46.645 E10.11804
G1 X20.936 Y45.751 E10.1641
G1 X21.005 Y45.5 E10.17709
G1 X21.266 Y44.613 E10.22322
G1 X21.344 Y44.364 E10.23624
G1 X21.634 Y43.488 E10.28227
G1 X21.716 Y43.253 E10.29469
G1 X22.037 Y42.378 E10.34119
G1 X22.13 Y42.138 E10.35403
G1 X22.474 Y41.288 E10.39978
G1 X22.587 Y41.023 E10.41415
G1 X22.965 Y40.18 E10.46024
G1 X23.072 Y39.95 E10.4729
G1 X23.48 Y39.114 E10.51931
G1 X23.592 Y38.894 E10.53163
G1 X24.02 Y38.083 E10.57737
G1 X24.154 Y37.84 E10.59122
G1 X24.614 Y37.039 E10.6373
G1 X24.741 Y36.825 E10.64972
G1 X25.227 Y36.038 E10.69586
G1 X25.381 Y35.8 E10.71001
G1 X25.894 Y35.033 E10.75604
G1 X26.03 Y34.835 E10.76803
G1 X26.568 Y34.082 E10.8142
G1 X26.732 Y33.861 E10.82793
G1 X27.298 Y33.125 E10.87425
G1 X27.46 Y32.921 E10.88725
G1 X28.044 Y32.212 E10.93307
G1 X28.213 Y32.015 E10.94602
G1 X28.828 Y31.317 E10.99243
G1 X29.002 Y31.126 E11.00532
G1 X29.632 Y30.457 E11.05117
G1 X29.824 Y30.259 E11.06493
G0 F3600 X30.106 Y30.543
G1 F1800 X30.761 Y29.895 E11.1109
G1 X30.926 Y29.736 E11.12233
G1 X31.609 Y29.101 E11.16886
G1 X31.804 Y28.927 E11.1819
G1 X32.497 Y28.327 E11.22763
G1 X32.68 Y28.173 E11.23956
G1 X33.399 Y27.59 E11.28574
G1 X33.606 Y27.429 E11.29882
G1 X34.349 Y26.869 E11.34524
G1 X34.537 Y26.732 E11.35685
G1 X35.291 Y26.2 E11.40289
G1 X35.505 Y26.054 E11.41581
G1 X36.272 Y25.552 E11.46154
G1 X36.489 Y25.415 E11.47435
G1 X37.286 Y24.932 E11.52084
G1 X37.491 Y24.812 E11.53269
G1 X38.294 Y24.36 E11.57866
G1 X38.509 Y24.244 E11.59085
G1 X39.324 Y23.82 E11.63669
G1 X39.557 Y23.704 E11.64967
G1 X40.397 Y23.304 E11.69609
G1 X40.613 Y23.206 E11.70792
G1 X41.454 Y22.838 E11.75372
G1 X41.681 Y22.742 E11.76602
G1 X42.547 Y22.397 E11.81252
G1 X42.796 Y22.303 E11.8258
G1 X43.658 Y21.995 E11.87147
G1 X43.885 Y21.919 E11.88341
G1 X44.766 Y21.636 E11.92958
G1 X45.001 Y21.564 E11.94184
G1 X45.889 Y21.311 E11.98791
G1 X46.128 Y21.248 E12.00024
G1 X47.023 Y21.025 E12.04625
G1 X47.28 Y20.965 E12.05942
G1 X48.192 Y20.772 E12.10593
G1 X48.426 Y20.727 E12.11782
G1 X49.33 Y20.566 E12.16363
G1 X49.569 Y20.527 E12.17571
G1 X50.482 Y20.395 E12.22173
G1 X50.732 Y20.363 E12.23431
G1 X51.659 Y20.261 E12.28083
G1 X51.91 Y20.238 E12.29341
G1 X52.823 Y20.169 E12.33909
G1 X53.071 Y20.154 E12.35148
G1 X54.001 Y20.115 E12.39792
G1 X54.247 Y20.109 E12.4102
G1 X55.166 Y20.101 E12.45605
G1 X55.415 Y20.103 E12.46847
G1 X56.337 Y20.126 E12.51449
G1 X56.59 Y20.137 E12.52712
G1 X57.518 Y20.192 E12.5735
G1 X57.76 Y20.21 E12.58561
G1 X58.681 Y20.295 E12.63175
G1 X58.934 Y20.323 E12.64445
G1 X59.847 Y20.439 E12.69037
G1 X60.088 Y20.474 E12.70252
G1 X60.997 Y20.62 E12.74845
G1 X61.239 Y20.663 E12.76071
G1 X62.147 Y20.84 E12.80686
G1 X62.402 Y20.894 E12.81987
G1 X63.308 Y21.104 E12.86627
G1 X63.539 Y21.162 E12.87815
G1 X64.43 Y21.399 E12.92415
G1 X64.671 Y21.467 E12.93664
G1 X65.557 Y21.735 E12.98282
G1 X65.798 Y21.812 E12.99544
G1 X66.665 Y22.107 E13.04113
G1 X66.898 Y22.191 E13.05349
G1 X67.763 Y22.518 E13.09962
G1 X67.994 Y22.61 E13.11203
G1 X68.855 Y22.969 E13.15857
G1 X69.08 Y23.067 E13.17081
G1 X69.919 Y23.45 E13.21683
G1 X70.133 Y23.552 E13.22865
G1 X70.954 Y23.959 E13.27437
G1 X71.195 Y24.084 E13.28791
G1 X72.008 Y24.525 E13.33406
G1 X72.218 Y24.644 E13.3461
G1 X73.021 Y25.114 E13.39252
G1 X73.228 Y25.239 E13.40458
G1 X74.004 Y25.728 E13.45034
G1 X74.206 Y25.86 E13.46238
G1 X74.976 Y26.381 E13.50877
G1 X75.198 Y26.537 E13.5223
G1 X75.939 Y27.079 E13.56811
G1 X76.126 Y27.221 E13.57982
G1 X76.858 Y27.793 E13.62617
G1 X77.043 Y27.942 E13.63802
G1 X77.749 Y28.531 E13.68389
G1 X77.954 Y28.709 E13.69743
G1 X78.645 Y29.33 E13.74378
G1 X78.818 Y29.49 E13.75554
G1 X79.482 Y30.126 E13.80141
G1 X79.667 Y30.31 E13.81443
G1 X80.31 Y30.971 E13.86044
G1 X80.468 Y31.138 E13.87191
G1 X81.096 Y31.825 E13.91834
G1 X81.274 Y32.027 E13.93177
G1 X81.867 Y32.725 E13.97747
G1 X82.014 Y32.904 E13.98902
G1 X82.591 Y33.628 E14.03521
G1 X82.745 Y33.828 E14.04781
G1 X83.296 Y34.57 E14.09391
G1 X83.448 Y34.782 E14.10693
G1 X83.976 Y35.548 E14.15334
G1 X84.098 Y35.731 E14.16432
G1 X84.595 Y36.5 E14.21
G1 X84.738 Y36.731 E14.22355
G1 X85.212 Y37.527 E14.26977
G1 X85.333 Y37.737 E14.28186
G1 X85.779 Y38.545 E14.32791
G1 X85.896 Y38.767 E14.34043
G1 X86.315 Y39.591 E14.38655
G1 X86.424 Y39.813 E14.39889
G1 X86.815 Y40.65 E14.44498
G1 X86.916 Y40.877 E14.45737
G1 X87.281 Y41.732 E14.50375
G1 X87.372 Y41.954 E14.51572
G1 X87.705 Y42.81 E14.56155
G1 X87.799 Y43.067 E14.5752
G1 X88.102 Y43.94 E14.6213
G1 X88.176 Y44.163 E14.63302
G1 X88.451 Y45.045 E14.67911
G1 X88.52 Y45.283 E14.69148
G1 X88.767 Y46.18 E14.73789
G1 X88.827 Y46.409 E14.74971
G1 X89.042 Y47.3 E14.79543
G1 X89.098 Y47.556 E14.80851
G1 X89.283 Y48.462 E14.85464
G1 X89.329 Y48.709 E14.86718
G1 X89.483 Y49.62 E14.91327
G1 X89.52 Y49.859 E14.92534
G1 X89.644 Y50.774 E14.9714
G1 X89.673 Y51.023 E14.98391
G1 X89.766 Y51.942 E15.02999
G1 X89.787 Y52.183 E15.04206
G1 X89.85 Y53.106 E15.08822
G1 X89.863 Y53.361 E15.10096
G1 X89.894 Y54.283 E15.14698
G1 X89.898 Y54.532 E15.15941
G1 X89.898 Y55.46 E15.2057
G1 X89.894 Y55.709 E15.21813
G1 X89.863 Y56.629 E15.26405
G1 X89.85 Y56.881 E15.27664
G1 X89.787 Y57.81 E15.3231
G1 X89.767 Y58.044 E15.33481
G1 X89.676 Y58.956 E15.38054
G1 X89.646 Y59.214 E15.3935
