;FLAVOR:Marlin
;TIME:797
;Filament used: 0.360781m
;Layer height: 0.1
;MINX:41.868
;MINY:41.868
;MINZ:0.3
;MAXX:68.137
;MAXY:68.132
;MAXZ:8.6
;Generated with Cura_SteamEngine 4.4.0
M104 S200
M105
M109 S200
M82 ;absolute extrusion mode
G21 ;metric values
 G90 ;absolute positioning
 M82 ;set extruder to absolute mode
 M107 ;start with the fan off
 G28 X0 Y0 ;move X/Y to min endstops
 G28 Z0 ;move Z to min endstops
 G1 Z15.0 F120 ;move the platform down 15mm
 G92 E0 ;zero the extruded length
 G1 F200 E6 ;extrude 6 mm of feed stock
 G92 E0 ;zero the extruded length again
 G1 F120 
 ;Put printing message on LCD screen
 M117 Printing...
G92 E0
G92 E0
G1 F1500 E-6.5
;LAYER_COUNT:84
;LAYER:0
M107
G0 F3600 X45.623 Y45.806 Z0.3
;TYPE:SKIRT
G1 F1500 E0
G1 F1800 X45.84 Y45.591 E0.01524
G1 X46.303 Y45.161 E0.04676
G1 X46.518 Y44.974 E0.06098
G1 X46.998 Y44.583 E0.09187
G1 X47.176 Y44.445 E0.1031
G1 X47.423 Y44.264 E0.11838
G1 X47.733 Y44.056 E0.13701
G1 X48.553 Y43.556 E0.18492
G1 X48.776 Y43.429 E0.19772
G1 X49.007 Y43.306 E0.21078
G1 X49.331 Y43.151 E0.2287
G1 X50.123 Y42.809 E0.27174
G1 X50.417 Y42.694 E0.28749
G1 X50.927 Y42.516 E0.31444
G1 X51.214 Y42.426 E0.32945
G1 X51.849 Y42.252 E0.36229
G1 X52.146 Y42.182 E0.37752
G1 X52.689 Y42.073 E0.40515
G1 X52.988 Y42.024 E0.42026
G1 X53.619 Y41.942 E0.45201
G1 X53.925 Y41.913 E0.46734
G1 X54.548 Y41.876 E0.49848
G1 X54.843 Y41.868 E0.5132
G1 X55.357 Y41.872 E0.53885
G1 X55.655 Y41.885 E0.55373
G1 X56.316 Y41.935 E0.5868
G1 X56.616 Y41.968 E0.60186
G1 X57.339 Y42.073 E0.63831
G1 X57.596 Y42.118 E0.65132
G1 X57.819 Y42.164 E0.66268
G1 X58.128 Y42.239 E0.67855
G1 X58.884 Y42.453 E0.71775
G1 X59.211 Y42.56 E0.73491
G1 X59.855 Y42.798 E0.76916
G1 X60.132 Y42.911 E0.78409
G1 X60.622 Y43.131 E0.81089
G1 X60.893 Y43.264 E0.82595
G1 X61.58 Y43.631 E0.86481
G1 X61.945 Y43.849 E0.88602
G1 X62.223 Y44.034 E0.90268
G1 X62.886 Y44.575 E0.94537
G1 X64.955 Y46.63 E1.09085
G1 X64.979 Y46.654 E1.09255
G1 X65.438 Y47.117 E1.12507
G1 X65.826 Y47.566 E1.15468
G1 X66.066 Y47.918 E1.17593
G1 X66.271 Y48.253 E1.19553
G1 X66.327 Y48.348 E1.20103
G1 X66.486 Y48.623 E1.21688
G1 X66.632 Y48.896 E1.23232
G1 X66.752 Y49.142 E1.24598
G1 X67.04 Y49.906 E1.28671
G1 X67.182 Y50.423 E1.31346
G1 X67.199 Y50.488 E1.31681
G1 X67.593 Y52.014 E1.39544
G1 X67.921 Y53.175 E1.45563
G1 X68.062 Y53.905 E1.49273
G1 X68.111 Y54.364 E1.51576
G1 X68.136 Y54.812 E1.53814
G1 X68.137 Y55.043 E1.54967
G1 X68.129 Y55.328 E1.56389
G1 X68.101 Y55.791 E1.58703
G1 X68.025 Y56.379 E1.61661
G1 X67.953 Y56.687 E1.63239
G1 X67.592 Y58.006 E1.70062
G1 X67.312 Y59.122 E1.75802
G1 X67.289 Y59.213 E1.7627
G1 X67.046 Y60.1 E1.80859
G1 X66.851 Y60.66 E1.83817
G1 X66.676 Y61.024 E1.85832
G1 X66.474 Y61.399 E1.87957
G1 X66.402 Y61.526 E1.88685
G1 X66.257 Y61.775 E1.90123
G1 X66.096 Y62.032 E1.91636
G1 X65.944 Y62.256 E1.92986
G1 X65.431 Y62.879 E1.97013
G1 X64.693 Y63.625 E2.02248
G1 X64.654 Y63.665 E2.02527
G1 X63.821 Y64.486 E2.08362
G1 X62.938 Y65.383 E2.14641
G1 X62.495 Y65.777 E2.17599
G1 X62.148 Y66.019 E2.1971
G1 X61.837 Y66.215 E2.21544
G1 X61.588 Y66.361 E2.22984
G1 X60.994 Y66.683 E2.26355
G1 X60.725 Y66.817 E2.27854
G1 X60.171 Y67.07 E2.30893
G1 X59.892 Y67.186 E2.324
G1 X59.262 Y67.423 E2.35758
G1 X59.058 Y67.494 E2.36836
G1 X58.784 Y67.582 E2.38272
G1 X58.439 Y67.678 E2.40058
G1 X57.569 Y67.881 E2.44515
G1 X57.325 Y67.931 E2.45758
G1 X57.021 Y67.984 E2.47297
G1 X56.656 Y68.032 E2.49134
G1 X55.827 Y68.106 E2.53286
G1 X55.515 Y68.122 E2.54845
G1 X54.959 Y68.132 E2.57619
G1 X54.656 Y68.127 E2.59131
G1 X53.87 Y68.087 E2.63058
G1 X53.616 Y68.067 E2.64329
G1 X53.387 Y68.042 E2.65478
G1 X53.042 Y67.99 E2.67219
G1 X52.175 Y67.825 E2.71622
G1 X51.873 Y67.757 E2.73166
G1 X51.306 Y67.607 E2.76092
G1 X51.099 Y67.547 E2.77168
G1 X50.781 Y67.446 E2.78832
G1 X50.438 Y67.321 E2.80654
G1 X49.663 Y67.002 E2.84835
G1 X49.456 Y66.91 E2.85965
G1 X49.122 Y66.752 E2.87808
G1 X48.791 Y66.578 E2.89674
G1 X48.114 Y66.184 E2.93582
G1 X47.832 Y66.005 E2.95248
G1 X47.328 Y65.658 E2.98301
G1 X47.083 Y65.477 E2.99821
G1 X46.588 Y65.083 E3.02977
G1 X46.354 Y64.883 E3.04513
G1 X45.909 Y64.475 E3.07525
G1 X45.699 Y64.269 E3.08993
G1 X45.284 Y63.834 E3.11992
G1 X45.083 Y63.608 E3.13501
G1 X44.716 Y63.166 E3.16367
G1 X44.525 Y62.919 E3.17925
G1 X44.16 Y62.41 E3.2105
G1 X43.992 Y62.157 E3.22565
G1 X43.658 Y61.616 E3.25737
G1 X43.513 Y61.363 E3.27192
G1 X43.276 Y60.915 E3.2972
G1 X43.144 Y60.643 E3.31229
G1 X42.861 Y60.006 E3.34706
G1 X42.742 Y59.71 E3.36298
G1 X42.561 Y59.207 E3.38965
G1 X42.471 Y58.929 E3.40423
G1 X42.298 Y58.325 E3.43557
G1 X42.225 Y58.033 E3.45059
G1 X42.089 Y57.397 E3.48304
G1 X42.036 Y57.094 E3.49838
G1 X41.966 Y56.6 E3.52327
G1 X41.934 Y56.313 E3.53768
G1 X41.883 Y55.635 E3.5716
G1 X41.871 Y55.326 E3.58703
G1 X41.868 Y54.684 E3.61906
G1 X41.873 Y54.463 E3.63009
G1 X41.886 Y54.178 E3.64432
G1 X41.917 Y53.817 E3.6624
G1 X42.038 Y52.875 E3.70978
G1 X42.075 Y52.639 E3.7217
G1 X42.124 Y52.373 E3.73519
G1 X42.206 Y52.014 E3.75356
G1 X42.425 Y51.21 E3.79514
G1 X42.525 Y50.889 E3.81191
G1 X42.71 Y50.37 E3.8394
G1 X42.816 Y50.103 E3.85373
G1 X43.082 Y49.487 E3.88721
G1 X43.218 Y49.199 E3.9031
G1 X43.494 Y48.669 E3.93291
G1 X43.639 Y48.412 E3.94763
G1 X43.935 Y47.926 E3.97602
G1 X44.1 Y47.675 E3.99101
G1 X44.445 Y47.187 E4.02082
G1 X44.635 Y46.938 E4.03645
G1 X45.044 Y46.439 E4.06864
G1 X45.236 Y46.219 E4.08321
G1 X45.623 Y45.806 E4.11144
G0 F3600 X45.915 Y46.08
G1 F1800 X46.112 Y45.884 E4.12531
G1 X46.575 Y45.454 E4.15683
G1 X46.771 Y45.284 E4.16978
G1 X47.251 Y44.893 E4.20066
G1 X47.413 Y44.768 E4.21087
G1 X47.66 Y44.587 E4.22615
G1 X47.942 Y44.398 E4.24309
G1 X48.762 Y43.898 E4.291
G1 X48.964 Y43.782 E4.30262
G1 X49.195 Y43.659 E4.31568
G1 X49.489 Y43.518 E4.33195
G1 X50.281 Y43.176 E4.37499
G1 X50.549 Y43.071 E4.38935
G1 X51.059 Y42.893 E4.4163
G1 X51.32 Y42.812 E4.42993
G1 X51.955 Y42.638 E4.46278
G1 X52.225 Y42.574 E4.47662
G1 X52.768 Y42.465 E4.50425
G1 X53.04 Y42.42 E4.51801
G1 X53.671 Y42.338 E4.54975
G1 X53.949 Y42.312 E4.56368
G1 X54.572 Y42.275 E4.59482
G1 X54.84 Y42.268 E4.60819
G1 X55.354 Y42.272 E4.63384
G1 X55.625 Y42.283 E4.64737
G1 X56.286 Y42.333 E4.68044
G1 X56.559 Y42.364 E4.69415
G1 X57.282 Y42.469 E4.7306
G1 X57.515 Y42.509 E4.74239
G1 X57.738 Y42.555 E4.75375
G1 X58.019 Y42.624 E4.76819
G1 X58.775 Y42.838 E4.80739
G1 X59.073 Y42.935 E4.82302
G1 X59.717 Y43.173 E4.85727
G1 X59.968 Y43.276 E4.87081
G1 X60.458 Y43.496 E4.89761
G1 X60.705 Y43.617 E4.91133
G1 X61.392 Y43.984 E4.95019
G1 X61.723 Y44.182 E4.96943
G1 X62.001 Y44.367 E4.98609
G1 X62.604 Y44.859 E5.02492
G1 X64.673 Y46.914 E5.1704
G1 X64.695 Y46.936 E5.17196
G1 X65.154 Y47.399 E5.20448
G1 X65.522 Y47.827 E5.23264
G1 X65.725 Y48.127 E5.25071
G1 X65.93 Y48.462 E5.27031
G1 X65.981 Y48.548 E5.2753
G1 X66.14 Y48.823 E5.29114
G1 X66.272 Y49.071 E5.30516
G1 X66.392 Y49.317 E5.31882
G1 X66.654 Y50.012 E5.35587
G1 X66.796 Y50.529 E5.38262
G1 X66.812 Y50.588 E5.38567
G1 X67.207 Y52.119 E5.46455
G1 X67.536 Y53.283 E5.5249
G1 X67.664 Y53.947 E5.55864
G1 X67.713 Y54.406 E5.58167
G1 X67.736 Y54.814 E5.60205
G1 X67.737 Y55.045 E5.61358
G1 X67.73 Y55.303 E5.62646
G1 X67.702 Y55.766 E5.6496
G1 X67.567 Y56.581 E5.69081
G1 X67.214 Y57.871 E5.75754
G1 X66.924 Y59.025 E5.8169
G1 X66.903 Y59.107 E5.82112
G1 X66.66 Y59.994 E5.86701
G1 X66.472 Y60.527 E5.8952
G1 X66.324 Y60.834 E5.91221
G1 X66.122 Y61.209 E5.93346
G1 X66.057 Y61.325 E5.94009
G1 X65.912 Y61.574 E5.95447
G1 X65.765 Y61.807 E5.96821
G1 X65.613 Y62.031 E5.98172
G1 X65.147 Y62.598 E6.01833
G1 X64.409 Y63.344 E6.07068
G1 X64.373 Y63.38 E6.07322
G1 X63.563 Y64.179 E6.12999
G1 X62.653 Y65.103 E6.19469
G1 X62.229 Y65.477 E6.2229
G1 X61.935 Y65.681 E6.24075
G1 X61.624 Y65.877 E6.25909
G1 X61.397 Y66.01 E6.27221
G1 X60.803 Y66.332 E6.30592
G1 X60.559 Y66.454 E6.31953
G1 X60.005 Y66.707 E6.34992
G1 X59.751 Y66.812 E6.36363
G1 X59.121 Y67.049 E6.39721
G1 X58.936 Y67.113 E6.40698
G1 X58.662 Y67.201 E6.42134
G1 X58.348 Y67.288 E6.43759
G1 X57.478 Y67.491 E6.48216
G1 X57.256 Y67.537 E6.49347
G1 X56.952 Y67.59 E6.50887
G1 X56.621 Y67.633 E6.52552
G1 X55.792 Y67.707 E6.56704
G1 X55.508 Y67.722 E6.58123
G1 X54.952 Y67.732 E6.60898
G1 X54.677 Y67.728 E6.6227
G1 X53.891 Y67.688 E6.66196
G1 X53.66 Y67.669 E6.67353
G1 X53.431 Y67.644 E6.68502
G1 X53.117 Y67.597 E6.70086
G1 X52.25 Y67.432 E6.74489
G1 X51.975 Y67.37 E6.75895
G1 X51.408 Y67.22 E6.78821
G1 X51.22 Y67.165 E6.79799
G1 X50.902 Y67.064 E6.81463
G1 X50.59 Y66.951 E6.83119
G1 X49.815 Y66.632 E6.873
G1 X49.628 Y66.549 E6.88321
G1 X49.294 Y66.391 E6.90164
G1 X48.992 Y66.232 E6.91867
G1 X48.315 Y65.838 E6.95775
G1 X48.059 Y65.676 E6.97286
G1 X47.555 Y65.329 E7.00339
G1 X47.332 Y65.164 E7.01723
G1 X46.837 Y64.77 E7.04879
G1 X46.625 Y64.588 E7.06273
G1 X46.18 Y64.18 E7.09285
G1 X45.989 Y63.993 E7.10619
G1 X45.574 Y63.558 E7.13618
G1 X45.391 Y63.352 E7.14993
G1 X45.024 Y62.91 E7.17859
G1 X44.85 Y62.686 E7.19274
G1 X44.485 Y62.177 E7.22399
G1 X44.332 Y61.947 E7.23777
G1 X43.998 Y61.406 E7.26949
G1 X43.866 Y61.175 E7.28277
G1 X43.629 Y60.727 E7.30805
G1 X43.51 Y60.481 E7.32169
G1 X43.227 Y59.844 E7.35646
G1 X43.118 Y59.574 E7.37099
G1 X42.937 Y59.071 E7.39766
G1 X42.856 Y58.818 E7.41091
G1 X42.683 Y58.214 E7.44226
G1 X42.616 Y57.949 E7.45589
G1 X42.48 Y57.313 E7.48834
G1 X42.432 Y57.038 E7.50227
G1 X42.362 Y56.544 E7.52716
G1 X42.333 Y56.283 E7.54026
G1 X42.282 Y55.605 E7.57418
G1 X42.271 Y55.324 E7.58821
G1 X42.268 Y54.682 E7.62024
G1 X42.272 Y54.481 E7.63027
G1 X42.285 Y54.196 E7.64451
G1 X42.314 Y53.868 E7.66093
G1 X42.435 Y52.926 E7.70832
G1 X42.468 Y52.711 E7.71917
G1 X42.517 Y52.445 E7.73266
G1 X42.592 Y52.119 E7.74935
G1 X42.811 Y51.315 E7.79093
G1 X42.902 Y51.023 E7.80618
G1 X43.087 Y50.504 E7.83367
G1 X43.183 Y50.261 E7.84671
G1 X43.449 Y49.645 E7.88018
G1 X43.573 Y49.383 E7.89464
G1 X43.849 Y48.853 E7.92446
G1 X43.981 Y48.62 E7.93782
G1 X44.277 Y48.134 E7.96621
G1 X44.427 Y47.906 E7.97982
G1 X44.772 Y47.418 E8.00964
G1 X44.944 Y47.191 E8.02385
G1 X45.353 Y46.692 E8.05604
G1 X45.528 Y46.493 E8.06926
G1 X45.915 Y46.08 E8.0975
G0 F3600 X46.207 Y46.353
G1 F1800 X46.384 Y46.177 E8.10995
G1 X46.847 Y45.747 E8.14147
G1 X47.023 Y45.594 E8.15311
G1 X47.503 Y45.203 E8.18399
G1 X47.649 Y45.09 E8.19321
G1 X47.896 Y44.909 E8.20848
G1 X48.15 Y44.739 E8.22373
G1 X48.97 Y44.239 E8.27165
G1 X49.152 Y44.135 E8.2821
G1 X49.383 Y44.012 E8.29516
G1 X49.648 Y43.885 E8.30982
G1 X50.44 Y43.543 E8.35286
G1 X50.681 Y43.449 E8.36577
G1 X51.191 Y43.271 E8.39272
G1 X51.426 Y43.198 E8.40499
G1 X52.061 Y43.024 E8.43784
G1 X52.303 Y42.966 E8.45026
G1 X52.846 Y42.857 E8.47789
G1 X53.091 Y42.817 E8.49027
G1 X53.722 Y42.735 E8.52202
G1 X53.973 Y42.711 E8.5346
G1 X54.596 Y42.674 E8.56573
G1 X54.837 Y42.668 E8.57776
G1 X55.351 Y42.672 E8.60341
G1 X55.595 Y42.682 E8.61559
G1 X56.256 Y42.732 E8.64866
G1 X56.501 Y42.759 E8.66096
G1 X57.224 Y42.864 E8.69741
G1 X57.434 Y42.901 E8.70804
G1 X57.657 Y42.947 E8.7194
G1 X57.911 Y43.009 E8.73245
G1 X58.667 Y43.223 E8.77165
G1 X58.934 Y43.31 E8.78566
G1 X59.578 Y43.548 E8.81991
G1 X59.805 Y43.641 E8.83215
G1 X60.295 Y43.861 E8.85895
G1 X60.516 Y43.97 E8.87124
G1 X61.203 Y44.337 E8.9101
G1 X61.501 Y44.515 E8.92742
G1 X61.779 Y44.7 E8.94408
G1 X62.322 Y45.143 E8.97904
G1 X64.391 Y47.198 E9.12452
G1 X64.411 Y47.217 E9.1259
G1 X64.87 Y47.68 E9.15843
G1 X65.218 Y48.088 E9.18518
G1 X65.384 Y48.336 E9.20007
G1 X65.589 Y48.671 E9.21966
G1 X65.635 Y48.748 E9.22414
G1 X65.794 Y49.023 E9.23999
G1 X65.913 Y49.247 E9.25264
G1 X66.033 Y49.493 E9.2663
G1 X66.268 Y50.118 E9.29961
G1 X66.41 Y50.635 E9.32636
G1 X66.425 Y50.688 E9.32911
G1 X66.83 Y52.259 E9.41005
G1 X67.151 Y53.392 E9.4688
G1 X67.267 Y53.99 E9.49919
G1 X67.316 Y54.449 E9.52222
G1 X67.336 Y54.815 E9.5405
G1 X67.337 Y55.046 E9.55203
G1 X67.33 Y55.279 E9.56366
G1 X67.302 Y55.742 E9.5868
G1 X67.181 Y56.475 E9.62386
G1 X66.828 Y57.765 E9.69059
G1 X66.536 Y58.927 E9.75036
G1 X66.517 Y59.001 E9.75417
G1 X66.274 Y59.888 E9.80006
G1 X66.094 Y60.393 E9.8268
G1 X65.971 Y60.644 E9.84075
G1 X65.769 Y61.019 E9.862
G1 X65.711 Y61.124 E9.86799
G1 X65.566 Y61.373 E9.88236
G1 X65.434 Y61.582 E9.89469
G1 X65.282 Y61.806 E9.9082
G1 X64.862 Y62.317 E9.9412
G1 X64.124 Y63.063 E9.99355
G1 X64.092 Y63.095 E9.99581
G1 X63.289 Y63.886 E10.05204
G1 X62.368 Y64.822 E10.11756
G1 X61.964 Y65.175 E10.14432
G1 X61.721 Y65.343 E10.15906
G1 X61.41 Y65.539 E10.1774
G1 X61.207 Y65.658 E10.18914
G1 X60.613 Y65.98 E10.22285
G1 X60.392 Y66.09 E10.23517
G1 X59.838 Y66.343 E10.26555
G1 X59.611 Y66.437 E10.27781
G1 X58.981 Y66.674 E10.31139
G1 X58.814 Y66.733 E10.32023
G1 X58.54 Y66.821 E10.33458
G1 X58.257 Y66.899 E10.34923
G1 X57.387 Y67.102 E10.3938
G1 X57.187 Y67.143 E10.40398
G1 X56.883 Y67.196 E10.41938
G1 X56.585 Y67.235 E10.43437
G1 X55.756 Y67.309 E10.4759
G1 X55.501 Y67.322 E10.48864
G1 X54.945 Y67.332 E10.51638
G1 X54.697 Y67.328 E10.52875
G1 X53.911 Y67.288 E10.56802
G1 X53.703 Y67.272 E10.57843
G1 X53.474 Y67.247 E10.58992
G1 X53.192 Y67.205 E10.60414
G1 X52.325 Y67.04 E10.64817
G1 X52.077 Y66.983 E10.66087
G1 X51.51 Y66.833 E10.69013
G1 X51.341 Y66.784 E10.69891
G1 X51.023 Y66.683 E10.71556
G1 X50.743 Y66.581 E10.73042
G1 X49.968 Y66.262 E10.77223
G1 X49.799 Y66.187 E10.78146
G1 X49.465 Y66.029 E10.79989
G1 X49.193 Y65.886 E10.81522
G1 X48.516 Y65.492 E10.8543
G1 X48.285 Y65.346 E10.86794
G1 X47.781 Y64.999 E10.89846
G1 X47.581 Y64.851 E10.91088
G1 X47.086 Y64.457 E10.94244
G1 X46.895 Y64.294 E10.95497
G1 X46.45 Y63.886 E10.98509
G1 X46.278 Y63.717 E10.99712
G1 X45.863 Y63.282 E11.02711
G1 X45.698 Y63.097 E11.03948
G1 X45.331 Y62.655 E11.06814
G1 X45.175 Y62.453 E11.08088
G1 X44.81 Y61.944 E11.11212
G1 X44.673 Y61.737 E11.12451
G1 X44.339 Y61.196 E11.15623
G1 X44.22 Y60.988 E11.16818
G1 X43.983 Y60.54 E11.19347
G1 X43.875 Y60.319 E11.20574
G1 X43.592 Y59.682 E11.24052
G1 X43.495 Y59.439 E11.25357
G1 X43.314 Y58.936 E11.28024
G1 X43.24 Y58.708 E11.2922
G1 X43.067 Y58.104 E11.32354
G1 X43.008 Y57.866 E11.33578
G1 X42.872 Y57.23 E11.36823
G1 X42.828 Y56.982 E11.38079
G1 X42.758 Y56.488 E11.40568
G1 X42.732 Y56.253 E11.41748
G1 X42.681 Y55.575 E11.4514
G1 X42.671 Y55.322 E11.46403
G1 X42.668 Y54.68 E11.49606
G1 X42.672 Y54.499 E11.50509
G1 X42.685 Y54.214 E11.51933
G1 X42.71 Y53.919 E11.5341
G1 X42.831 Y52.977 E11.58148
G1 X42.862 Y52.784 E11.59123
G1 X42.911 Y52.518 E11.60473
G1 X42.978 Y52.224 E11.61977
G1 X43.197 Y51.42 E11.66134
G1 X43.279 Y51.157 E11.67509
G1 X43.464 Y50.638 E11.70258
G1 X43.55 Y50.42 E11.71427
G1 X43.816 Y49.804 E11.74774
G1 X43.928 Y49.568 E11.76078
G1 X44.204 Y49.038 E11.79059
G1 X44.322 Y48.828 E11.80261
G1 X44.618 Y48.342 E11.831
G1 X44.753 Y48.137 E11.84324
G1 X45.098 Y47.649 E11.87306
G1 X45.254 Y47.445 E11.88587
G1 X45.663 Y46.946 E11.91806
G1 X45.82 Y46.766 E11.92998
G1 X46.207 Y46.353 E11.95821
G0 F3600 X46.499 Y46.627
G1 F1800 X46.656 Y46.47 E11.96929
G1 X47.119 Y46.04 E12.00082
G1 X47.276 Y45.904 E12.01118
G1 X47.756 Y45.513 E12.04207
G1 X47.886 Y45.413 E12.05025
G1 X48.133 Y45.232 E12.06553
G1 X48.358 Y45.081 E12.07904
G1 X49.178 Y44.581 E12.12696
G1 X49.34 Y44.488 E12.13628
G1 X49.571 Y44.365 E12.14934
G1 X49.806 Y44.252 E12.16234
G1 X50.598 Y43.91 E12.20538
G1 X50.813 Y43.827 E12.21688
G1 X51.323 Y43.649 E12.24383
G1 X51.531 Y43.584 E12.2547
G1 X52.166 Y43.41 E12.28755
G1 X52.382 Y43.359 E12.29862
G1 X52.925 Y43.25 E12.32625
G1 X53.143 Y43.214 E12.33728
G1 X53.774 Y43.132 E12.36902
G1 X53.996 Y43.111 E12.38015
G1 X54.619 Y43.074 E12.41129
G1 X54.834 Y43.068 E12.42202
