;FLAVOR:Marlin
;TIME:2915
;Filament used: 1.60102m
;Layer height: 0.1
;MINX:32.084
;MINY:24.2
;MINZ:0.3
;MAXX:77.917
;MAXY:85.8
;MAXZ:15
;Generated with Cura_SteamEngine 4.4.0
M104 S200
M105
M109 S200
M82 ;absolute extrusion mode
G21 ;metric values
 G90 ;absolute positioning
 M82 ;set extruder to absolute mode
 M107 ;start with the fan off
 G28 X0 Y0 ;move X/Y to min endstops
 G28 Z0 ;move Z to min endstops
 G1 Z15.0 F120 ;move the platform down 15mm
 G92 E0 ;zero the extruded length
 G1 F200 E6 ;extrude 6 mm of feed stock
 G92 E0 ;zero the extruded length again
 G1 F120 
 ;Put printing message on LCD screen
 M117 Printing...
G92 E0
G92 E0
G1 F1500 E-6.5
;LAYER_COUNT:148
;LAYER:0
M107
G0 F3600 X33.879 Y27.021 Z0.3
;TYPE:SKIRT
G1 F1500 E0
G1 F1800 X34.413 Y26.439 E0.03941
G1 X35.004 Y25.915 E0.07881
G1 X35.644 Y25.452 E0.11822
G1 X36.328 Y25.057 E0.15763
G1 X37.048 Y24.733 E0.19702
G1 X37.797 Y24.484 E0.2364
G1 X38.568 Y24.312 E0.27581
G1 X39.352 Y24.218 E0.3152
G1 X39.883 Y24.2 E0.34171
G1 X59.883 Y24.2 E1.33951
G1 X60.672 Y24.24 E1.37893
G1 X61.452 Y24.359 E1.41829
G1 X62.217 Y24.557 E1.45771
G1 X62.957 Y24.831 E1.49708
G1 X63.666 Y25.179 E1.53649
G1 X64.337 Y25.597 E1.57593
G1 X64.961 Y26.08 E1.61529
G1 X65.534 Y26.623 E1.65468
G1 X66.049 Y27.222 E1.69409
G1 X66.5 Y27.87 E1.73348
G1 X66.884 Y28.561 E1.77292
G1 X67.196 Y29.286 E1.81229
G1 X67.433 Y30.039 E1.85168
G1 X67.592 Y30.813 E1.8911
G1 X67.673 Y31.598 E1.93047
G1 X67.683 Y32 E1.95053
G1 X67.683 Y37 E2.19999
G1 X67.643 Y37.789 E2.2394
G1 X67.524 Y38.569 E2.27876
G1 X67.326 Y39.334 E2.31819
G1 X67.052 Y40.074 E2.35756
G1 X66.704 Y40.783 E2.39696
G1 X66.286 Y41.454 E2.4364
G1 X65.803 Y42.078 E2.47577
G1 X65.26 Y42.651 E2.51515
G1 X64.661 Y43.166 E2.55456
G1 X64.013 Y43.617 E2.59395
G1 X63.322 Y44.001 E2.63339
G1 X62.597 Y44.313 E2.67277
G1 X61.844 Y44.55 E2.71215
G1 X61.07 Y44.709 E2.75157
G1 X60.285 Y44.79 E2.79095
G1 X59.883 Y44.8 E2.81101
G1 X57.893 Y44.8 E2.91029
G1 X62.654 Y66.2 E4.00404
G1 X70.117 Y66.2 E4.37637
G1 X70.906 Y66.24 E4.41579
G1 X71.686 Y66.359 E4.45515
G1 X72.451 Y66.557 E4.49457
G1 X73.191 Y66.831 E4.53394
G1 X73.9 Y67.179 E4.57335
G1 X74.571 Y67.597 E4.61279
G1 X75.195 Y68.08 E4.65216
G1 X75.768 Y68.623 E4.69154
G1 X76.283 Y69.222 E4.73095
G1 X76.734 Y69.87 E4.77034
G1 X77.118 Y70.561 E4.80978
G1 X77.43 Y71.286 E4.84916
G1 X77.667 Y72.039 E4.88854
G1 X77.826 Y72.813 E4.92796
G1 X77.907 Y73.598 E4.96733
G1 X77.917 Y74 E4.98739
G1 X77.917 Y78 E5.18696
G1 X77.877 Y78.789 E5.22637
G1 X77.758 Y79.569 E5.26573
G1 X77.56 Y80.334 E5.30516
G1 X77.286 Y81.074 E5.34453
G1 X76.938 Y81.783 E5.38393
G1 X76.52 Y82.454 E5.42337
G1 X76.037 Y83.078 E5.46274
G1 X75.494 Y83.651 E5.50212
G1 X74.895 Y84.166 E5.54153
G1 X74.247 Y84.617 E5.58092
G1 X73.556 Y85.001 E5.62036
G1 X72.831 Y85.313 E5.65974
G1 X72.078 Y85.55 E5.69912
G1 X71.304 Y85.709 E5.73854
G1 X70.519 Y85.79 E5.77792
G1 X70.117 Y85.8 E5.79798
G1 X51.297 Y85.8 E6.73691
G1 X51.148 Y85.799 E6.74435
G1 X50.991 Y85.796 E6.75218
G1 X50.203 Y85.741 E6.79159
G1 X49.425 Y85.606 E6.83098
G1 X48.664 Y85.394 E6.8704
G1 X47.929 Y85.106 E6.90978
G1 X47.227 Y84.744 E6.94918
G1 X46.565 Y84.314 E6.98857
G1 X45.949 Y83.819 E7.02799
G1 X45.431 Y83.311 E7.06419
G1 X44.96 Y82.805 E7.09868
G1 X44.381 Y82.107 E7.14392
G1 X43.967 Y81.543 E7.17883
G1 X43.456 Y80.75 E7.22589
G1 X43.113 Y80.14 E7.26081
G1 X42.723 Y79.342 E7.30512
G1 X42.452 Y78.698 E7.33998
G1 X42.191 Y77.984 E7.3779
G1 X42.088 Y77.652 E7.39525
G1 X41.925 Y77.037 E7.42699
G1 X32.27 Y33.696 E9.64228
G1 X32.137 Y32.918 E9.68166
G1 X32.084 Y32.13 E9.72106
G1 X32.111 Y31.34 E9.7605
G1 X32.217 Y30.558 E9.79987
G1 X32.403 Y29.79 E9.83929
G1 X32.664 Y29.045 E9.87868
G1 X33 Y28.33 E9.91809
G1 X33.406 Y27.653 E9.95747
G1 X33.879 Y27.021 E9.99686
G0 F3600 X34.304 Y27.139
G1 F1800 X34.838 Y26.586 E10.03521
G1 X35.427 Y26.092 E10.07356
G1 X36.065 Y25.661 E10.11198
G1 X36.743 Y25.299 E10.15032
G1 X37.456 Y25.009 E10.18872
G1 X38.195 Y24.795 E10.22711
G1 X38.952 Y24.659 E10.26548
G1 X39.883 Y24.6 E10.31202
G1 X59.883 Y24.6 E11.30982
G1 X60.651 Y24.64 E11.34819
G1 X61.411 Y24.759 E11.38657
G1 X62.154 Y24.957 E11.42493
G1 X62.873 Y25.231 E11.46332
G1 X63.559 Y25.578 E11.50167
G1 X64.206 Y25.994 E11.54005
G1 X64.806 Y26.475 E11.57841
G1 X65.353 Y27.016 E11.6168
G1 X65.841 Y27.611 E11.65519
G1 X66.264 Y28.253 E11.69354
G1 X66.619 Y28.936 E11.73195
G1 X66.9 Y29.651 E11.77027
G1 X67.106 Y30.393 E11.80869
G1 X67.234 Y31.151 E11.84705
G1 X67.283 Y32 E11.88947
G1 X67.283 Y37 E12.13892
G1 X67.243 Y37.768 E12.17729
G1 X67.124 Y38.528 E12.21567
G1 X66.926 Y39.271 E12.25403
G1 X66.652 Y39.99 E12.29242
G1 X66.305 Y40.676 E12.33077
G1 X65.889 Y41.323 E12.36915
G1 X65.408 Y41.923 E12.40751
G1 X64.867 Y42.47 E12.4459
G1 X64.272 Y42.958 E12.48429
G1 X63.63 Y43.381 E12.52265
G1 X62.947 Y43.736 E12.56105
G1 X62.232 Y44.017 E12.59938
G1 X61.49 Y44.223 E12.63779
G1 X60.732 Y44.351 E12.67615
G1 X59.883 Y44.4 E12.71857
G1 X57.393 Y44.4 E12.8428
G1 X62.333 Y66.6 E13.97745
G1 X70.117 Y66.6 E14.3658
G1 X70.885 Y66.64 E14.40417
G1 X71.645 Y66.759 E14.44254
G1 X72.388 Y66.957 E14.48091
G1 X73.107 Y67.231 E14.51929
G1 X73.793 Y67.578 E14.55765
G1 X74.44 Y67.994 E14.59602
G1 X75.04 Y68.475 E14.63439
G1 X75.587 Y69.016 E14.67277
G1 X76.075 Y69.611 E14.71116
G1 X76.498 Y70.253 E14.74952
G1 X76.853 Y70.936 E14.78792
G1 X77.134 Y71.651 E14.82625
G1 X77.34 Y72.393 E14.86467
G1 X77.468 Y73.151 E14.90302
G1 X77.517 Y74 E14.94545
G1 X77.517 Y78 E15.14501
G1 X77.477 Y78.768 E15.18338
G1 X77.358 Y79.528 E15.22176
G1 X77.16 Y80.271 E15.26012
G1 X76.886 Y80.99 E15.29851
G1 X76.539 Y81.676 E15.33686
G1 X76.123 Y82.323 E15.37524
G1 X75.642 Y82.923 E15.4136
G1 X75.101 Y83.47 E15.45198
G1 X74.506 Y83.958 E15.49038
G1 X73.864 Y84.381 E15.52873
G1 X73.181 Y84.736 E15.56714
G1 X72.466 Y85.017 E15.60546
G1 X71.724 Y85.223 E15.64388
G1 X70.966 Y85.351 E15.68223
G1 X70.117 Y85.4 E15.72466
G1 X51.297 Y85.4 E16.66359
G1 X51.156 Y85.399 E16.67063
G1 X50.999 Y85.396 E16.67846
G1 X50.231 Y85.341 E16.71688
G1 X49.474 Y85.207 E16.75523
G1 X48.735 Y84.995 E16.79359
G1 X48.021 Y84.708 E16.83198
G1 X47.341 Y84.348 E16.87036
G1 X46.703 Y83.919 E16.90872
G1 X46.112 Y83.427 E16.94709
G1 X45.723 Y83.039 E16.9745
G1 X45.252 Y82.533 E17.00899
G1 X44.704 Y81.87 E17.0519
G1 X44.29 Y81.306 E17.0868
G1 X43.805 Y80.554 E17.13145
G1 X43.462 Y79.944 E17.16636
G1 X43.091 Y79.187 E17.20842
G1 X42.82 Y78.543 E17.24328
G1 X42.573 Y77.866 E17.27923
G1 X42.47 Y77.534 E17.29657
G1 X42.315 Y76.95 E17.32672
G1 X32.66 Y33.609 E19.54201
G1 X32.532 Y32.851 E19.58037
G1 X32.483 Y32.083 E19.61876
G1 X32.515 Y31.314 E19.65716
G1 X32.626 Y30.553 E19.69553
G1 X32.815 Y29.808 E19.73387
G1 X33.081 Y29.086 E19.77226
G1 X33.42 Y28.396 E19.81061
G1 X33.829 Y27.744 E19.84901
G1 X34.304 Y27.139 E19.88739
G0 F3600 X34.728 Y27.264
G1 F1800 X35.263 Y26.741 E19.92471
G1 X35.851 Y26.278 E19.96205
G1 X36.484 Y25.88 E19.99936
G1 X37.157 Y25.553 E20.03669
G1 X37.86 Y25.299 E20.07398
G1 X38.587 Y25.121 E20.11132
G1 X39.328 Y25.022 E20.14862
G1 X39.883 Y25 E20.17633
G1 X59.883 Y25 E21.17413
G1 X60.63 Y25.04 E21.21145
G1 X61.368 Y25.159 E21.24875
G1 X62.09 Y25.357 E21.2861
G1 X62.786 Y25.63 E21.3234
G1 X63.449 Y25.977 E21.36073
G1 X64.072 Y26.392 E21.39808
G1 X64.646 Y26.871 E21.43538
G1 X65.167 Y27.408 E21.4727
G1 X65.626 Y27.998 E21.51
G1 X66.021 Y28.634 E21.54735
G1 X66.345 Y29.308 E21.58466
G1 X66.595 Y30.013 E21.62198
G1 X66.769 Y30.741 E21.65932
G1 X66.864 Y31.483 E21.69664
G1 X66.883 Y32 E21.72245
G1 X66.883 Y37 E21.9719
G1 X66.843 Y37.747 E22.00922
G1 X66.724 Y38.485 E22.04652
G1 X66.526 Y39.207 E22.08387
G1 X66.253 Y39.903 E22.12117
G1 X65.906 Y40.566 E22.1585
G1 X65.491 Y41.189 E22.19585
G1 X65.012 Y41.763 E22.23315
G1 X64.475 Y42.284 E22.27047
G1 X63.885 Y42.743 E22.30777
G1 X63.249 Y43.138 E22.34512
G1 X62.575 Y43.462 E22.38243
G1 X61.87 Y43.712 E22.41975
G1 X61.142 Y43.886 E22.45709
G1 X60.4 Y43.981 E22.49441
G1 X59.883 Y44 E22.52022
G1 X56.895 Y44 E22.66929
G1 X62.013 Y67 E23.84483
G1 X70.117 Y67 E24.24914
G1 X70.864 Y67.04 E24.28647
G1 X71.602 Y67.159 E24.32376
G1 X72.324 Y67.357 E24.36111
G1 X73.02 Y67.63 E24.39841
G1 X73.683 Y67.977 E24.43574
G1 X74.306 Y68.392 E24.47309
G1 X74.88 Y68.871 E24.51039
G1 X75.401 Y69.408 E24.54772
G1 X75.86 Y69.998 E24.58501
G1 X76.255 Y70.634 E24.62236
G1 X76.579 Y71.308 E24.65967
G1 X76.829 Y72.013 E24.69699
G1 X77.003 Y72.741 E24.73433
G1 X77.098 Y73.483 E24.77165
G1 X77.117 Y74 E24.79747
G1 X77.117 Y78 E24.99703
G1 X77.077 Y78.747 E25.03435
G1 X76.958 Y79.485 E25.07164
G1 X76.76 Y80.207 E25.10899
G1 X76.487 Y80.903 E25.14629
G1 X76.14 Y81.566 E25.18363
G1 X75.725 Y82.189 E25.22097
G1 X75.246 Y82.763 E25.25827
G1 X74.709 Y83.284 E25.2956
G1 X74.119 Y83.743 E25.33289
G1 X73.483 Y84.138 E25.37024
G1 X72.809 Y84.462 E25.40755
G1 X72.104 Y84.712 E25.44487
G1 X71.376 Y84.886 E25.48221
G1 X70.634 Y84.981 E25.51954
G1 X70.117 Y85 E25.54535
G1 X51.297 Y85 E26.48428
G1 X51.163 Y84.999 E26.49097
G1 X51.006 Y84.996 E26.4988
G1 X50.26 Y84.941 E26.53612
G1 X49.524 Y84.808 E26.57343
G1 X48.807 Y84.597 E26.61072
G1 X48.116 Y84.31 E26.64805
G1 X47.459 Y83.951 E26.6854
G1 X46.845 Y83.524 E26.72271
G1 X46.279 Y83.034 E26.76006
G1 X46.016 Y82.766 E26.7788
G1 X45.545 Y82.26 E26.81328
G1 X45.026 Y81.633 E26.85389
G1 X44.612 Y81.069 E26.8888
G1 X44.153 Y80.358 E26.93102
G1 X43.81 Y79.748 E26.96593
G1 X43.46 Y79.032 E27.00569
G1 X43.189 Y78.388 E27.04055
G1 X42.955 Y77.747 E27.0746
G1 X42.852 Y77.415 E27.09194
G1 X42.705 Y76.863 E27.12044
G1 X33.05 Y33.522 E29.33573
G1 X32.927 Y32.784 E29.37306
G1 X32.883 Y32.037 E29.41039
G1 X32.919 Y31.29 E29.4477
G1 X33.035 Y30.551 E29.48502
G1 X33.228 Y29.829 E29.52231
G1 X33.498 Y29.131 E29.55965
G1 X33.841 Y28.466 E29.59698
G1 X34.252 Y27.841 E29.6343
G1 X34.728 Y27.264 E29.67161
G0 F3600 X34.676 Y27.945
G1 F1800 X35.153 Y27.397 E29.70786
G1 X35.688 Y26.905 E29.74412
G1 X36.273 Y26.475 E29.78034
G1 X36.902 Y26.112 E29.81658
G1 X37.567 Y25.82 E29.85281
G1 X38.26 Y25.603 E29.88904
G1 X38.973 Y25.463 E29.92529
G1 X39.883 Y25.4 E29.9708
G1 X59.883 Y25.4 E30.9686
G1 X60.608 Y25.44 E31.00483
G1 X61.325 Y25.559 E31.04109
G1 X62.024 Y25.757 E31.07733
G1 X62.697 Y26.03 E31.11357
G1 X63.336 Y26.375 E31.1498
G1 X63.933 Y26.789 E31.18604
G1 X64.481 Y27.265 E31.22226
G1 X64.974 Y27.799 E31.25852
G1 X65.404 Y28.384 E31.29474
G1 X65.768 Y29.013 E31.33099
G1 X66.061 Y29.678 E31.36725
G1 X66.279 Y30.371 E31.40349
G1 X66.419 Y31.083 E31.43969
G1 X66.483 Y32 E31.48556
G1 X66.483 Y37 E31.73501
G1 X66.443 Y37.725 E31.77123
G1 X66.324 Y38.442 E31.80749
G1 X66.126 Y39.141 E31.84374
G1 X65.853 Y39.814 E31.87997
G1 X65.508 Y40.453 E31.9162
G1 X65.094 Y41.05 E31.95245
G1 X64.618 Y41.598 E31.98866
G1 X64.084 Y42.091 E32.02492
G1 X63.499 Y42.521 E32.06114
G1 X62.87 Y42.885 E32.0974
G1 X62.205 Y43.178 E32.13365
G1 X61.512 Y43.396 E32.1699
G1 X60.8 Y43.536 E32.2061
G1 X59.883 Y43.6 E32.25196
G1 X56.396 Y43.6 E32.42593
G1 X61.691 Y67.4 E33.64234
G1 X70.117 Y67.4 E34.06272
G1 X70.842 Y67.44 E34.09894
G1 X71.559 Y67.559 E34.1352
G1 X72.258 Y67.757 E34.17145
G1 X72.931 Y68.03 E34.20768
G1 X73.57 Y68.375 E34.24391
G1 X74.167 Y68.789 E34.28016
G1 X74.715 Y69.265 E34.31637
G1 X75.208 Y69.799 E34.35263
G1 X75.638 Y70.384 E34.38885
G1 X76.002 Y71.013 E34.42511
G1 X76.295 Y71.678 E34.46136
G1 X76.513 Y72.371 E34.49761
G1 X76.653 Y73.083 E34.53381
G1 X76.717 Y74 E34.57967
G1 X76.717 Y78 E34.77923
G1 X76.677 Y78.725 E34.81546
G1 X76.558 Y79.442 E34.85172
G1 X76.36 Y80.141 E34.88796
G1 X76.087 Y80.814 E34.9242
G1 X75.742 Y81.453 E34.96043
G1 X75.328 Y82.05 E34.99667
G1 X74.852 Y82.598 E35.03288
G1 X74.318 Y83.091 E35.06914
G1 X73.733 Y83.521 E35.10537
G1 X73.104 Y83.885 E35.14162
G1 X72.439 Y84.178 E35.17788
G1 X71.746 Y84.396 E35.21412
G1 X71.034 Y84.536 E35.25032
G1 X70.117 Y84.6 E35.29618
G1 X51.297 Y84.6 E36.23512
G1 X51.171 Y84.599 E36.2414
G1 X51.014 Y84.596 E36.24924
G1 X50.29 Y84.542 E36.28546
G1 X49.575 Y84.409 E36.32174
G1 X48.88 Y84.198 E36.35798
G1 X48.213 Y83.912 E36.39419
G1 X47.58 Y83.555 E36.43044
G1 X46.991 Y83.13 E36.46668
G1 X46.309 Y82.494 E36.5132
G1 X45.838 Y81.988 E36.54769
G1 X45.349 Y81.396 E36.586
G1 X44.935 Y80.832 E36.6209
G1 X44.502 Y80.162 E36.6607
G1 X44.159 Y79.552 E36.69562
G1 X43.829 Y78.877 E36.7331
G1 X43.558 Y78.233 E36.76796
G1 X43.337 Y77.629 E36.80005
G1 X43.234 Y77.297 E36.81739
G1 X43.096 Y76.776 E36.84428
G1 X33.441 Y33.435 E39.05957
G1 X33.322 Y32.718 E39.09583
G1 X33.283 Y31.993 E39.13206
G1 X33.324 Y31.268 E39.16829
G1 X33.444 Y30.552 E39.20451
G1 X33.642 Y29.853 E39.24075
G1 X33.916 Y29.18 E39.277
G1 X34.262 Y28.541 E39.31326
G1 X34.676 Y27.945 E39.34946
G0 F3600 X35.1 Y28.055
G1 F1800 X35.578 Y27.538 E39.38459
G1 X36.112 Y27.079 E39.41972
G1 X36.694 Y26.683 E39.45484
G1 X37.317 Y26.356 E39.48994
G1 X37.973 Y26.101 E39.52506
G1 X38.654 Y25.923 E39.56017
G1 X39.351 Y25.823 E39.5953
G1 X39.883 Y25.8 E39.62187
G1 X59.883 Y25.8 E40.61967
G1 X60.586 Y25.84 E40.6548
G1 X61.28 Y25.959 E40.68993
G1 X61.955 Y26.157 E40.72503
G1 X62.604 Y26.429 E40.76013
G1 X63.218 Y26.774 E40.79527
G1 X63.789 Y27.185 E40.83037
G1 X64.31 Y27.659 E40.86551
G1 X64.774 Y28.189 E40.90065
G1 X65.174 Y28.768 E40.93576
G1 X65.506 Y29.389 E40.97089
G1 X65.766 Y30.043 E41.00601
G1 X65.95 Y30.723 E41.04115
G1 X66.056 Y31.419 E41.07628
G1 X66.083 Y32 E41.10529
G1 X66.083 Y37 E41.35474
G1 X66.043 Y37.703 E41.38987
G1 X65.924 Y38.397 E41.425
G1 X65.726 Y39.072 E41.4601
G1 X65.454 Y39.721 E41.49521
G1 X65.109 Y40.335 E41.53034
G1 X64.698 Y40.906 E41.56544
G1 X64.224 Y41.427 E41.60058
G1 X63.694 Y41.891 E41.63573
G1 X63.115 Y42.291 E41.67084
G1 X62.494 Y42.623 E41.70597
G1 X61.84 Y42.883 E41.74108
G1 X61.16 Y43.067 E41.77622
G1 X60.464 Y43.173 E41.81135
G1 X59.883 Y43.2 E41.84037
G1 X55.897 Y43.2 E42.03923
G1 X61.371 Y67.8 E43.29654
G1 X70.117 Y67.8 E43.73288
G1 X70.82 Y67.84 E43.76801
G1 X71.514 Y67.959 E43.80314
G1 X72.189 Y68.157 E43.83824
G1 X72.838 Y68.429 E43.87335
G1 X73.452 Y68.774 E43.90848
G1 X74.023 Y69.185 E43.94358
G1 X74.544 Y69.659 E43.97872
G1 X75.008 Y70.189 E44.01387
G1 X75.408 Y70.768 E44.04898
G1 X75.74 Y71.389 E44.08411
G1 X76 Y72.043 E44.11922
G1 X76.184 Y72.723 E44.15436
G1 X76.29 Y73.419 E44.18949
G1 X76.317 Y74 E44.21851
G1 X76.317 Y78 E44.41807
G1 X76.277 Y78.703 E44.4532
G1 X76.158 Y79.397 E44.48833
G1 X75.96 Y80.072 E44.52342
G1 X75.688 Y80.721 E44.55853
G1 X75.343 Y81.335 E44.59366
G1 X74.932 Y81.906 E44.62876
G1 X74.458 Y82.427 E44.6639
G1 X73.928 Y82.891 E44.69905
G1 X73.349 Y83.291 E44.73416
G1 X72.728 Y83.623 E44.76929
G1 X72.074 Y83.883 E44.8044
G1 X71.394 Y84.067 E44.83955
G1 X70.698 Y84.173 E44.87467
G1 X70.117 Y84.2 E44.90369
G1 X51.297 Y84.2 E45.84262
G1 X51.179 Y84.199 E45.84851
G1 X51.022 Y84.196 E45.85634
G1 X50.32 Y84.142 E45.89147
G1 X49.628 Y84.01 E45.92662
G1 X48.956 Y83.8 E45.96174
G1 X48.313 Y83.515 E45.99683
G1 X47.705 Y83.159 E46.03198
G1 X47.142 Y82.736 E46.06711
G1 X46.602 Y82.221 E46.10434
G1 X46.131 Y81.715 E46.13883
G1 X45.671 Y81.16 E46.17479
G1 X45.257 Y80.596 E46.2097
G1 X44.851 Y79.966 E46.24709
G1 X44.508 Y79.356 E46.282
G1 X44.197 Y78.722 E46.31724
G1 X43.926 Y78.078 E46.35209
G1 X43.719 Y77.51 E46.38225
G1 X43.616 Y77.178 E46.3996
G1 X43.486 Y76.689 E46.42484
G1 X33.831 Y33.348 E48.64013
G1 X33.718 Y32.653 E48.67526
G1 X33.683 Y31.95 E48.71038
G1 X33.729 Y31.248 E48.74548
G1 X33.854 Y30.555 E48.78061
G1 X34.056 Y29.881 E48.81571
G1 X34.334 Y29.234 E48.85085
G1 X34.684 Y28.623 E48.88598
G1 X35.1 Y28.055 E48.9211
