;FLAVOR:Marlin
;TIME:6114
;Filament used: 3.58739m
;Layer height: 0.1
;MINX:21.663
;MINY:21.754
;MINZ:0.3
;MAXX:92.576
;MAXY:92.668
;MAXZ:27.2
;Generated with Cura_SteamEngine 4.4.0
M104 S200
M105
M109 S200
M82 ;absolute extrusion mode
G21 ;metric values
 G90 ;absolute positioning
 M82 ;set extruder to absolute mode
 M107 ;start with the fan off
 G28 X0 Y0 ;move X/Y to min endstops
 G28 Z0 ;move Z to min endstops
 G1 Z15.0 F120 ;move the platform down 15mm
 G92 E0 ;zero the extruded length
 G1 F200 E6 ;extrude 6 mm of feed stock
 G92 E0 ;zero the extruded length again
 G1 F120 
 ;Put printing message on LCD screen
 M117 Printing...
G92 E0
G92 E0
G1 F1500 E-6.5
;LAYER_COUNT:270
;LAYER:0
M107
G0 F3600 X24.598 Y27.042 Z0.3
;TYPE:SKIRT
G1 F1500 E0
G1 F1800 X25.23 Y26.569 E0.03938
G1 X25.907 Y26.162 E0.07879
G1 X26.622 Y25.826 E0.11821
G1 X27.367 Y25.564 E0.15761
G1 X28.135 Y25.379 E0.19702
G1 X28.917 Y25.272 E0.2364
G1 X29.499 Y25.244 E0.26547
G1 X68.539 Y24.844 E2.21328
G1 X68.671 Y24.839 E2.21987
G1 X68.684 Y24.837 E2.22053
G1 X68.72 Y24.829 E2.22237
G1 X68.719 Y24.829 E2.22242
G1 X68.741 Y24.82 E2.2236
G1 X68.779 Y24.797 E2.22582
G1 X69.386 Y24.363 E2.26305
G1 X70.122 Y23.897 E2.30651
G1 X70.991 Y23.412 E2.35616
G1 X71.69 Y23.066 E2.39507
G1 X72.156 Y22.864 E2.42041
G1 X72.708 Y22.65 E2.44994
G1 X73.185 Y22.485 E2.47513
G1 X74.004 Y22.25 E2.51763
G1 X74.984 Y22.027 E2.56778
G1 X76.069 Y21.86 E2.62255
G1 X77.043 Y21.779 E2.67131
G1 X77.859 Y21.754 E2.71204
G1 X78.364 Y21.765 E2.73724
G1 X78.917 Y21.797 E2.76487
G1 X79.422 Y21.844 E2.79017
G1 X80.011 Y21.921 E2.81981
G1 X80.509 Y22.006 E2.84501
G1 X81.06 Y22.121 E2.8731
G1 X81.552 Y22.242 E2.89837
G1 X82.342 Y22.481 E2.93955
G1 X83.26 Y22.813 E2.98825
G1 X84.022 Y23.135 E3.02952
G1 X84.482 Y23.359 E3.05505
G1 X84.939 Y23.601 E3.08085
G1 X85.378 Y23.852 E3.10608
G1 X86.118 Y24.333 E3.15011
G1 X86.909 Y24.913 E3.19905
G1 X87.557 Y25.443 E3.24081
G1 X87.937 Y25.79 E3.26649
G1 X88.323 Y26.168 E3.29344
G1 X88.67 Y26.532 E3.31853
G1 X89.057 Y26.97 E3.34769
G1 X89.375 Y27.358 E3.37272
G1 X89.866 Y28.027 E3.41412
G1 X90.404 Y28.848 E3.46309
G1 X90.798 Y29.52 E3.50195
G1 X91.035 Y29.975 E3.52755
G1 X91.29 Y30.515 E3.55734
G1 X91.486 Y30.974 E3.58224
G1 X91.694 Y31.515 E3.61116
G1 X91.857 Y31.992 E3.63631
G1 X92.079 Y32.77 E3.67667
G1 X92.299 Y33.729 E3.72576
G1 X92.443 Y34.564 E3.76803
G1 X92.504 Y35.084 E3.79415
G1 X92.549 Y35.651 E3.82253
G1 X92.571 Y36.152 E3.84755
G1 X92.576 Y36.726 E3.87619
G1 X92.561 Y37.231 E3.90139
G1 X92.498 Y38.015 E3.94063
G1 X92.371 Y38.982 E3.98929
G1 X92.21 Y39.836 E4.03265
G1 X92.09 Y40.322 E4.05762
G1 X91.944 Y40.835 E4.08423
G1 X91.79 Y41.315 E4.10938
G1 X91.584 Y41.882 E4.13948
G1 X91.394 Y42.347 E4.16454
G1 X91.186 Y42.811 E4.18991
G1 X90.964 Y43.267 E4.21521
G1 X90.693 Y43.776 E4.24398
G1 X90.437 Y44.216 E4.26937
G1 X90.228 Y44.554 E4.2892
G1 X89.678 Y45.397 E4.33942
G1 X89.677 Y45.401 E4.33962
G1 X89.677 Y45.402 E4.33967
G1 X89.674 Y45.544 E4.34676
G1 X89.682 Y46.434 E4.39116
G1 X90.073 Y84.591 E6.29492
G1 X90.041 Y85.38 E6.33432
G1 X89.929 Y86.162 E6.37373
G1 X89.739 Y86.928 E6.41311
G1 X89.473 Y87.672 E6.45253
G1 X89.132 Y88.384 E6.49191
G1 X88.722 Y89.059 E6.53131
G1 X88.245 Y89.688 E6.5707
G1 X87.835 Y90.139 E6.60111
G1 X87.719 Y90.257 E6.60936
G1 X87.138 Y90.791 E6.64873
G1 X86.506 Y91.264 E6.68811
G1 X85.829 Y91.671 E6.72752
G1 X85.114 Y92.007 E6.76694
G1 X84.369 Y92.269 E6.80634
G1 X83.601 Y92.454 E6.84575
G1 X82.819 Y92.561 E6.88513
G1 X82.236 Y92.589 E6.91425
G1 X74.47 Y92.668 E7.30171
G1 X73.681 Y92.636 E7.34111
G1 X72.9 Y92.524 E7.38047
G1 X72.133 Y92.334 E7.41989
G1 X71.39 Y92.067 E7.45928
G1 X70.677 Y91.727 E7.49869
G1 X70.003 Y91.316 E7.53808
G1 X69.373 Y90.84 E7.57747
G1 X68.923 Y90.43 E7.60784
G1 X68.805 Y90.314 E7.6161
G1 X68.271 Y89.733 E7.65547
G1 X67.798 Y89.101 E7.69485
G1 X67.391 Y88.424 E7.73426
G1 X67.055 Y87.709 E7.77367
G1 X66.793 Y86.964 E7.81307
G1 X66.608 Y86.196 E7.85248
G1 X66.501 Y85.414 E7.89186
G1 X66.473 Y84.832 E7.92093
G1 X66.293 Y67.263 E8.7975
G1 X65.706 Y67.27 E8.82679
G1 X64.92 Y67.199 E8.86616
G1 X64.144 Y67.049 E8.90559
G1 X63.388 Y66.821 E8.94499
G1 X62.659 Y66.518 E8.98437
G1 X61.964 Y66.142 E9.0238
G1 X61.311 Y65.699 E9.06316
G1 X60.555 Y65.047 E9.11297
G1 X49.645 Y54.356 E9.87504
G1 X49.109 Y53.776 E9.91444
G1 X48.636 Y53.144 E9.95383
G1 X48.228 Y52.467 E9.99326
G1 X47.891 Y51.753 E10.03265
G1 X47.628 Y51.009 E10.07202
G1 X47.441 Y50.241 E10.11146
G1 X47.333 Y49.459 E10.15084
G1 X47.305 Y48.67 E10.19023
G1 X47.305 Y48.665 E10.19048
G1 X29.74 Y48.845 E11.06684
G1 X28.951 Y48.813 E11.10624
G1 X28.169 Y48.701 E11.14565
G1 X27.403 Y48.511 E11.18503
G1 X26.659 Y48.245 E11.22445
G1 X25.947 Y47.904 E11.26383
G1 X25.272 Y47.494 E11.30323
G1 X24.643 Y47.017 E11.34262
G1 X24.192 Y46.607 E11.37303
G1 X24.074 Y46.491 E11.38128
G1 X23.54 Y45.91 E11.42065
G1 X23.067 Y45.278 E11.46003
G1 X22.66 Y44.601 E11.49944
G1 X22.324 Y43.886 E11.53886
G1 X22.062 Y43.141 E11.57826
G1 X21.877 Y42.373 E11.61767
G1 X21.77 Y41.591 E11.65705
G1 X21.742 Y41.008 E11.68617
G1 X21.663 Y33.241 E12.07368
G1 X21.695 Y32.452 E12.11308
G1 X21.807 Y31.671 E12.15244
G1 X21.997 Y30.904 E12.19186
G1 X22.264 Y30.161 E12.23125
G1 X22.604 Y29.448 E12.27066
G1 X23.015 Y28.774 E12.31005
G1 X23.491 Y28.144 E12.34944
G1 X23.901 Y27.694 E12.37981
G1 X24.017 Y27.576 E12.38807
G1 X24.598 Y27.042 E12.42744
G0 F3600 X24.869 Y27.337
G1 F1800 X25.487 Y26.879 E12.46581
G1 X26.149 Y26.487 E12.5042
G1 X26.848 Y26.166 E12.54257
G1 X27.577 Y25.92 E12.58096
G1 X28.327 Y25.751 E12.61931
G1 X29.091 Y25.66 E12.6577
G1 X29.503 Y25.644 E12.67827
G1 X68.56 Y25.244 E14.62693
G1 X68.7 Y25.238 E14.63392
G1 X68.739 Y25.234 E14.63588
G1 X68.756 Y25.231 E14.63674
G1 X68.831 Y25.213 E14.64059
G1 X68.854 Y25.206 E14.64179
G1 X68.893 Y25.191 E14.64387
G1 X68.918 Y25.179 E14.64526
G1 X68.945 Y25.165 E14.64677
G1 X68.998 Y25.132 E14.64989
G1 X69.619 Y24.688 E14.68797
G1 X70.317 Y24.246 E14.72919
G1 X71.186 Y23.761 E14.77884
G1 X71.849 Y23.433 E14.81575
G1 X72.315 Y23.231 E14.84108
G1 X72.839 Y23.028 E14.86912
G1 X73.316 Y22.863 E14.8943
G1 X74.093 Y22.64 E14.93463
G1 X75.073 Y22.417 E14.98477
G1 X76.102 Y22.258 E15.03672
G1 X77.076 Y22.177 E15.08548
G1 X77.85 Y22.154 E15.12411
G1 X78.355 Y22.165 E15.14931
G1 X78.88 Y22.195 E15.17555
G1 X79.385 Y22.242 E15.20085
G1 X79.944 Y22.315 E15.22898
G1 X80.442 Y22.4 E15.25418
G1 X80.964 Y22.509 E15.28079
G1 X81.456 Y22.63 E15.30606
G1 X82.206 Y22.857 E15.34516
G1 X83.124 Y23.189 E15.39386
G1 X83.847 Y23.495 E15.43303
G1 X84.307 Y23.719 E15.45855
G1 X84.74 Y23.948 E15.48299
G1 X85.179 Y24.199 E15.50822
G1 X85.882 Y24.655 E15.55002
G1 X86.673 Y25.235 E15.59896
G1 X87.287 Y25.739 E15.63859
G1 X87.667 Y26.086 E15.66426
G1 X88.033 Y26.444 E15.68981
G1 X88.38 Y26.808 E15.7149
G1 X88.747 Y27.223 E15.74254
G1 X89.065 Y27.611 E15.76756
G1 X89.531 Y28.246 E15.80686
G1 X90.069 Y29.067 E15.85583
G1 X90.443 Y29.704 E15.89268
G1 X90.68 Y30.159 E15.91828
G1 X90.923 Y30.672 E15.9466
G1 X91.119 Y31.131 E15.9715
G1 X91.315 Y31.644 E15.9989
G1 X91.478 Y32.121 E16.02404
G1 X91.689 Y32.859 E16.06234
G1 X91.909 Y33.818 E16.11143
G1 X92.046 Y34.611 E16.15158
G1 X92.107 Y35.131 E16.1777
G1 X92.15 Y35.668 E16.20457
G1 X92.172 Y36.169 E16.22959
G1 X92.176 Y36.714 E16.25678
G1 X92.161 Y37.219 E16.28199
G1 X92.101 Y37.963 E16.31923
G1 X91.974 Y38.93 E16.36789
G1 X91.821 Y39.74 E16.40901
G1 X91.701 Y40.226 E16.43399
G1 X91.563 Y40.713 E16.45924
G1 X91.409 Y41.193 E16.48439
G1 X91.213 Y41.731 E16.51296
G1 X91.023 Y42.196 E16.53802
G1 X90.826 Y42.636 E16.56207
G1 X90.604 Y43.092 E16.58737
G1 X90.347 Y43.574 E16.61462
G1 X90.091 Y44.014 E16.64002
G1 X89.893 Y44.335 E16.65884
G1 X89.312 Y45.226 E16.7119
G1 X89.305 Y45.246 E16.71296
G1 X89.289 Y45.3 E16.71577
G1 X89.288 Y45.307 E16.71612
G1 X89.281 Y45.353 E16.71844
G1 X89.277 Y45.388 E16.7202
G1 X89.274 Y45.515 E16.72654
G1 X89.282 Y46.438 E16.77259
G1 X89.673 Y84.595 E18.67635
G1 X89.641 Y85.364 E18.71475
G1 X89.529 Y86.125 E18.75312
G1 X89.339 Y86.87 E18.79148
G1 X89.072 Y87.592 E18.82989
G1 X88.732 Y88.281 E18.86822
G1 X88.323 Y88.932 E18.90658
G1 X87.848 Y89.537 E18.94495
G1 X87.55 Y89.859 E18.96684
G1 X87.434 Y89.977 E18.97509
G1 X86.867 Y90.496 E19.01344
G1 X86.249 Y90.954 E19.05182
G1 X85.587 Y91.346 E19.0902
G1 X84.888 Y91.667 E19.12858
G1 X84.159 Y91.913 E19.16696
G1 X83.409 Y92.082 E19.20532
G1 X82.645 Y92.173 E19.2437
G1 X82.232 Y92.189 E19.26432
G1 X74.466 Y92.268 E19.65179
G1 X73.698 Y92.235 E19.69014
G1 X72.937 Y92.124 E19.72851
G1 X72.192 Y91.934 E19.76687
G1 X71.47 Y91.667 E19.80527
G1 X70.78 Y91.327 E19.84365
G1 X70.129 Y90.917 E19.88203
G1 X69.524 Y90.442 E19.92041
G1 X69.203 Y90.145 E19.94223
G1 X69.085 Y90.029 E19.95048
G1 X68.566 Y89.462 E19.98883
G1 X68.108 Y88.844 E20.02721
G1 X67.716 Y88.182 E20.06559
G1 X67.395 Y87.483 E20.10396
G1 X67.149 Y86.754 E20.14235
G1 X66.98 Y86.004 E20.18071
G1 X66.889 Y85.24 E20.21909
G1 X66.873 Y84.828 E20.23966
G1 X66.689 Y66.836 E21.13733
G1 X66.171 Y66.874 E21.16325
G1 X65.403 Y66.851 E21.20158
G1 X64.64 Y66.747 E21.24
G1 X63.893 Y66.566 E21.27834
G1 X63.169 Y66.307 E21.3167
G1 X62.475 Y65.975 E21.35509
G1 X61.819 Y65.572 E21.3935
G1 X61.209 Y65.104 E21.43185
G1 X60.835 Y64.761 E21.45717
G1 X49.925 Y54.07 E22.21925
G1 X49.404 Y53.504 E22.25762
G1 X48.945 Y52.887 E22.29599
G1 X48.552 Y52.226 E22.33436
G1 X48.231 Y51.527 E22.37273
G1 X47.983 Y50.799 E22.4111
G1 X47.813 Y50.049 E22.44947
G1 X47.721 Y49.285 E22.48786
G1 X47.709 Y48.516 E22.52623
G1 X47.732 Y48.261 E22.539
G1 X29.736 Y48.445 E23.43687
G1 X28.967 Y48.413 E23.47527
G1 X28.206 Y48.301 E23.51365
G1 X27.461 Y48.111 E23.55201
G1 X26.74 Y47.844 E23.59036
G1 X26.05 Y47.504 E23.62874
G1 X25.399 Y47.095 E23.6671
G1 X24.794 Y46.62 E23.70547
G1 X24.472 Y46.322 E23.72736
G1 X24.354 Y46.206 E23.73562
G1 X23.835 Y45.639 E23.77397
G1 X23.377 Y45.021 E23.81234
G1 X22.985 Y44.359 E23.85072
G1 X22.664 Y43.66 E23.8891
G1 X22.418 Y42.931 E23.92748
G1 X22.249 Y42.181 E23.96584
G1 X22.158 Y41.417 E24.00423
G1 X22.142 Y41.004 E24.02485
G1 X22.063 Y33.237 E24.41236
G1 X22.096 Y32.469 E24.45071
G1 X22.207 Y31.708 E24.48908
G1 X22.397 Y30.963 E24.52744
G1 X22.664 Y30.241 E24.56585
G1 X23.004 Y29.551 E24.60422
G1 X23.414 Y28.9 E24.6426
G1 X23.889 Y28.295 E24.68098
G1 X24.186 Y27.974 E24.7028
G1 X24.302 Y27.856 E24.71105
G1 X24.869 Y27.337 E24.7494
G0 F3600 X25.139 Y27.632
G1 F1800 X25.742 Y27.189 E24.78673
G1 X26.389 Y26.813 E24.82407
G1 X27.072 Y26.508 E24.86138
G1 X27.784 Y26.278 E24.89871
G1 X28.516 Y26.125 E24.93602
G1 X29.507 Y26.044 E24.98563
G1 X68.55 Y25.644 E26.93359
G1 X68.728 Y25.637 E26.94248
G1 X68.804 Y25.628 E26.9463
G1 X68.85 Y25.62 E26.94863
G1 X68.937 Y25.6 E26.95308
G1 X68.966 Y25.591 E26.9546
G1 X69.048 Y25.56 E26.95897
G1 X69.102 Y25.535 E26.96194
G1 X69.147 Y25.51 E26.96451
G1 X69.227 Y25.461 E26.96919
G1 X69.852 Y25.014 E27.00752
G1 X70.512 Y24.596 E27.0465
G1 X71.381 Y24.111 E27.09615
G1 X72.008 Y23.8 E27.13107
G1 X72.474 Y23.598 E27.15641
G1 X72.97 Y23.406 E27.18294
G1 X73.447 Y23.241 E27.20812
G1 X74.182 Y23.03 E27.24627
G1 X75.162 Y22.807 E27.29641
G1 X76.135 Y22.657 E27.34553
G1 X77.109 Y22.576 E27.39429
G1 X77.841 Y22.554 E27.43083
G1 X78.346 Y22.565 E27.45603
G1 X78.843 Y22.593 E27.48086
G1 X79.348 Y22.64 E27.50617
G1 X79.877 Y22.71 E27.53279
G1 X80.375 Y22.795 E27.55799
G1 X80.869 Y22.898 E27.58317
G1 X81.361 Y23.019 E27.60845
G1 X82.07 Y23.233 E27.64539
G1 X82.988 Y23.565 E27.6941
G1 X83.672 Y23.855 E27.73116
G1 X84.132 Y24.079 E27.75669
G1 X84.541 Y24.295 E27.77976
G1 X84.98 Y24.546 E27.80499
G1 X85.645 Y24.978 E27.84456
G1 X86.436 Y25.558 E27.89349
G1 X87.017 Y26.034 E27.93096
G1 X87.397 Y26.381 E27.95664
G1 X87.744 Y26.72 E27.98084
G1 X88.091 Y27.084 E28.00593
G1 X88.438 Y27.477 E28.03208
G1 X88.756 Y27.865 E28.05711
G1 X89.197 Y28.465 E28.09426
G1 X89.735 Y29.286 E28.14323
G1 X90.088 Y29.889 E28.17809
G1 X90.325 Y30.344 E28.20369
G1 X90.555 Y30.829 E28.23047
G1 X90.751 Y31.288 E28.25537
G1 X90.937 Y31.773 E28.28128
G1 X91.1 Y32.25 E28.30643
G1 X91.299 Y32.949 E28.34269
G1 X91.519 Y33.908 E28.39178
G1 X91.648 Y34.657 E28.4297
G1 X91.709 Y35.177 E28.45582
G1 X91.75 Y35.686 E28.48129
G1 X91.772 Y36.187 E28.50631
G1 X91.776 Y36.702 E28.53201
G1 X91.761 Y37.207 E28.55721
G1 X91.704 Y37.911 E28.59245
G1 X91.577 Y38.878 E28.64111
G1 X91.433 Y39.644 E28.67999
G1 X91.313 Y40.13 E28.70497
G1 X91.182 Y40.59 E28.72883
G1 X91.028 Y41.07 E28.75398
G1 X90.843 Y41.58 E28.78105
G1 X90.653 Y42.045 E28.80611
G1 X90.467 Y42.461 E28.82884
G1 X90.245 Y42.917 E28.85414
G1 X90.001 Y43.373 E28.87995
G1 X89.745 Y43.813 E28.90534
G1 X89.558 Y44.117 E28.92315
G1 X88.952 Y45.046 E28.97849
G1 X88.945 Y45.063 E28.9794
G1 X88.929 Y45.106 E28.98169
G1 X88.902 Y45.199 E28.98652
G1 X88.894 Y45.235 E28.98836
G1 X88.881 Y45.319 E28.9926
G1 X88.878 Y45.36 E28.99465
G1 X88.874 Y45.506 E29.00194
G1 X88.882 Y46.442 E29.04864
G1 X89.273 Y84.599 E30.9524
G1 X89.24 Y85.347 E30.98975
G1 X89.128 Y86.086 E31.02704
G1 X88.938 Y86.81 E31.06439
G1 X88.672 Y87.509 E31.1017
G1 X88.333 Y88.175 E31.13899
G1 X87.924 Y88.802 E31.17633
G1 X87.265 Y89.578 E31.22712
G1 X87.149 Y89.696 E31.23538
G1 X86.597 Y90.201 E31.27271
G1 X85.994 Y90.644 E31.31003
G1 X85.347 Y91.02 E31.34737
G1 X84.664 Y91.325 E31.38469
G1 X83.952 Y91.555 E31.42202
G1 X83.22 Y91.708 E31.45933
G1 X82.228 Y91.789 E31.50898
G1 X74.462 Y91.868 E31.89645
G1 X73.715 Y91.835 E31.93375
G1 X72.975 Y91.723 E31.97109
G1 X72.252 Y91.533 E32.00839
G1 X71.553 Y91.267 E32.0457
G1 X70.886 Y90.927 E32.08305
G1 X70.259 Y90.519 E32.12037
G1 X69.484 Y89.86 E32.17113
G1 X69.366 Y89.744 E32.17938
G1 X68.861 Y89.192 E32.21671
G1 X68.418 Y88.589 E32.25404
G1 X68.042 Y87.942 E32.29137
G1 X67.737 Y87.259 E32.32869
G1 X67.507 Y86.547 E32.36602
G1 X67.354 Y85.815 E32.40333
G1 X67.273 Y84.824 E32.45293
G1 X67.084 Y66.385 E33.37291
G1 X66.603 Y66.451 E33.39713
G1 X65.855 Y66.474 E33.43446
G1 X65.109 Y66.417 E33.47179
G1 X64.374 Y66.281 E33.50908
G1 X63.657 Y66.067 E33.54641
G1 X62.967 Y65.778 E33.58373
G1 X62.312 Y65.417 E33.62105
G1 X61.699 Y64.988 E33.65837
G1 X61.115 Y64.476 E33.69712
G1 X50.205 Y53.785 E34.45919
G1 X49.699 Y53.233 E34.49655
G1 X49.255 Y52.631 E34.53387
G1 X48.878 Y51.985 E34.57119
G1 X48.572 Y51.302 E34.60853
G1 X48.341 Y50.591 E34.64582
G1 X48.187 Y49.859 E34.68314
G1 X48.112 Y49.115 E34.72045
G1 X48.117 Y48.367 E34.75777
G1 X48.175 Y47.856 E34.78343
G1 X29.732 Y48.045 E35.7036
G1 X28.984 Y48.012 E35.74095
G1 X28.245 Y47.9 E35.77824
G1 X27.521 Y47.71 E35.81559
G1 X26.822 Y47.444 E35.8529
G1 X26.156 Y47.105 E35.89018
G1 X25.529 Y46.696 E35.92753
G1 X24.753 Y46.037 E35.97832
G1 X24.635 Y45.921 E35.98658
G1 X24.13 Y45.369 E36.0239
G1 X23.687 Y44.766 E36.06123
G1 X23.311 Y44.119 E36.09857
G1 X23.006 Y43.436 E36.13589
G1 X22.776 Y42.724 E36.17322
G1 X22.623 Y41.992 E36.21052
G1 X22.542 Y41 E36.26018
G1 X22.463 Y33.233 E36.6477
G1 X22.496 Y32.486 E36.685
G1 X22.608 Y31.746 E36.72234
G1 X22.798 Y31.023 E36.75964
G1 X23.064 Y30.324 E36.79695
G1 X23.404 Y29.657 E36.8343
G1 X23.812 Y29.03 E36.87162
G1 X24.471 Y28.255 E36.92237
G1 X24.587 Y28.137 E36.93063
G1 X25.139 Y27.632 E36.96795
G0 F3600 X25.409 Y27.928
G1 F1800 X25.997 Y27.501 E37.00421
G1 X26.628 Y27.141 E37.04045
G1 X27.294 Y26.852 E37.07667
G1 X27.988 Y26.639 E37.11289
G1 X28.702 Y26.503 E37.14915
G1 X29.511 Y26.444 E37.18962
G1 X68.571 Y26.044 E39.13843
G1 X68.757 Y26.036 E39.14772
G1 X68.848 Y26.026 E39.15229
G1 X68.931 Y26.012 E39.15649
G1 X69.044 Y25.985 E39.16229
