;FLAVOR:Marlin
;TIME:4814
;Filament used: 2.60521m
;Layer height: 0.1
;MINX:13.687
;MINY:30.114
;MINZ:0.3
;MAXX:103.055
;MAXY:89.755
;MAXZ:27.2
;Generated with Cura_SteamEngine 4.4.0
M104 S200
M105
M109 S200
M82 ;absolute extrusion mode
G21 ;metric values
 G90 ;absolute positioning
 M82 ;set extruder to absolute mode
 M107 ;start with the fan off
 G28 X0 Y0 ;move X/Y to min endstops
 G28 Z0 ;move Z to min endstops
 G1 Z15.0 F120 ;move the platform down 15mm
 G92 E0 ;zero the extruded length
 G1 F200 E6 ;extrude 6 mm of feed stock
 G92 E0 ;zero the extruded length again
 G1 F120 
 ;Put printing message on LCD screen
 M117 Printing...
G92 E0
G92 E0
G1 F1500 E-6.5
;LAYER_COUNT:270
;LAYER:0
M107
G0 F3600 X22.749 Y31.379 Z0.3
;TYPE:SKIRT
G1 F1500 E0
G1 F1800 X23.432 Y30.982 E0.03941
G1 X24.151 Y30.656 E0.0788
G1 X24.899 Y30.404 E0.11818
G1 X25.67 Y30.23 E0.15761
G1 X26.453 Y30.134 E0.19697
G1 X27.007 Y30.114 E0.22462
G1 X27.173 Y30.114 E0.23291
G1 X27.962 Y30.154 E0.27232
G1 X28.742 Y30.273 E0.31168
G1 X29.507 Y30.471 E0.35111
G1 X30.247 Y30.745 E0.39048
G1 X30.956 Y31.093 E0.42988
G1 X31.627 Y31.511 E0.46932
G1 X32.251 Y31.994 E0.50869
G1 X32.717 Y32.427 E0.54042
G1 X58.296 Y58.273 E2.3546
G1 X84.141 Y32.694 E4.16875
G1 X84.73 Y32.168 E4.20815
G1 X85.369 Y31.704 E4.24754
G1 X86.051 Y31.306 E4.28694
G1 X86.771 Y30.98 E4.32637
G1 X87.519 Y30.729 E4.36573
G1 X88.289 Y30.554 E4.40513
G1 X89.073 Y30.458 E4.44454
G1 X89.628 Y30.438 E4.47224
G1 X89.794 Y30.438 E4.48052
G1 X90.583 Y30.478 E4.51994
G1 X91.363 Y30.597 E4.5593
G1 X92.128 Y30.795 E4.59873
G1 X92.868 Y31.069 E4.63809
G1 X93.577 Y31.417 E4.6775
G1 X94.248 Y31.835 E4.71694
G1 X94.872 Y32.318 E4.75631
G1 X95.339 Y32.752 E4.78811
G1 X100.8 Y38.272 E5.1755
G1 X101.326 Y38.861 E5.2149
G1 X101.79 Y39.5 E5.2543
G1 X102.187 Y40.183 E5.29371
G1 X102.513 Y40.902 E5.3331
G1 X102.765 Y41.65 E5.37248
G1 X102.939 Y42.421 E5.41191
G1 X103.035 Y43.204 E5.45127
G1 X103.055 Y43.758 E5.47892
G1 X103.055 Y43.924 E5.4872
G1 X103.015 Y44.713 E5.52662
G1 X102.896 Y45.493 E5.56598
G1 X102.698 Y46.258 E5.60541
G1 X102.424 Y46.998 E5.64478
G1 X102.076 Y47.707 E5.68418
G1 X101.658 Y48.378 E5.72362
G1 X101.175 Y49.002 E5.76299
G1 X100.742 Y49.468 E5.79472
G1 X72.978 Y76.946 E7.74356
G1 X72.897 Y77.031 E7.74942
G1 X72.886 Y77.046 E7.75035
G1 X72.883 Y77.05 E7.7506
G1 X72.883 Y77.051 E7.75064
G1 X72.762 Y77.617 E7.77952
G1 X72.747 Y77.688 E7.78314
G1 X72.534 Y78.642 E7.83191
G1 X72.325 Y79.395 E7.8709
G1 X72.165 Y79.878 E7.89628
G1 X71.845 Y80.69 E7.93982
G1 X71.427 Y81.597 E7.98965
G1 X71.037 Y82.336 E8.03134
G1 X70.775 Y82.774 E8.0568
G1 X70.464 Y83.252 E8.08525
G1 X70.174 Y83.665 E8.11043
G1 X69.659 Y84.322 E8.15207
G1 X69.011 Y85.062 E8.20115
G1 X68.453 Y85.636 E8.24109
G1 X68.084 Y85.979 E8.26622
G1 X67.652 Y86.352 E8.2947
G1 X67.259 Y86.667 E8.31982
G1 X66.808 Y87.003 E8.34788
G1 X66.396 Y87.287 E8.37285
G1 X65.667 Y87.733 E8.41548
G1 X64.794 Y88.203 E8.46495
G1 X64.084 Y88.54 E8.50416
G1 X63.621 Y88.732 E8.52916
G1 X63.067 Y88.937 E8.55864
G1 X62.583 Y89.096 E8.58405
G1 X62.019 Y89.258 E8.61333
G1 X61.525 Y89.38 E8.63871
G1 X60.73 Y89.534 E8.67911
G1 X59.76 Y89.669 E8.72797
G1 X58.934 Y89.739 E8.76933
G1 X58.433 Y89.755 E8.79434
G1 X57.887 Y89.753 E8.82158
G1 X57.388 Y89.734 E8.84649
G1 X56.82 Y89.692 E8.87491
G1 X56.318 Y89.636 E8.90011
G1 X55.758 Y89.553 E8.92835
G1 X55.252 Y89.459 E8.95403
G1 X54.701 Y89.336 E8.98219
G1 X54.216 Y89.209 E9.00721
G1 X53.414 Y88.952 E9.04922
G1 X52.493 Y88.601 E9.09839
G1 X51.509 Y88.145 E9.1525
G1 X50.639 Y87.666 E9.20205
G1 X49.93 Y87.224 E9.24373
G1 X49.514 Y86.933 E9.26906
G1 X48.839 Y86.404 E9.31185
G1 X48.086 Y85.743 E9.36183
G1 X47.489 Y85.159 E9.4035
G1 X47.148 Y84.788 E9.42864
G1 X46.79 Y84.37 E9.4561
G1 X46.473 Y83.972 E9.48148
G1 X45.989 Y83.293 E9.52308
G1 X45.462 Y82.463 E9.57213
G1 X44.932 Y81.479 E9.62789
G1 X44.52 Y80.562 E9.67805
G1 X44.138 Y79.518 E9.73351
G1 X43.864 Y78.564 E9.78303
G1 X43.674 Y77.734 E9.82551
G1 X43.546 Y76.99 E9.86317
G1 X43.533 Y76.936 E9.86595
G1 X43.533 Y76.935 E9.866
G1 X43.53 Y76.928 E9.86637
G1 X43.516 Y76.902 E9.86785
G1 X43.511 Y76.894 E9.86832
G1 X43.486 Y76.864 E9.87027
G1 X43.403 Y76.775 E9.87634
G1 X42.784 Y76.15 E9.92022
G1 X15.943 Y49.027 E11.82398
G1 X15.416 Y48.438 E11.86341
G1 X14.952 Y47.799 E11.90281
G1 X14.555 Y47.116 E11.94222
G1 X14.229 Y46.397 E11.9816
G1 X13.977 Y45.649 E12.02098
G1 X13.803 Y44.879 E12.06037
G1 X13.707 Y44.095 E12.09977
G1 X13.687 Y43.54 E12.12748
G1 X13.687 Y43.375 E12.13571
G1 X13.727 Y42.586 E12.17513
G1 X13.846 Y41.806 E12.21449
G1 X14.044 Y41.041 E12.25391
G1 X14.318 Y40.301 E12.29328
G1 X14.666 Y39.592 E12.33269
G1 X15.084 Y38.921 E12.37213
G1 X15.567 Y38.297 E12.41149
G1 X16.001 Y37.83 E12.4433
G1 X21.521 Y32.369 E12.83069
G1 X22.11 Y31.843 E12.87009
G1 X22.749 Y31.379 E12.90949
G0 F3600 X23.001 Y31.692
G1 F1800 X23.668 Y31.31 E12.94783
G1 X24.372 Y30.999 E12.98623
G1 X25.104 Y30.763 E13.0246
G1 X25.857 Y30.604 E13.063
G1 X26.622 Y30.524 E13.10137
G1 X27.007 Y30.514 E13.12059
G1 X27.173 Y30.514 E13.12887
G1 X27.941 Y30.554 E13.16724
G1 X28.701 Y30.673 E13.20561
G1 X29.444 Y30.871 E13.24398
G1 X30.163 Y31.145 E13.28236
G1 X30.849 Y31.492 E13.32072
G1 X31.496 Y31.908 E13.35909
G1 X32.096 Y32.389 E13.39746
G1 X32.433 Y32.709 E13.42064
G1 X58.293 Y58.839 E15.25476
G1 X84.423 Y32.978 E17.0889
G1 X84.997 Y32.466 E17.12728
G1 X85.621 Y32.017 E17.16563
G1 X86.288 Y31.635 E17.20398
G1 X86.992 Y31.324 E17.24238
G1 X87.724 Y31.087 E17.28076
G1 X88.476 Y30.928 E17.31911
G1 X89.241 Y30.848 E17.35748
G1 X89.628 Y30.838 E17.3768
G1 X89.794 Y30.838 E17.38508
G1 X90.562 Y30.878 E17.42345
G1 X91.322 Y30.997 E17.46182
G1 X92.065 Y31.195 E17.50019
G1 X92.784 Y31.469 E17.53857
G1 X93.47 Y31.816 E17.57693
G1 X94.117 Y32.232 E17.6153
G1 X94.717 Y32.713 E17.65367
G1 X95.055 Y33.034 E17.67692
G1 X100.516 Y38.554 E18.06431
G1 X101.027 Y39.128 E18.10266
G1 X101.477 Y39.752 E18.14104
G1 X101.859 Y40.419 E18.17939
G1 X102.17 Y41.123 E18.21778
G1 X102.406 Y41.855 E18.25615
G1 X102.565 Y42.608 E18.29455
G1 X102.645 Y43.373 E18.33292
G1 X102.655 Y43.758 E18.35214
G1 X102.655 Y43.924 E18.36042
G1 X102.615 Y44.692 E18.39879
G1 X102.496 Y45.452 E18.43717
G1 X102.298 Y46.195 E18.47553
G1 X102.024 Y46.914 E18.51392
G1 X101.677 Y47.6 E18.55227
G1 X101.261 Y48.247 E18.59064
G1 X100.78 Y48.847 E18.62901
G1 X100.46 Y49.184 E18.6522
G1 X72.689 Y76.668 E20.60149
G1 X72.603 Y76.759 E20.60774
G1 X72.585 Y76.781 E20.60916
G1 X72.554 Y76.823 E20.61176
G1 X72.529 Y76.863 E20.61411
G1 X72.518 Y76.883 E20.61525
G1 X72.503 Y76.915 E20.61702
G1 X72.371 Y77.534 E20.64859
G1 X72.356 Y77.6 E20.65197
G1 X72.143 Y78.554 E20.70074
G1 X71.946 Y79.269 E20.73774
G1 X71.786 Y79.752 E20.76312
G1 X71.482 Y80.522 E20.80442
G1 X71.064 Y81.429 E20.85425
G1 X70.694 Y82.131 E20.89384
G1 X70.432 Y82.569 E20.9193
G1 X70.137 Y83.022 E20.94627
G1 X69.847 Y83.435 E20.97145
G1 X69.358 Y84.058 E21.01096
G1 X68.71 Y84.798 E21.06003
G1 X68.181 Y85.343 E21.09792
G1 X67.812 Y85.686 E21.12306
G1 X67.402 Y86.04 E21.15008
G1 X67.009 Y86.355 E21.17521
G1 X66.581 Y86.674 E21.20184
G1 X66.169 Y86.958 E21.22681
G1 X65.477 Y87.381 E21.26727
G1 X64.604 Y87.851 E21.31674
G1 X63.931 Y88.171 E21.35391
G1 X63.468 Y88.363 E21.37892
G1 X62.943 Y88.557 E21.40684
G1 X62.459 Y88.716 E21.43226
G1 X61.923 Y88.87 E21.46008
G1 X61.429 Y88.992 E21.48547
G1 X60.675 Y89.137 E21.52378
G1 X59.705 Y89.272 E21.57264
G1 X58.921 Y89.339 E21.61189
G1 X58.42 Y89.355 E21.6369
G1 X57.902 Y89.354 E21.66274
G1 X57.403 Y89.335 E21.68766
G1 X56.865 Y89.294 E21.71458
G1 X56.363 Y89.238 E21.73978
G1 X55.831 Y89.16 E21.7666
G1 X55.325 Y89.066 E21.79228
G1 X54.802 Y88.949 E21.81902
G1 X54.317 Y88.822 E21.84403
G1 X53.557 Y88.578 E21.88385
G1 X52.636 Y88.227 E21.93302
G1 X51.702 Y87.794 E21.98438
G1 X50.832 Y87.315 E22.03393
G1 X50.159 Y86.897 E22.07346
G1 X49.743 Y86.606 E22.09879
G1 X49.103 Y86.103 E22.1394
G1 X48.35 Y85.442 E22.18939
G1 X47.784 Y84.889 E22.22886
G1 X47.443 Y84.518 E22.254
G1 X47.103 Y84.12 E22.28012
G1 X46.786 Y83.722 E22.3055
G1 X46.327 Y83.079 E22.34492
G1 X45.8 Y82.249 E22.39397
G1 X45.297 Y81.315 E22.44689
G1 X44.885 Y80.398 E22.49705
G1 X44.523 Y79.408 E22.54964
G1 X44.249 Y78.454 E22.59916
G1 X44.068 Y77.666 E22.63949
G1 X43.938 Y76.912 E22.67767
G1 X43.919 Y76.83 E22.68187
G1 X43.911 Y76.806 E22.68313
G1 X43.901 Y76.778 E22.68461
G1 X43.886 Y76.746 E22.68638
G1 X43.867 Y76.709 E22.68845
G1 X43.842 Y76.669 E22.6908
G1 X43.828 Y76.649 E22.69202
G1 X43.796 Y76.611 E22.6945
G1 X43.698 Y76.505 E22.7017
G1 X43.066 Y75.866 E22.74654
G1 X16.227 Y48.745 E24.65015
G1 X15.715 Y48.171 E24.68853
G1 X15.266 Y47.547 E24.72688
G1 X14.883 Y46.88 E24.76525
G1 X14.572 Y46.176 E24.80365
G1 X14.336 Y45.444 E24.84202
G1 X14.177 Y44.692 E24.88037
G1 X14.097 Y43.927 E24.91874
G1 X14.087 Y43.54 E24.93805
G1 X14.087 Y43.375 E24.94629
G1 X14.127 Y42.607 E24.98465
G1 X14.246 Y41.847 E25.02303
G1 X14.444 Y41.104 E25.06139
G1 X14.718 Y40.385 E25.09978
G1 X15.065 Y39.699 E25.13814
G1 X15.481 Y39.052 E25.17651
G1 X15.962 Y38.452 E25.21488
G1 X16.283 Y38.114 E25.23813
G1 X21.803 Y32.653 E25.62552
G1 X22.377 Y32.142 E25.66386
G1 X23.001 Y31.692 E25.70225
G0 F3600 X23.252 Y32.006
G1 F1800 X23.904 Y31.639 E25.73957
G1 X24.591 Y31.344 E25.77687
G1 X25.306 Y31.124 E25.8142
G1 X26.04 Y30.981 E25.8515
G1 X27.007 Y30.914 E25.89986
G1 X27.173 Y30.914 E25.90815
G1 X27.92 Y30.954 E25.94547
G1 X28.658 Y31.073 E25.98276
G1 X29.38 Y31.271 E26.02011
G1 X30.076 Y31.544 E26.05741
G1 X30.739 Y31.891 E26.09474
G1 X31.362 Y32.306 E26.13209
G1 X32.148 Y32.99 E26.18407
G1 X58.29 Y59.405 E28.03819
G1 X84.704 Y33.263 E29.89227
G1 X85.263 Y32.766 E29.92959
G1 X85.872 Y32.331 E29.96692
G1 X86.524 Y31.964 E30.00425
G1 X87.211 Y31.669 E30.04155
G1 X87.926 Y31.448 E30.07889
G1 X88.66 Y31.305 E30.1162
G1 X89.628 Y31.238 E30.16461
G1 X89.794 Y31.238 E30.17289
G1 X90.541 Y31.278 E30.21021
G1 X91.279 Y31.397 E30.2475
G1 X92.001 Y31.595 E30.28485
G1 X92.697 Y31.868 E30.32215
G1 X93.36 Y32.215 E30.35949
G1 X93.983 Y32.63 E30.39683
G1 X94.77 Y33.315 E30.44889
G1 X100.231 Y38.835 E30.83628
G1 X100.728 Y39.394 E30.87359
G1 X101.163 Y40.003 E30.91093
G1 X101.53 Y40.655 E30.94826
G1 X101.825 Y41.342 E30.98556
G1 X102.045 Y42.057 E31.02288
G1 X102.188 Y42.791 E31.06019
G1 X102.255 Y43.758 E31.10855
G1 X102.255 Y43.924 E31.11683
G1 X102.215 Y44.671 E31.15415
G1 X102.096 Y45.409 E31.19145
G1 X101.898 Y46.131 E31.2288
G1 X101.625 Y46.827 E31.2661
G1 X101.278 Y47.49 E31.30343
G1 X100.863 Y48.113 E31.34078
G1 X100.179 Y48.899 E31.39276
G1 X72.434 Y76.358 E33.34026
G1 X72.298 Y76.501 E33.3501
G1 X72.258 Y76.548 E33.35318
G1 X72.227 Y76.592 E33.35587
G1 X72.19 Y76.649 E33.35926
G1 X72.157 Y76.711 E33.36276
G1 X72.132 Y76.764 E33.36568
G1 X72.12 Y76.793 E33.36725
G1 X71.98 Y77.45 E33.40076
G1 X71.966 Y77.513 E33.40398
G1 X71.753 Y78.467 E33.45275
G1 X71.566 Y79.143 E33.48774
G1 X71.406 Y79.626 E33.51313
G1 X71.118 Y80.355 E33.55223
G1 X70.7 Y81.262 E33.60206
G1 X70.35 Y81.925 E33.63946
G1 X70.088 Y82.363 E33.66492
G1 X69.81 Y82.793 E33.69047
G1 X69.52 Y83.206 E33.71565
G1 X69.057 Y83.795 E33.75302
G1 X68.409 Y84.535 E33.8021
G1 X67.909 Y85.05 E33.83791
G1 X67.54 Y85.393 E33.86304
G1 X67.152 Y85.728 E33.88862
G1 X66.759 Y86.043 E33.91374
G1 X66.354 Y86.344 E33.93892
G1 X65.942 Y86.628 E33.96388
G1 X65.287 Y87.029 E34.0022
G1 X64.414 Y87.499 E34.05166
G1 X63.777 Y87.801 E34.08684
G1 X63.314 Y87.993 E34.11184
G1 X62.818 Y88.177 E34.13824
G1 X62.334 Y88.336 E34.16365
G1 X61.827 Y88.482 E34.18997
G1 X61.333 Y88.604 E34.21536
G1 X60.62 Y88.741 E34.25158
G1 X59.65 Y88.876 E34.30044
G1 X58.908 Y88.939 E34.33759
G1 X58.407 Y88.955 E34.3626
G1 X57.918 Y88.954 E34.387
G1 X57.419 Y88.935 E34.41191
G1 X56.909 Y88.897 E34.43743
G1 X56.407 Y88.841 E34.46263
G1 X55.904 Y88.766 E34.488
G1 X55.398 Y88.672 E34.51368
G1 X54.904 Y88.562 E34.53892
G1 X54.419 Y88.435 E34.56394
G1 X53.699 Y88.204 E34.60166
G1 X52.778 Y87.853 E34.65083
G1 X51.895 Y87.444 E34.69938
G1 X51.025 Y86.965 E34.74893
G1 X50.389 Y86.569 E34.78631
G1 X49.973 Y86.278 E34.81164
G1 X49.367 Y85.803 E34.85005
G1 X48.614 Y85.142 E34.90004
G1 X48.078 Y84.618 E34.93744
G1 X47.737 Y84.247 E34.96258
G1 X47.416 Y83.871 E34.98724
G1 X47.099 Y83.473 E35.01263
G1 X46.665 Y82.864 E35.04994
G1 X46.138 Y82.034 E35.09899
G1 X45.662 Y81.151 E35.14903
G1 X45.25 Y80.234 E35.19919
G1 X44.907 Y79.297 E35.24897
G1 X44.633 Y78.343 E35.29849
G1 X44.462 Y77.598 E35.33662
G1 X44.328 Y76.821 E35.37596
G1 X44.309 Y76.739 E35.38016
G1 X44.286 Y76.665 E35.38403
G1 X44.269 Y76.622 E35.38633
G1 X44.246 Y76.57 E35.38917
G1 X44.204 Y76.493 E35.39354
G1 X44.183 Y76.46 E35.3955
G1 X44.141 Y76.4 E35.39915
G1 X44.102 Y76.352 E35.40224
G1 X43.977 Y76.218 E35.41138
G1 X43.352 Y75.587 E35.45569
G1 X16.511 Y48.464 E37.35944
G1 X16.014 Y47.905 E37.39676
G1 X15.58 Y47.296 E37.43407
G1 X15.213 Y46.644 E37.47139
G1 X14.917 Y45.957 E37.50871
G1 X14.697 Y45.242 E37.54604
G1 X14.554 Y44.508 E37.58334
G1 X14.487 Y43.54 E37.63175
G1 X14.487 Y43.375 E37.63998
G1 X14.527 Y42.628 E37.67731
G1 X14.646 Y41.89 E37.7146
G1 X14.844 Y41.168 E37.75195
G1 X15.117 Y40.472 E37.78925
G1 X15.464 Y39.809 E37.82658
G1 X15.879 Y39.186 E37.86393
G1 X16.564 Y38.399 E37.91598
G1 X22.084 Y32.938 E38.30337
G1 X22.643 Y32.441 E38.34069
G1 X23.252 Y32.006 E38.37803
G0 F3600 X23.502 Y32.321
G1 F1800 X24.138 Y31.97 E38.41427
G1 X24.809 Y31.691 E38.45053
G1 X25.506 Y31.487 E38.48676
G1 X26.221 Y31.361 E38.52298
G1 X27.007 Y31.314 E38.56226
G1 X27.173 Y31.314 E38.57054
G1 X27.898 Y31.354 E38.60677
G1 X28.615 Y31.473 E38.64303
G1 X29.314 Y31.671 E38.67928
G1 X29.987 Y31.944 E38.71551
G1 X30.626 Y32.289 E38.75174
G1 X31.223 Y32.703 E38.78798
G1 X31.864 Y33.271 E38.83071
G1 X58.287 Y59.97 E40.70476
G1 X84.985 Y33.547 E42.57877
G1 X85.529 Y33.065 E42.61503
G1 X86.122 Y32.646 E42.65126
G1 X86.758 Y32.295 E42.6875
G1 X87.428 Y32.015 E42.72373
G1 X88.126 Y31.811 E42.76001
G1 X88.841 Y31.685 E42.79623
G1 X89.628 Y31.638 E42.83556
G1 X89.794 Y31.638 E42.84384
G1 X90.519 Y31.678 E42.88007
G1 X91.236 Y31.797 E42.91633
G1 X91.935 Y31.995 E42.95257
G1 X92.608 Y32.268 E42.98881
G1 X93.247 Y32.613 E43.02504
G1 X93.844 Y33.027 E43.06128
G1 X94.486 Y33.596 E43.10408
G1 X99.947 Y39.116 E43.49147
G1 X100.429 Y39.66 E43.52773
G1 X100.848 Y40.253 E43.56396
G1 X101.199 Y40.889 E43.6002
G1 X101.478 Y41.56 E43.63645
G1 X101.682 Y42.257 E43.67269
G1 X101.808 Y42.972 E43.70891
G1 X101.855 Y43.758 E43.74819
G1 X101.855 Y43.924 E43.75647
G1 X101.815 Y44.649 E43.7927
G1 X101.696 Y45.366 E43.82896
G1 X101.498 Y46.065 E43.8652
G1 X101.225 Y46.738 E43.90144
G1 X100.88 Y47.377 E43.93767
G1 X100.466 Y47.974 E43.97391
G1 X99.898 Y48.615 E44.01664
G1 X72.129 Y76.098 E45.96583
G1 X71.996 Y76.237 E45.97543
G1 X71.953 Y76.29 E45.97883
G1 X71.898 Y76.364 E45.98343
G1 X71.845 Y76.449 E45.98843
G1 X71.795 Y76.539 E45.99357
G1 X71.767 Y76.6 E45.99692
G1 X71.734 Y76.683 E46.00137
G1 X71.588 Y77.366 E46.03622
G1 X71.575 Y77.426 E46.03928
G1 X71.362 Y78.38 E46.08805
G1 X71.186 Y79.017 E46.12102
G1 X71.026 Y79.5 E46.1464
G1 X70.755 Y80.187 E46.18325
G1 X70.337 Y81.094 E46.23307
G1 X70.007 Y81.72 E46.26838
G1 X69.745 Y82.158 E46.29384
G1 X69.482 Y82.563 E46.31793
G1 X69.192 Y82.976 E46.34311
G1 X68.756 Y83.531 E46.37832
G1 X68.108 Y84.271 E46.42739
G1 X67.636 Y84.757 E46.46119
G1 X67.267 Y85.1 E46.48633
G1 X66.902 Y85.416 E46.51041
G1 X66.509 Y85.731 E46.53554
G1 X66.127 Y86.015 E46.55929
G1 X65.715 Y86.299 E46.58425
G1 X65.098 Y86.676 E46.62033
