;FLAVOR:Marlin
;TIME:2906
;Filament used: 1.60156m
;Layer height: 0.1
;MINX:32.083
;MINY:24.2
;MINZ:0.3
;MAXX:77.907
;MAXY:85.8
;MAXZ:15
;Generated with Cura_SteamEngine 4.4.0
M104 S200
M105
M109 S200
M82 ;absolute extrusion mode
G21 ;metric values
 G90 ;absolute positioning
 M82 ;set extruder to absolute mode
 M107 ;start with the fan off
 G28 X0 Y0 ;move X/Y to min endstops
 G28 Z0 ;move Z to min endstops
 G1 Z15.0 F120 ;move the platform down 15mm
 G92 E0 ;zero the extruded length
 G1 F200 E6 ;extrude 6 mm of feed stock
 G92 E0 ;zero the extruded length again
 G1 F120 
 ;Put printing message on LCD screen
 M117 Printing...
G92 E0
G92 E0
G1 F1500 E-6.5
;LAYER_COUNT:148
;LAYER:0
M107
G0 F3600 X43.714 Y27.546 Z0.3
;TYPE:SKIRT
G1 F1500 E0
G1 F1800 X44.197 Y26.922 E0.03937
G1 X44.74 Y26.349 E0.07875
G1 X45.339 Y25.834 E0.11816
G1 X45.987 Y25.383 E0.15755
G1 X46.678 Y24.999 E0.19699
G1 X47.403 Y24.687 E0.23637
G1 X48.156 Y24.45 E0.27575
G1 X48.93 Y24.291 E0.31517
G1 X49.715 Y24.21 E0.35455
G1 X50.117 Y24.2 E0.37461
G1 X70.117 Y24.2 E1.37241
G1 X70.906 Y24.24 E1.41183
G1 X71.686 Y24.359 E1.45119
G1 X72.451 Y24.557 E1.49061
G1 X73.191 Y24.831 E1.52998
G1 X73.9 Y25.179 E1.56939
G1 X74.571 Y25.597 E1.60883
G1 X75.195 Y26.08 E1.64819
G1 X75.768 Y26.623 E1.68758
G1 X76.283 Y27.222 E1.72699
G1 X76.734 Y27.87 E1.76638
G1 X77.118 Y28.561 E1.80582
G1 X77.43 Y29.286 E1.84519
G1 X77.667 Y30.039 E1.88458
G1 X77.826 Y30.813 E1.924
G1 X77.907 Y31.598 E1.96337
G1 X77.907 Y32.388 E2.00278
G1 X77.828 Y33.174 E2.0422
G1 X77.731 Y33.694 E2.06859
G1 X68.261 Y76.263 E4.24428
G1 X68.195 Y76.535 E4.25824
G1 X67.909 Y77.633 E4.31485
G1 X67.563 Y78.662 E4.36901
G1 X67.296 Y79.304 E4.4037
G1 X66.89 Y80.137 E4.44993
G1 X66.547 Y80.746 E4.4848
G1 X66.048 Y81.521 E4.53079
G1 X65.635 Y82.086 E4.56571
G1 X65.054 Y82.79 E4.61125
G1 X64.574 Y83.307 E4.64644
G1 X64.008 Y83.858 E4.68585
G1 X63.39 Y84.349 E4.72523
G1 X62.724 Y84.774 E4.76465
G1 X62.02 Y85.13 E4.804
G1 X61.282 Y85.414 E4.84345
G1 X60.52 Y85.621 E4.88285
G1 X59.741 Y85.75 E4.92224
G1 X58.858 Y85.8 E4.96637
G1 X39.883 Y85.8 E5.91303
G1 X39.094 Y85.76 E5.95245
G1 X38.314 Y85.641 E5.99181
G1 X37.549 Y85.443 E6.03123
G1 X36.809 Y85.169 E6.0706
G1 X36.1 Y84.821 E6.11001
G1 X35.429 Y84.403 E6.14945
G1 X34.805 Y83.92 E6.18881
G1 X34.232 Y83.377 E6.2282
G1 X33.717 Y82.778 E6.26761
G1 X33.266 Y82.13 E6.307
G1 X32.882 Y81.439 E6.34644
G1 X32.57 Y80.714 E6.38582
G1 X32.333 Y79.961 E6.4252
G1 X32.174 Y79.187 E6.46462
G1 X32.093 Y78.402 E6.50399
G1 X32.083 Y78 E6.52405
G1 X32.083 Y74 E6.72362
G1 X32.123 Y73.211 E6.76303
G1 X32.242 Y72.431 E6.80239
G1 X32.44 Y71.666 E6.84182
G1 X32.714 Y70.926 E6.88119
G1 X33.062 Y70.217 E6.92059
G1 X33.48 Y69.546 E6.96003
G1 X33.963 Y68.922 E6.9994
G1 X34.506 Y68.349 E7.03878
G1 X35.105 Y67.834 E7.07819
G1 X35.753 Y67.383 E7.11758
G1 X36.444 Y66.999 E7.15702
G1 X37.169 Y66.687 E7.1964
G1 X37.922 Y66.45 E7.23578
G1 X38.696 Y66.291 E7.2752
G1 X39.481 Y66.21 E7.31458
G1 X39.883 Y66.2 E7.33464
G1 X47.346 Y66.2 E7.70697
G1 X52.107 Y44.8 E8.80072
G1 X50.117 Y44.8 E8.9
G1 X49.328 Y44.76 E8.93942
G1 X48.548 Y44.641 E8.97878
G1 X47.783 Y44.443 E9.0182
G1 X47.043 Y44.169 E9.05757
G1 X46.334 Y43.821 E9.09698
G1 X45.663 Y43.403 E9.13642
G1 X45.039 Y42.92 E9.17579
G1 X44.466 Y42.377 E9.21517
G1 X43.951 Y41.778 E9.25458
G1 X43.5 Y41.13 E9.29397
G1 X43.116 Y40.439 E9.33341
G1 X42.804 Y39.714 E9.37279
G1 X42.567 Y38.961 E9.41217
G1 X42.408 Y38.187 E9.45159
G1 X42.327 Y37.402 E9.49096
G1 X42.317 Y37 E9.51102
G1 X42.317 Y32 E9.76048
G1 X42.357 Y31.211 E9.79989
G1 X42.476 Y30.431 E9.83925
G1 X42.674 Y29.666 E9.87868
G1 X42.948 Y28.926 E9.91805
G1 X43.296 Y28.217 E9.95745
G1 X43.714 Y27.546 E9.99689
G0 F3600 X44.111 Y27.677
G1 F1800 X44.592 Y27.077 E10.03526
G1 X45.133 Y26.53 E10.07364
G1 X45.728 Y26.042 E10.11203
G1 X46.37 Y25.619 E10.15039
G1 X47.053 Y25.264 E10.18879
G1 X47.768 Y24.983 E10.22712
G1 X48.51 Y24.777 E10.26554
G1 X49.268 Y24.649 E10.30389
G1 X50.117 Y24.6 E10.34632
G1 X70.117 Y24.6 E11.34412
G1 X70.885 Y24.64 E11.38249
G1 X71.645 Y24.759 E11.42087
G1 X72.388 Y24.957 E11.45923
G1 X73.107 Y25.231 E11.49762
G1 X73.793 Y25.578 E11.53597
G1 X74.44 Y25.994 E11.57434
G1 X75.04 Y26.475 E11.61271
G1 X75.587 Y27.016 E11.65109
G1 X76.075 Y27.611 E11.68948
G1 X76.498 Y28.253 E11.72784
G1 X76.853 Y28.936 E11.76624
G1 X77.134 Y29.651 E11.80457
G1 X77.34 Y30.393 E11.84299
G1 X77.468 Y31.151 E11.88134
G1 X77.517 Y31.919 E11.91974
G1 X77.485 Y32.687 E11.95809
G1 X77.34 Y33.607 E12.00455
G1 X67.87 Y76.176 E14.18024
G1 X67.808 Y76.434 E14.19348
G1 X67.522 Y77.532 E14.25009
G1 X67.194 Y78.509 E14.30151
G1 X66.927 Y79.151 E14.3362
G1 X66.542 Y79.94 E14.38
G1 X66.199 Y80.549 E14.41487
G1 X65.725 Y81.285 E14.45854
G1 X65.312 Y81.85 E14.49346
G1 X64.761 Y82.518 E14.53666
G1 X64.281 Y83.035 E14.57185
G1 X63.729 Y83.571 E14.61024
G1 X63.125 Y84.046 E14.64858
G1 X62.474 Y84.456 E14.68696
G1 X61.784 Y84.797 E14.72536
G1 X61.063 Y85.064 E14.76372
G1 X60.318 Y85.255 E14.80209
G1 X59.557 Y85.367 E14.84046
G1 X58.858 Y85.4 E14.87537
G1 X39.883 Y85.4 E15.82204
G1 X39.115 Y85.36 E15.86041
G1 X38.355 Y85.241 E15.89879
G1 X37.612 Y85.043 E15.93715
G1 X36.893 Y84.769 E15.97554
G1 X36.207 Y84.422 E16.01389
G1 X35.56 Y84.006 E16.05227
G1 X34.96 Y83.525 E16.09063
G1 X34.413 Y82.984 E16.12901
G1 X33.925 Y82.389 E16.16741
G1 X33.502 Y81.747 E16.20576
G1 X33.147 Y81.064 E16.24417
G1 X32.866 Y80.349 E16.28249
G1 X32.66 Y79.607 E16.32091
G1 X32.532 Y78.849 E16.35926
G1 X32.483 Y78 E16.40169
G1 X32.483 Y74 E16.60125
G1 X32.523 Y73.232 E16.63962
G1 X32.642 Y72.472 E16.678
G1 X32.84 Y71.729 E16.71636
G1 X33.114 Y71.01 E16.75475
G1 X33.461 Y70.324 E16.7931
G1 X33.877 Y69.677 E16.83148
G1 X34.358 Y69.077 E16.86984
G1 X34.899 Y68.53 E16.90823
G1 X35.494 Y68.042 E16.94662
G1 X36.136 Y67.619 E16.98497
G1 X36.819 Y67.264 E17.02338
G1 X37.534 Y66.983 E17.0617
G1 X38.276 Y66.777 E17.10012
G1 X39.034 Y66.649 E17.13847
G1 X39.883 Y66.6 E17.1809
G1 X47.667 Y66.6 E17.56925
G1 X52.607 Y44.4 E18.7039
G1 X50.117 Y44.4 E18.82813
G1 X49.349 Y44.36 E18.86649
G1 X48.589 Y44.241 E18.90487
G1 X47.846 Y44.043 E18.94323
G1 X47.127 Y43.769 E18.98162
G1 X46.441 Y43.422 E19.01998
G1 X45.794 Y43.006 E19.05835
G1 X45.194 Y42.525 E19.09672
G1 X44.647 Y41.984 E19.1351
G1 X44.159 Y41.389 E19.17349
G1 X43.736 Y40.747 E19.21185
G1 X43.381 Y40.064 E19.25025
G1 X43.1 Y39.349 E19.28858
G1 X42.894 Y38.607 E19.327
G1 X42.766 Y37.849 E19.36535
G1 X42.717 Y37 E19.40778
G1 X42.717 Y32 E19.65723
G1 X42.757 Y31.232 E19.6956
G1 X42.876 Y30.472 E19.73397
G1 X43.074 Y29.729 E19.77234
G1 X43.348 Y29.01 E19.81072
G1 X43.695 Y28.324 E19.84908
G1 X44.111 Y27.677 E19.88745
G0 F3600 X44.509 Y27.811
G1 F1800 X44.988 Y27.237 E19.92475
G1 X45.525 Y26.716 E19.96208
G1 X46.115 Y26.257 E19.99937
G1 X46.751 Y25.862 E20.03673
G1 X47.425 Y25.538 E20.07403
G1 X48.13 Y25.288 E20.11135
G1 X48.858 Y25.114 E20.1487
G1 X49.6 Y25.019 E20.18602
G1 X50.117 Y25 E20.21183
G1 X70.117 Y25 E21.20963
G1 X70.864 Y25.04 E21.24695
G1 X71.602 Y25.159 E21.28425
G1 X72.324 Y25.357 E21.3216
G1 X73.02 Y25.63 E21.3589
G1 X73.683 Y25.977 E21.39623
G1 X74.306 Y26.392 E21.43358
G1 X74.88 Y26.871 E21.47088
G1 X75.401 Y27.408 E21.5082
G1 X75.86 Y27.998 E21.5455
G1 X76.255 Y28.634 E21.58285
G1 X76.579 Y29.308 E21.62016
G1 X76.829 Y30.013 E21.65748
G1 X77.003 Y30.741 E21.69482
G1 X77.098 Y31.483 E21.73214
G1 X77.113 Y32.231 E21.76947
G1 X77.049 Y32.976 E21.80677
G1 X76.95 Y33.52 E21.83436
G1 X67.48 Y76.089 E24.01005
G1 X67.421 Y76.333 E24.02258
G1 X67.135 Y77.431 E24.07918
G1 X66.824 Y78.355 E24.12782
G1 X66.557 Y78.997 E24.16251
G1 X66.193 Y79.744 E24.20397
G1 X65.85 Y80.353 E24.23884
G1 X65.402 Y81.049 E24.28013
G1 X64.989 Y81.614 E24.31505
G1 X64.468 Y82.246 E24.35591
G1 X63.988 Y82.763 E24.39111
G1 X63.45 Y83.283 E24.42844
G1 X62.86 Y83.743 E24.46576
G1 X62.225 Y84.137 E24.50305
G1 X61.551 Y84.461 E24.54036
G1 X60.846 Y84.712 E24.57769
G1 X60.118 Y84.886 E24.61503
G1 X59.376 Y84.981 E24.65235
G1 X58.858 Y85 E24.67822
G1 X39.883 Y85 E25.62488
G1 X39.136 Y84.96 E25.6622
G1 X38.398 Y84.841 E25.6995
G1 X37.676 Y84.643 E25.73685
G1 X36.98 Y84.37 E25.77415
G1 X36.317 Y84.023 E25.81148
G1 X35.694 Y83.608 E25.84883
G1 X35.12 Y83.129 E25.88613
G1 X34.599 Y82.592 E25.92345
G1 X34.14 Y82.002 E25.96075
G1 X33.745 Y81.366 E25.9981
G1 X33.421 Y80.692 E26.03541
G1 X33.171 Y79.987 E26.07273
G1 X32.997 Y79.259 E26.11007
G1 X32.902 Y78.517 E26.14739
G1 X32.883 Y78 E26.1732
G1 X32.883 Y74 E26.37276
G1 X32.923 Y73.253 E26.41008
G1 X33.042 Y72.515 E26.44738
G1 X33.24 Y71.793 E26.48473
G1 X33.513 Y71.097 E26.52203
G1 X33.86 Y70.434 E26.55936
G1 X34.275 Y69.811 E26.59671
G1 X34.754 Y69.237 E26.63401
G1 X35.291 Y68.716 E26.67133
G1 X35.881 Y68.257 E26.70863
G1 X36.517 Y67.862 E26.74598
G1 X37.191 Y67.538 E26.78329
G1 X37.896 Y67.288 E26.82061
G1 X38.624 Y67.114 E26.85795
G1 X39.366 Y67.019 E26.89527
G1 X39.883 Y67 E26.92108
G1 X47.987 Y67 E27.32539
G1 X53.105 Y44 E28.50093
G1 X50.117 Y44 E28.65001
G1 X49.37 Y43.96 E28.68733
G1 X48.632 Y43.841 E28.72462
G1 X47.91 Y43.643 E28.76197
G1 X47.214 Y43.37 E28.79927
G1 X46.551 Y43.023 E28.8366
G1 X45.928 Y42.608 E28.87395
G1 X45.354 Y42.129 E28.91125
G1 X44.833 Y41.592 E28.94858
G1 X44.374 Y41.002 E28.98587
G1 X43.979 Y40.366 E29.02322
G1 X43.655 Y39.692 E29.06053
G1 X43.405 Y38.987 E29.09785
G1 X43.231 Y38.259 E29.13519
G1 X43.136 Y37.517 E29.17251
G1 X43.117 Y37 E29.19833
G1 X43.117 Y32 E29.44778
G1 X43.157 Y31.253 E29.4851
G1 X43.276 Y30.515 E29.52239
G1 X43.474 Y29.793 E29.55974
G1 X43.747 Y29.097 E29.59704
G1 X44.094 Y28.434 E29.63438
G1 X44.509 Y27.811 E29.67172
G0 F3600 X44.906 Y27.95
G1 F1800 X45.382 Y27.402 E29.70794
G1 X45.916 Y26.909 E29.74419
G1 X46.501 Y26.479 E29.78042
G1 X47.13 Y26.115 E29.81667
G1 X47.795 Y25.822 E29.85293
G1 X48.488 Y25.604 E29.88917
G1 X49.2 Y25.464 E29.92537
G1 X50.117 Y25.4 E29.97123
G1 X70.117 Y25.4 E30.96904
G1 X70.842 Y25.44 E31.00526
G1 X71.559 Y25.559 E31.04152
G1 X72.258 Y25.757 E31.07777
G1 X72.931 Y26.03 E31.114
G1 X73.57 Y26.375 E31.15023
G1 X74.167 Y26.789 E31.18648
G1 X74.715 Y27.265 E31.22269
G1 X75.208 Y27.799 E31.25895
G1 X75.638 Y28.384 E31.29517
G1 X76.002 Y29.013 E31.33143
G1 X76.295 Y29.678 E31.36768
G1 X76.513 Y30.371 E31.40393
G1 X76.653 Y31.083 E31.44013
G1 X76.714 Y31.807 E31.47638
G1 X76.695 Y32.533 E31.51261
G1 X76.56 Y33.433 E31.55802
G1 X67.09 Y76.002 E33.73371
G1 X67.034 Y76.233 E33.74557
G1 X66.748 Y77.331 E33.80217
G1 X66.455 Y78.201 E33.84797
G1 X66.188 Y78.843 E33.88266
G1 X65.845 Y79.548 E33.92178
G1 X65.502 Y80.157 E33.95665
G1 X65.079 Y80.813 E33.99559
G1 X64.666 Y81.378 E34.03051
G1 X64.175 Y81.974 E34.06903
G1 X63.695 Y82.491 E34.10423
G1 X63.172 Y82.995 E34.14046
G1 X62.597 Y83.439 E34.17671
G1 X61.977 Y83.817 E34.21294
G1 X61.319 Y84.124 E34.24916
G1 X60.631 Y84.357 E34.2854
G1 X59.921 Y84.514 E34.32168
G1 X58.858 Y84.6 E34.37488
G1 X39.883 Y84.6 E35.32155
G1 X39.158 Y84.56 E35.35778
G1 X38.441 Y84.441 E35.39404
G1 X37.742 Y84.243 E35.43028
G1 X37.069 Y83.97 E35.46652
G1 X36.43 Y83.625 E35.50275
G1 X35.833 Y83.211 E35.53899
G1 X35.285 Y82.735 E35.5752
G1 X34.792 Y82.201 E35.61146
G1 X34.362 Y81.616 E35.64769
G1 X33.998 Y80.987 E35.68394
G1 X33.705 Y80.322 E35.7202
G1 X33.487 Y79.629 E35.75644
G1 X33.347 Y78.917 E35.79264
G1 X33.283 Y78 E35.8385
G1 X33.283 Y74 E36.03806
G1 X33.323 Y73.275 E36.07429
G1 X33.442 Y72.558 E36.11055
G1 X33.64 Y71.859 E36.1468
G1 X33.913 Y71.186 E36.18303
G1 X34.258 Y70.547 E36.21926
G1 X34.672 Y69.95 E36.2555
G1 X35.148 Y69.402 E36.29172
G1 X35.682 Y68.909 E36.32798
G1 X36.267 Y68.479 E36.3642
G1 X36.896 Y68.115 E36.40046
G1 X37.561 Y67.822 E36.43671
G1 X38.254 Y67.604 E36.47295
G1 X38.966 Y67.464 E36.50916
G1 X39.883 Y67.4 E36.55502
G1 X48.309 Y67.4 E36.97539
G1 X53.604 Y43.6 E38.19181
G1 X50.117 Y43.6 E38.36578
G1 X49.392 Y43.56 E38.402
G1 X48.675 Y43.441 E38.43826
G1 X47.976 Y43.243 E38.47451
G1 X47.303 Y42.97 E38.51074
G1 X46.664 Y42.625 E38.54697
G1 X46.067 Y42.211 E38.58322
G1 X45.519 Y41.735 E38.61943
G1 X45.026 Y41.201 E38.65569
G1 X44.596 Y40.616 E38.69191
G1 X44.232 Y39.987 E38.72817
G1 X43.939 Y39.322 E38.76442
G1 X43.721 Y38.629 E38.80067
G1 X43.581 Y37.917 E38.83687
G1 X43.517 Y37 E38.88273
G1 X43.517 Y32 E39.13218
G1 X43.557 Y31.275 E39.16841
G1 X43.676 Y30.558 E39.20467
G1 X43.874 Y29.859 E39.24091
G1 X44.147 Y29.186 E39.27714
G1 X44.492 Y28.547 E39.31337
G1 X44.906 Y27.95 E39.34962
G0 F3600 X44.891 Y28.665
G1 F1800 X45.302 Y28.094 E39.38472
G1 X45.776 Y27.573 E39.41986
G1 X46.306 Y27.109 E39.455
G1 X46.885 Y26.709 E39.49011
G1 X47.506 Y26.377 E39.52524
G1 X48.16 Y26.117 E39.56036
G1 X48.84 Y25.933 E39.5955
G1 X49.536 Y25.827 E39.63062
G1 X50.117 Y25.8 E39.65964
G1 X70.117 Y25.8 E40.65745
G1 X70.82 Y25.84 E40.69258
G1 X71.514 Y25.959 E40.72771
G1 X72.189 Y26.157 E40.7628
G1 X72.838 Y26.429 E40.79791
G1 X73.452 Y26.774 E40.83304
G1 X74.023 Y27.185 E40.86814
G1 X74.544 Y27.659 E40.90328
G1 X75.008 Y28.189 E40.93843
G1 X75.408 Y28.768 E40.97354
G1 X75.74 Y29.389 E41.00867
G1 X76 Y30.043 E41.04378
G1 X76.184 Y30.723 E41.07893
G1 X76.29 Y31.419 E41.11405
G1 X76.316 Y32.122 E41.14915
G1 X76.262 Y32.824 E41.18427
G1 X76.169 Y33.346 E41.21073
G1 X66.699 Y75.915 E43.38642
G1 X66.647 Y76.132 E43.39755
G1 X66.361 Y77.23 E43.45416
G1 X66.086 Y78.048 E43.49721
G1 X65.819 Y78.69 E43.5319
G1 X65.496 Y79.352 E43.56865
G1 X65.153 Y79.961 E43.60352
G1 X64.756 Y80.577 E43.64008
G1 X64.343 Y81.142 E43.675
G1 X63.882 Y81.701 E43.71115
G1 X63.402 Y82.218 E43.74635
G1 X62.894 Y82.706 E43.78149
G1 X62.335 Y83.134 E43.81661
G1 X61.73 Y83.495 E43.85176
G1 X61.089 Y83.785 E43.88686
G1 X60.419 Y84 E43.92197
G1 X59.728 Y84.139 E43.95713
G1 X58.858 Y84.2 E44.00064
G1 X39.883 Y84.2 E44.94731
G1 X39.18 Y84.16 E44.98244
G1 X38.486 Y84.041 E45.01757
G1 X37.811 Y83.843 E45.05266
G1 X37.162 Y83.571 E45.08777
G1 X36.548 Y83.226 E45.12291
G1 X35.977 Y82.815 E45.15801
G1 X35.456 Y82.341 E45.19315
G1 X34.992 Y81.811 E45.22829
G1 X34.592 Y81.232 E45.2634
G1 X34.26 Y80.611 E45.29853
G1 X34 Y79.957 E45.33364
G1 X33.816 Y79.277 E45.36879
G1 X33.71 Y78.581 E45.40391
G1 X33.683 Y78 E45.43293
G1 X33.683 Y74 E45.63249
G1 X33.723 Y73.297 E45.66762
G1 X33.842 Y72.603 E45.70275
G1 X34.04 Y71.928 E45.73785
G1 X34.312 Y71.279 E45.77295
G1 X34.657 Y70.665 E45.80809
G1 X35.068 Y70.094 E45.84319
G1 X35.542 Y69.573 E45.87833
G1 X36.072 Y69.109 E45.91347
G1 X36.651 Y68.709 E45.94858
G1 X37.272 Y68.377 E45.98371
G1 X37.926 Y68.117 E46.01883
G1 X38.606 Y67.933 E46.05397
G1 X39.302 Y67.827 E46.0891
G1 X39.883 Y67.8 E46.11811
G1 X48.629 Y67.8 E46.55445
G1 X54.103 Y43.2 E47.81177
G1 X50.117 Y43.2 E48.01063
G1 X49.414 Y43.16 E48.04576
G1 X48.72 Y43.041 E48.08089
G1 X48.045 Y42.843 E48.11599
G1 X47.396 Y42.571 E48.15109
G1 X46.782 Y42.226 E48.18623
G1 X46.211 Y41.815 E48.22133
G1 X45.69 Y41.341 E48.25647
G1 X45.226 Y40.811 E48.29161
G1 X44.826 Y40.232 E48.32672
G1 X44.494 Y39.611 E48.36185
G1 X44.234 Y38.957 E48.39697
G1 X44.05 Y38.277 E48.43211
G1 X43.944 Y37.581 E48.46724
G1 X43.917 Y37 E48.49625
G1 X43.917 Y32 E48.7457
G1 X43.957 Y31.297 E48.78083
G1 X44.076 Y30.603 E48.81596
G1 X44.274 Y29.928 E48.85106
G1 X44.546 Y29.279 E48.88616
G1 X44.891 Y28.665 E48.9213
G0 F3600 X45.289 Y28.786
G1 F1800 X45.699 Y28.242 E48.95529
G1 X46.17 Y27.751 E48.98923
G1 X46.695 Y27.317 E49.02322
G1 X47.267 Y26.948 E49.05718
G1 X47.879 Y26.649 E49.09116
G1 X48.521 Y26.424 E49.1251
G1 X49.186 Y26.275 E49.1591
G1 X50.117 Y26.2 E49.20569
G1 X70.117 Y26.2 E50.2035
