;FLAVOR:Marlin
;TIME:4739
;Filament used: 2.97922m
;Layer height: 0.1
;MINX:26.2
;MINY:30.397
;MINZ:0.3
;MAXX:83.8
;MAXY:79.603
;MAXZ:28
;Generated with Cura_SteamEngine 4.4.0
M104 S200
M105
M109 S200
M82 ;absolute extrusion mode
G21 ;metric values
 G90 ;absolute positioning
 M82 ;set extruder to absolute mode
 M107 ;start with the fan off
 G28 X0 Y0 ;move X/Y to min endstops
 G28 Z0 ;move Z to min endstops
 G1 Z15.0 F120 ;move the platform down 15mm
 G92 E0 ;zero the extruded length
 G1 F200 E6 ;extrude 6 mm of feed stock
 G92 E0 ;zero the extruded length again
 G1 F120 
 ;Put printing message on LCD screen
 M117 Printing...
G92 E0
G92 E0
G1 F1500 E-6.5
;LAYER_COUNT:278
;LAYER:0
M107
G0 F3600 X30.377 Y33.201 Z0.3
;TYPE:SKIRT
G1 F1500 E0
G1 F1800 X30.842 Y32.827 E0.02977
G1 X31.786 Y32.176 E0.08698
G1 X32.313 Y31.867 E0.11746
G1 X33.013 Y31.503 E0.15682
G1 X33.41 Y31.335 E0.17833
G1 X33.953 Y31.122 E0.20743
G1 X35.025 Y30.788 E0.26345
G1 X35.611 Y30.651 E0.29347
G1 X36.758 Y30.471 E0.3514
G1 X37.351 Y30.423 E0.38108
G1 X37.98 Y30.398 E0.41248
G1 X72.003 Y30.397 E2.1099
G1 X72.576 Y30.418 E2.1385
G1 X73.146 Y30.46 E2.16702
G1 X74.261 Y30.624 E2.22324
G1 X74.852 Y30.755 E2.25344
G1 X75.983 Y31.097 E2.31239
G1 X76.535 Y31.311 E2.34193
G1 X77.584 Y31.811 E2.39991
G1 X78.104 Y32.108 E2.42978
G1 X79.08 Y32.767 E2.48854
G1 X79.547 Y33.137 E2.51826
G1 X80.391 Y33.913 E2.57546
G1 X80.803 Y34.352 E2.6055
G1 X81.541 Y35.269 E2.66422
G1 X81.885 Y35.769 E2.6945
G1 X82.478 Y36.787 E2.75328
G1 X82.733 Y37.313 E2.78244
G1 X83.156 Y38.379 E2.83966
G1 X83.335 Y38.949 E2.86946
G1 X83.598 Y40.076 E2.9272
G1 X83.691 Y40.668 E2.9571
G1 X83.774 Y41.453 E2.99648
G1 X83.786 Y41.86 E3.0168
G1 X83.8 Y47.95 E3.32063
G1 X83.798 Y48.122 E3.32921
G1 X83.788 Y48.629 E3.35451
G1 X83.71 Y49.591 E3.40266
G1 X83.624 Y50.186 E3.43265
G1 X83.471 Y50.961 E3.47206
G1 X83.364 Y51.347 E3.49205
G1 X83.19 Y51.917 E3.52178
G1 X82.774 Y52.99 E3.5792
G1 X82.52 Y53.524 E3.6087
G1 X81.942 Y54.537 E3.66688
G1 X81.618 Y55.017 E3.69578
G1 X82.202 Y55.908 E3.74893
G1 X82.514 Y56.471 E3.78104
G1 X82.862 Y57.18 E3.82044
G1 X83.136 Y57.921 E3.85986
G1 X83.245 Y58.305 E3.87977
G1 X83.434 Y59.038 E3.91754
G1 X83.579 Y59.726 E3.95262
G1 X83.686 Y60.38 E3.98568
G1 X83.774 Y61.164 E4.02504
G1 X83.788 Y61.624 E4.048
G1 X83.8 Y67.722 E4.35223
G1 X83.779 Y68.315 E4.38183
G1 X83.732 Y68.947 E4.41345
G1 X83.57 Y70.049 E4.46902
G1 X83.437 Y70.652 E4.49983
G1 X83.102 Y71.766 E4.55786
G1 X82.886 Y72.329 E4.58795
G1 X82.567 Y73.051 E4.62733
G1 X82.268 Y73.589 E4.65804
G1 X81.976 Y74.069 E4.68607
G1 X81.471 Y74.801 E4.73043
G1 X81.042 Y75.353 E4.76531
G1 X80.342 Y76.138 E4.81778
G1 X79.994 Y76.479 E4.84209
G1 X79.403 Y77.003 E4.8815
G1 X78.848 Y77.407 E4.91575
G1 X78.289 Y77.778 E4.94922
G1 X77.61 Y78.181 E4.98861
G1 X77.211 Y78.377 E5.01079
G1 X76.759 Y78.583 E5.03557
G1 X75.953 Y78.897 E5.07873
G1 X75.309 Y79.108 E5.11254
G1 X74.547 Y79.316 E5.15194
G1 X74 Y79.415 E5.17968
G1 X73.345 Y79.51 E5.2127
G1 X72.228 Y79.591 E5.26857
G1 X40.661 Y79.603 E6.84345
G1 X40.603 Y79.603 E6.84635
G1 X37.36 Y79.58 E7.00815
G1 X36.571 Y79.534 E7.04758
G1 X35.705 Y79.39 E7.09137
G1 X35.34 Y79.308 E7.11004
G1 X34.463 Y79.056 E7.15556
G1 X33.934 Y78.87 E7.18354
G1 X33.231 Y78.584 E7.2214
G1 X32.743 Y78.357 E7.24825
G1 X32.045 Y77.988 E7.28764
G1 X31.532 Y77.655 E7.31816
G1 X31.048 Y77.313 E7.34772
G1 X30.252 Y76.668 E7.39884
G1 X29.73 Y76.185 E7.43432
G1 X28.968 Y75.372 E7.48991
G1 X28.677 Y75.013 E7.51296
G1 X28.033 Y74.09 E7.56911
G1 X27.692 Y73.517 E7.60238
G1 X27.323 Y72.819 E7.64177
G1 X27.114 Y72.325 E7.66853
G1 X26.897 Y71.76 E7.69873
G1 X26.563 Y70.651 E7.75651
G1 X26.424 Y70.024 E7.78855
G1 X26.271 Y69.039 E7.83828
G1 X26.233 Y68.619 E7.85932
G1 X26.201 Y67.917 E7.89438
G1 X26.2 Y61.623 E8.20839
G1 X26.227 Y60.979 E8.24055
G1 X26.252 Y60.677 E8.25567
G1 X26.386 Y59.742 E8.30279
G1 X26.519 Y59.098 E8.3356
G1 X26.718 Y58.334 E8.37498
G1 X26.938 Y57.724 E8.40734
G1 X27.223 Y57.027 E8.4449
G1 X27.611 Y56.215 E8.4898
G1 X27.768 Y55.93 E8.50604
G1 X28.184 Y55.259 E8.54542
G1 X28.384 Y54.999 E8.56179
G1 X27.979 Y54.411 E8.59741
G1 X27.67 Y53.884 E8.62789
G1 X27.306 Y53.184 E8.66725
G1 X27.138 Y52.787 E8.68876
G1 X26.925 Y52.244 E8.71786
G1 X26.591 Y51.172 E8.77388
G1 X26.454 Y50.586 E8.8039
G1 X26.275 Y49.445 E8.86152
G1 X26.227 Y48.857 E8.89095
G1 X26.201 Y48.223 E8.92261
G1 X26.2 Y42.427 E9.21177
G1 X26.202 Y42.272 E9.21951
G1 X26.212 Y41.765 E9.24481
G1 X26.29 Y40.803 E9.29296
G1 X26.376 Y40.208 E9.32295
G1 X26.529 Y39.433 E9.36236
G1 X26.636 Y39.047 E9.38235
G1 X26.81 Y38.477 E9.41208
G1 X27.226 Y37.404 E9.46949
G1 X27.48 Y36.87 E9.499
G1 X28.058 Y35.857 E9.55718
G1 X28.394 Y35.359 E9.58715
G1 X29.11 Y34.452 E9.64481
G1 X29.516 Y34.009 E9.67478
G1 X30.377 Y33.201 E9.73369
G0 F3600 X30.628 Y33.513
G1 F1800 X31.093 Y33.139 E9.76346
G1 X31.988 Y32.521 E9.81773
G1 X32.515 Y32.212 E9.8482
G1 X33.198 Y31.858 E9.88658
G1 X33.556 Y31.707 E9.90597
G1 X34.099 Y31.494 E9.93507
G1 X35.116 Y31.177 E9.98822
G1 X35.702 Y31.04 E10.01824
G1 X36.79 Y30.87 E10.07318
G1 X37.383 Y30.822 E10.10286
G1 X37.98 Y30.798 E10.13267
G1 X72.003 Y30.797 E11.83008
G1 X72.547 Y30.817 E11.85724
G1 X73.117 Y30.859 E11.88576
G1 X74.174 Y31.014 E11.93905
G1 X74.765 Y31.145 E11.96925
G1 X75.839 Y31.47 E12.02524
G1 X76.391 Y31.684 E12.05477
G1 X77.386 Y32.158 E12.10976
G1 X77.906 Y32.455 E12.13963
G1 X78.831 Y33.081 E12.19536
G1 X79.298 Y33.451 E12.22508
G1 X80.099 Y34.187 E12.27935
G1 X80.511 Y34.626 E12.30939
G1 X81.211 Y35.496 E12.3651
G1 X81.555 Y35.996 E12.39538
G1 X82.118 Y36.962 E12.45116
G1 X82.373 Y37.488 E12.48032
G1 X82.774 Y38.499 E12.53459
G1 X82.953 Y39.069 E12.56439
G1 X83.203 Y40.138 E12.61916
G1 X83.296 Y40.73 E12.64906
G1 X83.386 Y41.861 E12.70566
G1 X83.4 Y47.951 E13.0095
G1 X83.399 Y48.114 E13.01763
G1 X83.389 Y48.621 E13.04293
G1 X83.314 Y49.534 E13.08863
G1 X83.228 Y50.129 E13.11862
G1 X82.982 Y51.231 E13.17496
G1 X82.808 Y51.801 E13.20469
G1 X82.413 Y52.819 E13.25917
G1 X82.159 Y53.353 E13.28867
G1 X81.61 Y54.313 E13.34384
G1 X81.274 Y54.811 E13.37381
G1 X81.109 Y55.02 E13.3871
G1 X81.392 Y55.375 E13.40975
G1 X81.853 Y56.102 E13.4527
G1 X82.165 Y56.665 E13.48481
G1 X82.502 Y57.356 E13.52316
G1 X82.858 Y58.404 E13.57838
G1 X83.047 Y59.137 E13.61615
G1 X83.184 Y59.79 E13.64944
G1 X83.291 Y60.444 E13.6825
G1 X83.375 Y61.209 E13.72089
G1 X83.388 Y61.624 E13.74161
G1 X83.4 Y67.722 E14.04584
G1 X83.38 Y68.286 E14.074
G1 X83.333 Y68.918 E14.10561
G1 X83.179 Y69.963 E14.15831
G1 X83.046 Y70.566 E14.18912
G1 X82.729 Y71.623 E14.24417
G1 X82.513 Y72.186 E14.27426
G1 X82.201 Y72.889 E14.31263
G1 X81.926 Y73.381 E14.34075
G1 X81.634 Y73.861 E14.36878
G1 X81.155 Y74.556 E14.41089
G1 X80.726 Y75.108 E14.44577
G1 X80.062 Y75.852 E14.49552
G1 X79.714 Y76.193 E14.51983
G1 X79.138 Y76.703 E14.55821
G1 X78.627 Y77.074 E14.58971
G1 X78.068 Y77.445 E14.62319
G1 X77.406 Y77.836 E14.66154
G1 X77.045 Y78.013 E14.6816
G1 X76.593 Y78.219 E14.70639
G1 X75.828 Y78.517 E14.74734
G1 X75.184 Y78.728 E14.78115
G1 X74.442 Y78.929 E14.81951
G1 X73.942 Y79.019 E14.84485
G1 X73.287 Y79.114 E14.87787
G1 X72.228 Y79.191 E14.93085
G1 X40.661 Y79.203 E16.50573
G1 X40.606 Y79.203 E16.50847
G1 X37.363 Y79.18 E16.67027
G1 X36.595 Y79.134 E16.70866
G1 X35.793 Y79 E16.74922
G1 X35.428 Y78.918 E16.76789
G1 X34.595 Y78.679 E16.81112
G1 X34.066 Y78.493 E16.8391
G1 X33.4 Y78.222 E16.87497
G1 X32.912 Y77.995 E16.90182
G1 X32.232 Y77.634 E16.94023
G1 X31.763 Y77.328 E16.96817
G1 X31.279 Y76.986 E16.99774
G1 X30.523 Y76.375 E17.04623
G1 X30.001 Y75.892 E17.08171
G1 X29.278 Y75.12 E17.13448
G1 X28.987 Y74.761 E17.15754
G1 X28.377 Y73.885 E17.21079
G1 X28.036 Y73.312 E17.24406
G1 X27.677 Y72.632 E17.28242
G1 X27.487 Y72.181 E17.30684
G1 X27.27 Y71.616 E17.33703
G1 X26.953 Y70.565 E17.3918
G1 X26.814 Y69.938 E17.42384
G1 X26.669 Y69.003 E17.47105
G1 X26.631 Y68.583 E17.49209
G1 X26.601 Y67.917 E17.52535
G1 X26.6 Y61.623 E17.83936
G1 X26.625 Y61.012 E17.86986
G1 X26.65 Y60.71 E17.88498
G1 X26.778 Y59.823 E17.92969
G1 X26.911 Y59.179 E17.9625
G1 X27.105 Y58.435 E18.00086
G1 X27.308 Y57.875 E18.03058
G1 X27.593 Y57.178 E18.06815
G1 X27.961 Y56.408 E18.11072
G1 X28.118 Y56.123 E18.12696
G1 X28.524 Y55.47 E18.16532
G1 X28.878 Y55.013 E18.19416
G1 X28.324 Y54.209 E18.24287
G1 X28.015 Y53.682 E18.27335
G1 X27.661 Y52.999 E18.31173
G1 X27.51 Y52.641 E18.33111
G1 X27.297 Y52.098 E18.36021
G1 X26.98 Y51.081 E18.41336
G1 X26.843 Y50.495 E18.44338
G1 X26.674 Y49.412 E18.49807
G1 X26.626 Y48.824 E18.5275
G1 X26.601 Y48.223 E18.55751
G1 X26.6 Y42.427 E18.84668
G1 X26.601 Y42.28 E18.85401
G1 X26.611 Y41.773 E18.87931
G1 X26.686 Y40.86 E18.92501
G1 X26.772 Y40.265 E18.955
G1 X27.018 Y39.163 E19.01134
G1 X27.192 Y38.593 E19.04107
G1 X27.587 Y37.575 E19.09555
G1 X27.841 Y37.041 E19.12505
G1 X28.39 Y36.081 E19.18022
G1 X28.726 Y35.583 E19.21019
G1 X29.405 Y34.722 E19.2649
G1 X29.811 Y34.279 E19.29488
G1 X30.628 Y33.513 E19.35075
G0 F3600 X30.879 Y33.824
G1 F1800 X31.344 Y33.45 E19.38052
G1 X32.19 Y32.866 E19.43181
G1 X32.717 Y32.557 E19.46229
G1 X33.702 Y32.079 E19.51691
G1 X34.245 Y31.866 E19.54601
G1 X35.207 Y31.567 E19.59627
G1 X35.793 Y31.43 E19.62629
G1 X36.822 Y31.269 E19.67826
G1 X37.415 Y31.221 E19.70794
G1 X37.98 Y31.198 E19.73615
G1 X72.003 Y31.197 E21.43356
G1 X72.517 Y31.216 E21.45922
G1 X73.087 Y31.258 E21.48774
G1 X74.088 Y31.405 E21.53821
G1 X74.679 Y31.536 E21.56842
G1 X75.694 Y31.843 E21.62132
G1 X76.246 Y32.057 E21.65086
G1 X77.188 Y32.506 E21.70292
G1 X77.708 Y32.803 E21.73279
G1 X78.583 Y33.394 E21.78547
G1 X79.05 Y33.764 E21.8152
G1 X79.807 Y34.461 E21.86654
G1 X80.219 Y34.9 E21.89657
G1 X80.882 Y35.722 E21.94926
G1 X81.226 Y36.222 E21.97954
G1 X81.758 Y37.136 E22.0323
G1 X82.013 Y37.662 E22.06146
G1 X82.392 Y38.619 E22.11282
G1 X82.571 Y39.189 E22.14262
G1 X82.808 Y40.2 E22.19443
G1 X82.901 Y40.792 E22.22433
G1 X82.986 Y41.862 E22.27788
G1 X83 Y47.952 E22.58171
G1 X82.999 Y48.106 E22.58939
G1 X82.989 Y48.613 E22.61469
G1 X82.918 Y49.476 E22.65789
G1 X82.832 Y50.071 E22.68789
G1 X82.599 Y51.114 E22.7412
G1 X82.425 Y51.684 E22.77094
G1 X82.051 Y52.647 E22.82248
G1 X81.797 Y53.181 E22.85198
G1 X81.279 Y54.089 E22.90413
G1 X80.943 Y54.587 E22.9341
G1 X80.593 Y55.031 E22.96231
G1 X80.76 Y55.211 E22.97456
G1 X81.207 Y55.81 E23.01185
G1 X81.503 Y56.296 E23.04024
G1 X81.815 Y56.859 E23.07235
G1 X82.142 Y57.532 E23.10968
G1 X82.47 Y58.504 E23.16086
G1 X82.659 Y59.237 E23.19862
G1 X82.789 Y59.855 E23.23013
G1 X82.896 Y60.509 E23.26319
G1 X82.988 Y61.625 E23.31906
G1 X83 Y67.723 E23.62329
G1 X82.981 Y68.256 E23.6499
G1 X82.934 Y68.888 E23.68152
G1 X82.789 Y69.877 E23.73139
G1 X82.656 Y70.48 E23.76219
G1 X82.356 Y71.479 E23.81423
G1 X82.14 Y72.042 E23.84432
G1 X81.835 Y72.726 E23.88168
G1 X81.584 Y73.173 E23.90726
G1 X81.292 Y73.653 E23.93529
G1 X80.839 Y74.311 E23.97514
G1 X80.41 Y74.863 E24.01002
G1 X79.782 Y75.567 E24.05709
G1 X79.434 Y75.908 E24.08139
G1 X78.873 Y76.402 E24.11869
G1 X78.406 Y76.74 E24.14745
G1 X77.847 Y77.111 E24.18092
G1 X76.879 Y77.649 E24.23617
G1 X76.427 Y77.855 E24.26095
G1 X75.703 Y78.137 E24.29972
G1 X75.059 Y78.348 E24.33353
G1 X74.337 Y78.543 E24.37084
G1 X73.885 Y78.624 E24.39375
G1 X73.23 Y78.719 E24.42677
G1 X72.228 Y78.791 E24.47689
G1 X40.661 Y78.803 E26.05177
G1 X40.608 Y78.803 E26.05442
G1 X37.365 Y78.78 E26.21621
G1 X36.619 Y78.735 E26.2535
G1 X35.881 Y78.61 E26.29084
G1 X35.516 Y78.528 E26.30951
G1 X34.728 Y78.302 E26.3504
G1 X34.199 Y78.116 E26.37838
G1 X33.569 Y77.859 E26.41233
G1 X33.081 Y77.632 E26.43918
G1 X32.42 Y77.281 E26.47652
G1 X31.993 Y77.002 E26.50196
G1 X31.509 Y76.66 E26.53153
G1 X30.795 Y76.081 E26.57739
G1 X30.273 Y75.598 E26.61287
G1 X29.589 Y74.868 E26.66278
G1 X29.298 Y74.509 E26.68584
G1 X28.721 Y73.681 E26.73619
G1 X28.38 Y73.108 E26.76945
G1 X28.032 Y72.445 E26.80681
G1 X27.86 Y72.038 E26.82885
G1 X27.643 Y71.473 E26.85905
G1 X27.344 Y70.478 E26.91088
G1 X27.205 Y69.851 E26.94292
G1 X27.067 Y68.967 E26.98756
G1 X27.029 Y68.547 E27.0086
G1 X27.001 Y67.917 E27.04006
G1 X27 Y61.623 E27.35407
G1 X27.024 Y61.045 E27.38293
G1 X27.049 Y60.743 E27.39805
G1 X27.17 Y59.904 E27.44034
G1 X27.303 Y59.26 E27.47315
G1 X27.493 Y58.537 E27.51045
G1 X27.679 Y58.027 E27.53753
G1 X27.964 Y57.33 E27.5751
G1 X28.312 Y56.601 E27.6154
G1 X28.469 Y56.316 E27.63163
G1 X28.864 Y55.681 E27.66894
G1 X29.325 Y55.092 E27.70626
G1 X29.391 Y55.024 E27.71098
G1 X29.251 Y54.85 E27.72213
G1 X28.669 Y54.007 E27.77323
G1 X28.36 Y53.48 E27.80371
G1 X27.882 Y52.495 E27.85833
G1 X27.669 Y51.952 E27.88743
G1 X27.37 Y50.99 E27.93769
G1 X27.233 Y50.404 E27.96772
G1 X27.072 Y49.38 E28.01943
G1 X27.024 Y48.792 E28.04887
G1 X27.001 Y48.223 E28.07728
G1 X27 Y42.427 E28.36644
G1 X27.001 Y42.288 E28.37337
G1 X27.011 Y41.781 E28.39867
G1 X27.082 Y40.918 E28.44187
G1 X27.168 Y40.323 E28.47187
G1 X27.401 Y39.28 E28.52519
G1 X27.575 Y38.71 E28.55492
G1 X27.949 Y37.747 E28.60646
G1 X28.203 Y37.213 E28.63596
G1 X28.721 Y36.305 E28.68811
G1 X29.057 Y35.807 E28.71809
G1 X29.699 Y34.992 E28.76985
G1 X30.105 Y34.549 E28.79983
G1 X30.879 Y33.824 E28.85274
G0 F3600 X31.13 Y34.136
G1 F1800 X31.595 Y33.762 E28.88251
G1 X32.393 Y33.212 E28.93086
G1 X32.92 Y32.903 E28.96134
G1 X33.848 Y32.452 E29.01281
G1 X34.391 Y32.239 E29.04191
G1 X35.299 Y31.956 E29.08936
G1 X35.885 Y31.819 E29.11939
G1 X36.855 Y31.668 E29.16836
G1 X37.448 Y31.62 E29.19805
G1 X37.98 Y31.598 E29.22461
G1 X72.003 Y31.597 E30.92202
G1 X72.488 Y31.615 E30.94624
G1 X73.058 Y31.657 E30.97475
G1 X74.001 Y31.795 E31.0223
G1 X74.592 Y31.926 E31.0525
G1 X75.55 Y32.216 E31.10244
G1 X76.102 Y32.43 E31.13197
G1 X76.989 Y32.853 E31.181
G1 X77.509 Y33.15 E31.21088
G1 X78.335 Y33.708 E31.26061
G1 X78.802 Y34.078 E31.29033
G1 X79.516 Y34.734 E31.33871
G1 X79.928 Y35.173 E31.36874
G1 X80.552 Y35.949 E31.41842
G1 X80.896 Y36.449 E31.4487
G1 X81.398 Y37.311 E31.49847
G1 X81.653 Y37.837 E31.52763
G1 X82.011 Y38.739 E31.57605
G1 X82.19 Y39.309 E31.60585
G1 X82.413 Y40.262 E31.65468
G1 X82.506 Y40.854 E31.68458
G1 X82.586 Y41.863 E31.73508
G1 X82.6 Y47.953 E32.03891
G1 X82.599 Y48.098 E32.04614
G1 X82.589 Y48.605 E32.07144
G1 X82.522 Y49.419 E32.11219
G1 X82.436 Y50.014 E32.14218
G1 X82.216 Y50.997 E32.19244
G1 X82.042 Y51.567 E32.22217
G1 X81.69 Y52.475 E32.27076
G1 X81.436 Y53.009 E32.30026
G1 X80.947 Y53.865 E32.34944
G1 X80.611 Y54.363 E32.37941
G1 X80.07 Y55.05 E32.42304
G1 X80.122 Y55.099 E32.4266
G1 X80.598 Y55.647 E32.46282
G1 X81.153 Y56.49 E32.51317
G1 X81.465 Y57.053 E32.54528
G1 X81.781 Y57.707 E32.58152
G1 X82.083 Y58.604 E32.62874
G1 X82.272 Y59.337 E32.66651
G1 X82.394 Y59.919 E32.69617
G1 X82.501 Y60.573 E32.72924
G1 X82.588 Y61.626 E32.78195
G1 X82.6 Y67.724 E33.08618
G1 X82.582 Y68.226 E33.11124
G1 X82.535 Y68.858 E33.14286
G1 X82.398 Y69.791 E33.18991
G1 X82.265 Y70.394 E33.22071
G1 X81.982 Y71.336 E33.26979
G1 X81.766 Y71.899 E33.29987
G1 X81.469 Y72.562 E33.33611
G1 X81.243 Y72.965 E33.35917
G1 X80.951 Y73.445 E33.3872
G1 X80.523 Y74.065 E33.42478
G1 X80.094 Y74.617 E33.45966
G1 X79.502 Y75.281 E33.50404
G1 X79.154 Y75.622 E33.52835
G1 X78.608 Y76.101 E33.56459
G1 X78.185 Y76.407 E33.59063
G1 X77.626 Y76.778 E33.6241
G1 X76.713 Y77.285 E33.67621
G1 X76.261 Y77.491 E33.70099
G1 X75.579 Y77.757 E33.73751
G1 X74.935 Y77.968 E33.77132
G1 X74.233 Y78.156 E33.80758
G1 X73.827 Y78.228 E33.82815
G1 X73.172 Y78.323 E33.86117
G1 X72.228 Y78.391 E33.90839
G1 X40.661 Y78.403 E35.48327
G1 X40.611 Y78.403 E35.48577
G1 X37.368 Y78.38 E35.64756
