;FLAVOR:Marlin
;TIME:2265
;Filament used: 1.16059m
;Layer height: 0.1
;MINX:27.179
;MINY:36.597
;MINZ:0.3
;MAXX:82.802
;MAXY:73.403
;MAXZ:17.8
;Generated with Cura_SteamEngine 4.4.0
M104 S200
M105
M109 S200
M82 ;absolute extrusion mode
G21 ;metric values
 G90 ;absolute positioning
 M82 ;set extruder to absolute mode
 M107 ;start with the fan off
 G28 X0 Y0 ;move X/Y to min endstops
 G28 Z0 ;move Z to min endstops
 G1 Z15.0 F120 ;move the platform down 15mm
 G92 E0 ;zero the extruded length
 G1 F200 E6 ;extrude 6 mm of feed stock
 G92 E0 ;zero the extruded length again
 G1 F120 
 ;Put printing message on LCD screen
 M117 Printing...
G92 E0
G92 E0
G1 F1500 E-6.5
;LAYER_COUNT:176
;LAYER:0
M107
G0 F3600 X32.915 Y44.102 Z0.3
;TYPE:SKIRT
G1 F1500 E0
G1 F1800 X33.575 Y43.669 E0.03938
G1 X34.276 Y43.305 E0.07879
G1 X34.68 Y43.133 E0.10069
G1 X48.169 Y37.86 E0.82325
G1 X48.922 Y37.609 E0.86285
G1 X51.061 Y37.015 E0.97361
G1 X51.832 Y36.843 E1.01302
G1 X52.645 Y36.747 E1.05386
G1 X54.222 Y36.645 E1.1327
G1 X54.304 Y36.64 E1.1368
G1 X55.062 Y36.599 E1.17467
G1 X55.851 Y36.597 E1.21404
G1 X56.715 Y36.686 E1.25737
G1 X58.921 Y37.039 E1.36883
G1 X59.694 Y37.203 E1.40825
G1 X60.466 Y37.452 E1.44872
G1 X74.128 Y42.657 E2.17811
G1 X74.851 Y42.975 E2.21752
G1 X75.251 Y43.191 E2.2402
G1 X77.08 Y44.247 E2.34556
G1 X77.12 Y44.27 E2.34786
G1 X77.202 Y44.318 E2.35261
G1 X77.863 Y44.751 E2.39203
G1 X78.476 Y45.249 E2.43143
G1 X79.036 Y45.806 E2.47084
G1 X79.574 Y46.467 E2.51336
G1 X80.813 Y48.174 E2.61859
G1 X80.869 Y48.251 E2.62334
G1 X81.301 Y48.913 E2.66278
G1 X81.663 Y49.614 E2.70214
G1 X81.953 Y50.349 E2.74156
G1 X82.191 Y51.218 E2.78651
G1 X82.631 Y53.289 E2.89214
G1 X82.756 Y54.069 E2.93155
G1 X82.801 Y54.866 E2.97137
G1 X82.802 Y55.045 E2.9803
G1 X82.766 Y55.834 E3.01971
G1 X82.631 Y56.713 E3.06408
G1 X82.19 Y58.785 E3.16976
G1 X81.987 Y59.548 E3.20915
G1 X81.707 Y60.286 E3.24853
G1 X81.355 Y60.993 E3.28794
G1 X80.873 Y61.744 E3.33246
G1 X79.574 Y63.533 E3.44276
G1 X79.078 Y64.148 E3.48218
G1 X78.523 Y64.709 E3.52155
G1 X77.913 Y65.211 E3.56096
G1 X77.164 Y65.704 E3.6057
G1 X75.253 Y66.808 E3.7158
G1 X74.55 Y67.168 E3.75521
G1 X74.145 Y67.336 E3.77708
G1 X73.569 Y67.557 E3.80786
G1 X73.561 Y67.56 E3.80829
G1 X60.572 Y72.527 E4.50207
G1 X59.821 Y72.772 E4.54149
G1 X59.051 Y72.939 E4.58079
G1 X56.781 Y73.312 E4.69556
G1 X55.996 Y73.4 E4.73497
G1 X55.092 Y73.403 E4.78007
G1 X52.796 Y73.278 E4.89479
G1 X52.011 Y73.196 E4.93417
G1 X51.133 Y73.006 E4.97899
G1 X48.922 Y72.392 E5.09347
G1 X48.169 Y72.14 E5.13308
G1 X34.68 Y66.866 E5.85566
G1 X33.96 Y66.542 E5.89505
G1 X33.276 Y66.147 E5.93446
G1 X32.636 Y65.684 E5.97387
G1 X32.303 Y65.401 E5.99567
G1 X30.66 Y63.923 E6.10592
G1 X30.101 Y63.366 E6.14529
G1 X29.6 Y62.755 E6.18471
G1 X29.164 Y62.096 E6.22414
G1 X28.751 Y61.295 E6.2691
G1 X27.853 Y59.277 E6.37929
G1 X27.569 Y58.54 E6.4187
G1 X27.36 Y57.779 E6.45807
G1 X27.23 Y57 E6.49747
G1 X27.179 Y56.106 E6.54215
G1 X27.179 Y53.894 E6.65251
G1 X27.219 Y53.105 E6.69192
G1 X27.338 Y52.325 E6.73128
G1 X27.536 Y51.56 E6.77071
G1 X27.853 Y50.723 E6.81536
G1 X28.751 Y48.705 E6.92556
G1 X29.108 Y48.001 E6.96494
G1 X29.534 Y47.336 E7.00434
G1 X30.026 Y46.718 E7.04375
G1 X30.661 Y46.077 E7.08876
G1 X32.232 Y44.663 E7.19421
G1 X32.302 Y44.6 E7.19891
G1 X32.915 Y44.102 E7.23831
G0 F3600 X33.167 Y44.413
G1 F1800 X33.812 Y43.994 E7.27669
G1 X34.826 Y43.506 E7.33283
G1 X48.315 Y38.233 E8.05539
G1 X49.029 Y37.995 E8.09294
G1 X51.168 Y37.401 E8.20369
G1 X51.919 Y37.234 E8.24207
G1 X52.67 Y37.146 E8.2798
G1 X54.247 Y37.044 E8.35864
G1 X54.325 Y37.04 E8.36254
G1 X55.083 Y36.999 E8.40041
G1 X55.852 Y36.997 E8.43877
G1 X56.652 Y37.081 E8.4789
G1 X58.858 Y37.434 E8.59036
G1 X59.61 Y37.595 E8.62873
G1 X60.324 Y37.826 E8.66617
G1 X73.986 Y43.031 E9.39556
G1 X74.689 Y43.342 E9.43391
G1 X75.051 Y43.537 E9.45443
G1 X76.88 Y44.593 E9.55979
G1 X76.918 Y44.616 E9.56201
G1 X77 Y44.664 E9.56675
G1 X77.643 Y45.086 E9.60512
G1 X78.238 Y45.573 E9.64348
G1 X78.78 Y46.119 E9.68186
G1 X79.25 Y46.702 E9.71922
G1 X80.49 Y48.41 E9.82452
G1 X80.546 Y48.487 E9.82927
G1 X80.965 Y49.131 E9.86761
G1 X81.315 Y49.816 E9.90598
G1 X81.593 Y50.533 E9.94435
G1 X81.799 Y51.301 E9.98402
G1 X82.239 Y53.372 E10.08965
G1 X82.36 Y54.132 E10.12804
G1 X82.401 Y54.869 E10.16487
G1 X82.402 Y55.048 E10.1738
G1 X82.366 Y55.816 E10.21216
G1 X82.24 Y56.629 E10.2532
G1 X81.799 Y58.701 E10.35889
G1 X81.6 Y59.444 E10.39726
G1 X81.325 Y60.163 E10.43567
G1 X80.977 Y60.849 E10.47405
G1 X80.549 Y61.509 E10.51329
G1 X79.25 Y63.298 E10.62359
G1 X78.766 Y63.896 E10.66197
G1 X78.223 Y64.441 E10.70035
G1 X77.626 Y64.926 E10.73873
G1 X76.964 Y65.358 E10.77817
G1 X75.053 Y66.462 E10.88827
G1 X74.368 Y66.811 E10.92663
G1 X74.002 Y66.963 E10.9464
G1 X73.426 Y67.184 E10.97718
G1 X73.418 Y67.187 E10.97761
G1 X60.429 Y72.154 E11.67139
G1 X59.697 Y72.391 E11.70978
G1 X58.986 Y72.544 E11.74606
G1 X56.716 Y72.917 E11.86083
G1 X55.951 Y73.002 E11.89923
G1 X55.114 Y73.004 E11.94099
G1 X52.818 Y72.879 E12.05571
G1 X52.053 Y72.797 E12.09409
G1 X51.24 Y72.62 E12.13561
G1 X49.029 Y72.006 E12.25009
G1 X48.314 Y71.768 E12.28768
G1 X34.825 Y66.494 E13.01026
G1 X34.125 Y66.177 E13.0486
G1 X33.46 Y65.789 E13.08701
G1 X32.571 Y65.104 E13.143
G1 X30.928 Y63.626 E13.25326
G1 X30.384 Y63.082 E13.29164
G1 X29.899 Y62.485 E13.33001
G1 X29.478 Y61.841 E13.3684
G1 X29.116 Y61.133 E13.40807
G1 X28.218 Y59.115 E13.51827
G1 X27.942 Y58.397 E13.55664
G1 X27.743 Y57.654 E13.59502
G1 X27.621 Y56.894 E13.63342
G1 X27.579 Y56.106 E13.67279
G1 X27.579 Y53.894 E13.78315
G1 X27.619 Y53.126 E13.82151
G1 X27.738 Y52.366 E13.85989
G1 X27.936 Y51.623 E13.89826
G1 X28.218 Y50.885 E13.93767
G1 X29.116 Y48.867 E14.04787
G1 X29.465 Y48.182 E14.08622
G1 X29.883 Y47.536 E14.12461
G1 X30.366 Y46.938 E14.16296
G1 X30.928 Y46.374 E14.20268
G1 X32.501 Y44.959 E14.30824
G1 X32.502 Y44.96 E14.30831
G1 X32.57 Y44.898 E14.3129
G1 X33.167 Y44.413 E14.35128
G0 F3600 X33.419 Y44.725
G1 F1800 X34.048 Y44.32 E14.3886
G1 X34.971 Y43.878 E14.43966
G1 X48.46 Y38.605 E15.16222
G1 X49.136 Y38.38 E15.19776
G1 X51.275 Y37.786 E15.30851
G1 X52.005 Y37.625 E15.34581
G1 X52.696 Y37.546 E15.38051
G1 X54.273 Y37.444 E15.45935
G1 X54.347 Y37.439 E15.46305
G1 X55.105 Y37.398 E15.50092
G1 X55.853 Y37.398 E15.53824
G1 X56.589 Y37.476 E15.57516
G1 X58.795 Y37.829 E15.68662
G1 X59.526 Y37.986 E15.72392
G1 X60.181 Y38.2 E15.7583
G1 X73.843 Y43.405 E16.48769
G1 X74.851 Y43.884 E16.54337
G1 X76.68 Y44.94 E16.64874
G1 X76.716 Y44.961 E16.65082
G1 X76.798 Y45.009 E16.65556
G1 X77.423 Y45.421 E16.6929
G1 X78 Y45.897 E16.73022
G1 X78.523 Y46.432 E16.76755
G1 X78.926 Y46.937 E16.79978
G1 X80.166 Y48.645 E16.90508
G1 X80.222 Y48.722 E16.90983
G1 X80.629 Y49.349 E16.94713
G1 X80.967 Y50.017 E16.98448
G1 X81.231 Y50.717 E17.0218
G1 X81.408 Y51.384 E17.05623
G1 X81.848 Y53.455 E17.16186
G1 X81.964 Y54.194 E17.19918
G1 X82.001 Y54.871 E17.233
G1 X82.002 Y55.05 E17.24193
G1 X81.966 Y55.797 E17.27925
G1 X81.849 Y56.546 E17.31707
G1 X81.408 Y58.618 E17.42275
G1 X81.213 Y59.341 E17.46011
G1 X80.942 Y60.038 E17.49742
G1 X80.599 Y60.703 E17.53475
G1 X80.225 Y61.274 E17.56881
G1 X78.926 Y63.063 E17.67911
G1 X78.455 Y63.644 E17.71642
G1 X77.925 Y64.171 E17.75371
G1 X77.341 Y64.639 E17.79105
G1 X76.764 Y65.011 E17.8253
G1 X74.853 Y66.115 E17.93541
G1 X73.859 Y66.589 E17.99035
G1 X73.283 Y66.81 E18.02113
G1 X73.275 Y66.813 E18.02155
G1 X60.286 Y71.78 E18.71534
G1 X59.574 Y72.01 E18.75267
G1 X58.921 Y72.149 E18.78598
G1 X56.651 Y72.522 E18.90075
G1 X55.907 Y72.604 E18.93809
G1 X55.135 Y72.605 E18.97661
G1 X52.839 Y72.48 E19.09132
G1 X52.096 Y72.399 E19.12861
G1 X51.347 Y72.235 E19.16686
G1 X49.136 Y71.621 E19.28135
G1 X48.46 Y71.395 E19.31691
G1 X34.971 Y66.121 E20.03948
G1 X34.29 Y65.812 E20.07679
G1 X33.646 Y65.432 E20.1141
G1 X32.838 Y64.806 E20.16509
G1 X31.195 Y63.328 E20.27535
G1 X30.667 Y62.799 E20.31264
G1 X30.198 Y62.216 E20.34997
G1 X29.793 Y61.587 E20.38729
G1 X29.482 Y60.97 E20.42176
G1 X28.584 Y58.952 E20.53196
G1 X28.316 Y58.253 E20.56931
G1 X28.125 Y57.53 E20.60662
G1 X28.013 Y56.79 E20.64395
G1 X27.979 Y56.106 E20.67812
G1 X27.979 Y53.894 E20.78848
G1 X28.019 Y53.147 E20.8258
G1 X28.138 Y52.409 E20.86309
G1 X28.336 Y51.687 E20.90045
G1 X28.584 Y51.048 E20.93464
G1 X29.482 Y49.03 E21.04484
G1 X29.822 Y48.364 E21.08214
G1 X30.231 Y47.738 E21.11945
G1 X30.705 Y47.159 E21.15678
G1 X31.196 Y46.672 E21.19128
G1 X32.767 Y45.258 E21.29673
G1 X32.837 Y45.195 E21.30143
G1 X33.419 Y44.725 E21.33875
G0 F3600 X33.671 Y45.037
G1 F1800 X34.283 Y44.646 E21.37499
G1 X35.117 Y44.251 E21.42103
G1 X48.606 Y38.978 E22.14359
G1 X49.243 Y38.766 E22.17708
G1 X51.382 Y38.172 E22.28783
G1 X52.092 Y38.016 E22.3241
G1 X52.722 Y37.945 E22.35573
G1 X54.299 Y37.843 E22.43457
G1 X54.369 Y37.839 E22.43807
G1 X55.127 Y37.798 E22.47594
G1 X55.853 Y37.798 E22.51216
G1 X56.526 Y37.871 E22.54594
G1 X58.732 Y38.224 E22.65739
G1 X59.442 Y38.378 E22.69364
G1 X60.039 Y38.573 E22.72497
G1 X73.701 Y43.778 E23.45436
G1 X74.651 Y44.23 E23.50685
G1 X76.48 Y45.286 E23.61222
G1 X76.514 Y45.306 E23.61418
G1 X76.596 Y45.354 E23.61892
G1 X77.202 Y45.755 E23.65518
G1 X77.76 Y46.22 E23.69142
G1 X78.263 Y46.744 E23.72765
G1 X78.603 Y47.172 E23.75492
G1 X79.843 Y48.88 E23.86022
G1 X79.899 Y48.957 E23.86497
G1 X80.293 Y49.567 E23.9012
G1 X80.618 Y50.217 E23.93746
G1 X80.869 Y50.898 E23.97367
G1 X81.017 Y51.467 E24.003
G1 X81.457 Y53.538 E24.10863
G1 X81.569 Y54.256 E24.14489
G1 X81.601 Y54.873 E24.17571
G1 X81.602 Y55.052 E24.18464
G1 X81.566 Y55.778 E24.2209
G1 X81.457 Y56.463 E24.25551
G1 X81.016 Y58.535 E24.3612
G1 X80.826 Y59.236 E24.39743
G1 X80.56 Y59.912 E24.43367
G1 X80.222 Y60.555 E24.46992
G1 X79.902 Y61.039 E24.49886
G1 X78.603 Y62.828 E24.60916
G1 X78.144 Y63.391 E24.6454
G1 X77.627 Y63.901 E24.68163
G1 X77.056 Y64.35 E24.71787
G1 X76.564 Y64.665 E24.74702
G1 X74.653 Y65.769 E24.85713
G1 X73.715 Y66.216 E24.90897
G1 X73.139 Y66.437 E24.93975
G1 X73.132 Y66.44 E24.94013
G1 X60.143 Y71.407 E25.63391
G1 X59.452 Y71.628 E25.67011
G1 X58.856 Y71.755 E25.70051
G1 X56.586 Y72.128 E25.81528
G1 X55.864 Y72.206 E25.85151
G1 X55.157 Y72.205 E25.88678
G1 X52.861 Y72.08 E26.0015
G1 X52.139 Y72.001 E26.03774
G1 X51.454 Y71.849 E26.07274
G1 X49.243 Y71.235 E26.18722
G1 X48.606 Y71.023 E26.22072
G1 X35.117 Y65.749 E26.9433
G1 X34.456 Y65.448 E26.97953
G1 X33.832 Y65.075 E27.0158
G1 X33.106 Y64.509 E27.06173
G1 X31.463 Y63.031 E27.17198
G1 X30.951 Y62.516 E27.20821
G1 X30.498 Y61.948 E27.24446
G1 X30.11 Y61.334 E27.2807
G1 X29.847 Y60.807 E27.31008
G1 X28.949 Y58.789 E27.42028
G1 X28.691 Y58.11 E27.45652
G1 X28.509 Y57.407 E27.49274
G1 X28.405 Y56.688 E27.52899
G1 X28.379 Y56.106 E27.55805
G1 X28.379 Y53.894 E27.66841
G1 X28.419 Y53.169 E27.70464
G1 X28.538 Y52.452 E27.7409
G1 X28.736 Y51.753 E27.77714
G1 X28.949 Y51.211 E27.8062
G1 X29.847 Y49.193 E27.91639
G1 X30.178 Y48.546 E27.95265
G1 X30.579 Y47.94 E27.9889
G1 X31.043 Y47.382 E28.02511
G1 X31.463 Y46.969 E28.0545
G1 X33.036 Y45.554 E28.16005
G1 X33.105 Y45.492 E28.16468
G1 X33.671 Y45.037 E28.20091
G0 F3600 X33.922 Y45.349
G1 F1800 X34.517 Y44.974 E28.236
G1 X35.263 Y44.624 E28.27711
G1 X48.752 Y39.351 E28.99967
G1 X49.35 Y39.151 E29.03113
G1 X51.489 Y38.557 E29.14188
G1 X52.177 Y38.408 E29.177
G1 X52.748 Y38.344 E29.20567
G1 X54.325 Y38.242 E29.28451
G1 X54.39 Y38.238 E29.28776
G1 X55.148 Y38.197 E29.32563
G1 X55.852 Y38.199 E29.36076
G1 X56.463 Y38.266 E29.39142
G1 X58.669 Y38.619 E29.50288
G1 X59.356 Y38.769 E29.53796
G1 X59.896 Y38.947 E29.56633
G1 X73.558 Y44.152 E30.29572
G1 X74.451 Y44.577 E30.34506
G1 X76.28 Y45.633 E30.45043
G1 X76.312 Y45.651 E30.45226
G1 X76.394 Y45.699 E30.457
G1 X76.98 Y46.089 E30.49212
G1 X77.519 Y46.542 E30.52724
G1 X78.002 Y47.054 E30.56236
G1 X78.279 Y47.407 E30.58474
G1 X79.519 Y49.115 E30.69005
G1 X79.575 Y49.192 E30.6948
G1 X79.956 Y49.784 E30.72992
G1 X80.268 Y50.416 E30.76508
G1 X80.506 Y51.078 E30.80018
G1 X80.626 Y51.551 E30.82453
G1 X81.066 Y53.622 E30.93015
G1 X81.173 Y54.317 E30.96524
G1 X81.201 Y54.875 E30.99311
G1 X81.202 Y55.054 E31.00204
G1 X81.166 Y55.757 E31.03716
G1 X81.066 Y56.38 E31.06864
G1 X80.625 Y58.452 E31.17433
G1 X80.44 Y59.131 E31.20944
G1 X80.179 Y59.785 E31.24457
G1 X79.845 Y60.404 E31.27966
G1 X79.578 Y60.804 E31.30365
G1 X78.279 Y62.593 E31.41395
G1 X77.834 Y63.138 E31.44905
G1 X77.329 Y63.629 E31.48419
G1 X76.773 Y64.06 E31.51929
G1 X76.363 Y64.319 E31.54349
G1 X74.452 Y65.423 E31.65359
G1 X73.572 Y65.843 E31.70224
G1 X72.996 Y66.064 E31.73302
G1 X72.989 Y66.066 E31.73338
G1 X60 Y71.033 E32.42717
G1 X59.33 Y71.247 E32.46226
G1 X58.791 Y71.36 E32.48974
G1 X56.521 Y71.733 E32.60451
G1 X55.821 Y71.807 E32.63962
G1 X55.179 Y71.806 E32.67165
G1 X52.883 Y71.681 E32.78637
G1 X52.183 Y71.603 E32.82151
G1 X51.561 Y71.464 E32.85331
G1 X49.35 Y70.85 E32.96779
G1 X48.751 Y70.65 E32.99929
G1 X35.262 Y65.376 E33.72187
G1 X34.622 Y65.083 E33.75699
G1 X34.02 Y64.719 E33.79209
G1 X33.374 Y64.211 E33.83309
G1 X31.731 Y62.733 E33.94334
G1 X31.235 Y62.234 E33.97844
G1 X30.799 Y61.681 E34.01358
G1 X30.428 Y61.082 E34.04873
G1 X30.213 Y60.645 E34.07303
G1 X29.315 Y58.627 E34.18322
G1 X29.065 Y57.968 E34.21839
G1 X28.892 Y57.286 E34.25349
G1 X28.798 Y56.588 E34.28863
G1 X28.779 Y56.106 E34.31269
G1 X28.779 Y53.894 E34.42305
G1 X28.819 Y53.191 E34.45818
G1 X28.938 Y52.497 E34.49331
G1 X29.136 Y51.822 E34.52841
G1 X29.315 Y51.373 E34.55252
G1 X30.213 Y49.355 E34.66272
G1 X30.535 Y48.729 E34.69784
G1 X30.926 Y48.144 E34.73294
G1 X31.381 Y47.607 E34.76806
G1 X31.731 Y47.267 E34.7924
G1 X33.302 Y45.853 E34.89785
G1 X33.372 Y45.79 E34.90255
G1 X33.922 Y45.349 E34.93772
G0 F3600 X34.172 Y45.662
G1 F1800 X34.75 Y45.302 E34.97169
G1 X35.408 Y44.996 E35.0079
G1 X48.897 Y39.723 E35.73046
G1 X49.457 Y39.536 E35.75991
G1 X51.596 Y38.942 E35.87067
G1 X52.262 Y38.799 E35.90465
G1 X52.774 Y38.743 E35.93035
G1 X54.351 Y38.641 E36.00919
G1 X54.412 Y38.637 E36.01224
G1 X55.17 Y38.596 E36.05011
G1 X55.851 Y38.6 E36.08408
G1 X56.399 Y38.661 E36.11159
G1 X58.605 Y39.014 E36.22305
G1 X59.27 Y39.161 E36.25703
G1 X59.754 Y39.321 E36.28246
G1 X73.416 Y44.526 E37.01185
G1 X74.251 Y44.923 E37.05798
G1 X76.08 Y45.979 E37.16335
G1 X76.11 Y45.997 E37.16509
G1 X76.192 Y46.045 E37.16983
G1 X76.758 Y46.422 E37.20376
G1 X77.277 Y46.864 E37.23777
G1 X77.74 Y47.363 E37.27173
G1 X77.955 Y47.642 E37.2893
G1 X79.196 Y49.351 E37.39468
G1 X79.252 Y49.428 E37.39943
G1 X79.619 Y50.001 E37.43337
G1 X79.917 Y50.613 E37.46733
G1 X80.141 Y51.256 E37.5013
G1 X80.234 Y51.634 E37.52072
G1 X80.674 Y53.705 E37.62635
G1 X80.777 Y54.378 E37.66032
G1 X80.801 Y54.878 E37.68529
G1 X80.802 Y55.057 E37.69422
G1 X80.766 Y55.737 E37.7282
G1 X80.675 Y56.296 E37.75645
G1 X80.234 Y58.368 E37.86214
G1 X80.053 Y59.025 E37.89614
G1 X79.797 Y59.656 E37.93011
G1 X79.469 Y60.252 E37.96405
G1 X79.254 Y60.569 E37.98316
G1 X77.955 Y62.358 E38.09346
G1 X77.524 Y62.884 E38.12739
G1 X77.033 Y63.357 E38.1614
G1 X76.491 Y63.768 E38.19534
G1 X76.163 Y63.972 E38.21461
G1 X74.252 Y65.076 E38.32472
G1 X73.429 Y65.469 E38.37022
G1 X72.853 Y65.69 E38.401
G1 X72.847 Y65.692 E38.40131
G1 X59.858 Y70.659 E39.0951
G1 X59.208 Y70.865 E39.12912
G1 X58.726 Y70.965 E39.15368
G1 X56.456 Y71.338 E39.26845
G1 X55.779 Y71.409 E39.30241
G1 X55.201 Y71.406 E39.33124
G1 X52.905 Y71.281 E39.44596
G1 X52.228 Y71.205 E39.47995
G1 X51.668 Y71.079 E39.50859
G1 X49.457 Y70.465 E39.62307
G1 X48.897 Y70.278 E39.65252
G1 X35.408 Y65.004 E40.3751
G1 X34.789 Y64.719 E40.4091
G1 X34.209 Y64.364 E40.44303
